(.../workspace/GcodePhorum/pcb-gcode.ulp)
(Copyright 2005 - 2012 by John Johnson)
(See readme.txt for licensing terms.)
(This file generated from the board:)
(.../InterfaceEagle/interfaceBoard.brd)
(Current profile is .../GcodePhorum/profiles/mach.pp  )
(This file generated 7/4/2015 2:45:47 PM)
(Settings from pcb-machine.h)
(spindle on time = 3.0000)
(spindle speed = 10000.0000)
(tool change at 0.0000  0.0000  25.4000 )
(feed rate xy = F0     )
(feed rate z  = F508   )
(Z Axis Settings)
(  High     Up        Down     Drill)
(12.7000 	2.5400  	-0.1778 	-0.8128 )
(Settings from pcb-defaults.h)
(isolate min = 0.0500)
(isolate max = 0.5080)
(isolate step = 0.1270)
(Generated top outlines, top drill, )
(Unit of measure: mm)
( Tool|       Size       |  Min Sub |  Max Sub |   Count )
( T01 | 0.800mm 0.0315in | 0.0000in | 0.0000in |       0 )
( T02 | 0.813mm 0.0320in | 0.0000in | 0.0000in |       0 )
( T03 | 1.016mm 0.0400in | 0.0000in | 0.0000in |       0 )
( T04 | 1.100mm 0.0433in | 0.0000in | 0.0000in |       0 )
(Metric Mode)
G21
(Absolute Coordinates)
G90
S10000
G00 Z12.7000 
G00 X0.0000  Y0.0000  
M03
G04 P3.000000
M05
G00 Z25.4000 
M06 T01  ; 0.8000  
G01 Z0.0000  F508   
M06 
G00 Z2.5400  
M03
G04 P3.000000
G82 X0.0000  Y0.0000  Z-0.8128 F508   R2.5400  P1.000000
G82 X50.8000 Y0.0000  
G82 X50.8000 Y60.9600 
G82 X0.0000  Y60.9600 
M05
G00 Z25.4000 
G00 X0.0000  Y0.0000  
M06 T02  ; 0.8128  
G01 Z0.0000  F508   
M06 
G00 Z2.5400  
M03
G04 P3.000000
G82 X28.7020 Y27.1780 Z-0.8128 F508   R2.5400  P1.000000
G82 X34.7980 Y28.7020 
G82 X34.7980 Y31.2420 
G82 X34.7980 Y33.7820 
G82 X28.7020 Y36.3220 
M05
G00 Z25.4000 
G00 X0.0000  Y0.0000  
M06 T03  ; 1.0160  
G01 Z0.0000  F508   
M06 
G00 Z2.5400  
M03
G04 P3.000000
G82 X20.0660 Y9.6520  Z-0.8128 F508   R2.5400  P1.000000
G82 X20.0660 Y12.1920 
G82 X20.0660 Y14.7320 
G82 X20.0660 Y17.2720 
G82 X20.0660 Y19.8120 
G82 X20.0660 Y22.3520 
G82 X20.0660 Y24.8920 
G82 X20.0660 Y27.4320 
G82 X20.0660 Y29.9720 
G82 X20.0660 Y32.5120 
G82 X22.6060 Y32.5120 
G82 X22.6060 Y29.9720 
G82 X22.6060 Y27.4320 
G82 X22.6060 Y24.8920 
G82 X22.6060 Y22.3520 
G82 X22.6060 Y19.8120 
G82 X22.6060 Y17.2720 
G82 X22.6060 Y14.7320 
G82 X22.6060 Y12.1920 
G82 X22.6060 Y9.6520  
M05
G00 Z25.4000 
G00 X0.0000  Y0.0000  
M06 T04  ; 1.1000  
G01 Z0.0000  F508   
M06 
G00 Z2.5400  
M03
G04 P3.000000
G82 X5.9960  Y2.4820  Z-0.8128 F508   R2.5400  P1.000000
G82 X5.9960  Y5.9820  
G82 X5.9960  Y9.4820  
G82 X5.9960  Y12.9820 
G82 X5.9960  Y16.4820 
G82 X5.9960  Y19.9820 
G82 X5.9960  Y23.4820 
G82 X5.9960  Y26.9820 
G82 X5.9960  Y32.7080 
G82 X5.9960  Y36.2080 
G82 X5.9960  Y39.7080 
G82 X5.9960  Y43.2080 
G82 X5.9960  Y46.7080 
G82 X5.9960  Y50.2080 
G82 X5.9960  Y53.7080 
G82 X5.9960  Y57.2080 
G82 X20.2620 Y54.7640 
G82 X23.7620 Y54.7640 
G82 X27.2620 Y54.7640 
G82 X30.7620 Y54.7640 
G82 X34.2620 Y54.7640 
G82 X37.7620 Y54.7640 
G82 X41.2620 Y54.7640 
G82 X44.7620 Y54.7640 
G82 X44.7620 Y43.5880 
G82 X41.2620 Y43.5880 
G82 X37.7620 Y43.5880 
G82 X34.2620 Y43.5880 
G82 X30.7620 Y43.5880 
G82 X27.2620 Y43.5880 
G82 X23.7620 Y43.5880 
G82 X20.2620 Y43.5880 
G82 X25.1460 Y24.8920 
G82 X25.1460 Y22.3520 
G82 X25.1460 Y19.8120 
G82 X25.1460 Y17.2720 
G82 X28.3340 Y19.7120 
G82 X31.8340 Y19.7120 
G82 X35.3340 Y19.7120 
G82 X38.8340 Y19.7120 
G82 X42.3340 Y19.7120 
G82 X45.8340 Y19.7120 
G82 X44.8040 Y29.2380 
G82 X44.8040 Y32.7380 
G82 X45.8340 Y8.0280  
G82 X42.3340 Y8.0280  
G82 X38.8340 Y8.0280  
G82 X35.3340 Y8.0280  
G82 X31.8340 Y8.0280  
G82 X28.3340 Y8.0280  
G82 X11.1760 Y6.0960  
G82 X11.1760 Y2.5400  
G82 X11.1760 Y12.4460 
G82 X11.1760 Y15.4940 
T01 
G00 Z12.7000 
M05
M02
