(.../workspace/GcodePhorum/pcb-gcode.ulp)
(Copyright 2005 - 2012 by John Johnson)
(See readme.txt for licensing terms.)
(This file generated from the board:)
(.../InterfaceEagle/interfaceBoard.brd)
(Current profile is .../GcodePhorum/profiles/mach.pp  )
(This file generated 7/4/2015 2:44:06 PM)
(Settings from pcb-machine.h)
(spindle on time = 3.0000)
(  Tool Size)
(0.1778  )
(spindle speed = 10000.0000)
(tool change at 0.0000  0.0000  25.4000 )
(feed rate xy = F508   )
(feed rate z  = F254   )
(Z Axis Settings)
(  High     Up        Down     Drill)
(12.7000 	2.5400  	-0.1778 	-0.8128 )
(Settings from pcb-defaults.h)
(isolate min = 0.0500)
(isolate max = 0.5080)
(isolate step = 0.1270)
(Generated top outlines, top drill, )
(Unit of measure: mm)
(Metric Mode)
G21
(Absolute Coordinates)
G90
S10000
G00 Z12.7000 
G00 X0.0000  Y0.0000  
M03
G04 P3.000000
G00 Z2.5400  
G00 X1.4089  Y-1.2976 
G01 Z-0.1778 F254   
G01 X1.3878  Y-1.3487 F508   
G01 X1.3638  Y-1.3726 
G01 X49.4362 Y-1.3726 
G01 X49.4122 Y-1.3487 
G01 X49.3911 Y-1.2976 
G01 X49.3911 Y1.2976  
G01 X49.4122 Y1.3487  
G01 X49.4513 Y1.3878  
G01 X49.5024 Y1.4089  
G01 X52.0976 Y1.4089  
G01 X52.1487 Y1.3878  
G01 X52.1726 Y1.3638  
G01 X52.1726 Y59.5962 
G01 X52.1487 Y59.5722 
G01 X52.0976 Y59.5511 
G01 X49.5024 Y59.5511 
G01 X49.4513 Y59.5722 
G01 X49.4122 Y59.6113 
G01 X49.3911 Y59.6624 
G01 X49.3911 Y62.2576 
G01 X49.4122 Y62.3087 
G01 X49.4362 Y62.3326 
G01 X1.3638  Y62.3326 
G01 X1.3878  Y62.3087 
G01 X1.4089  Y62.2576 
G01 X1.4089  Y59.6624 
G01 X1.3878  Y59.6113 
G01 X1.3487  Y59.5722 
G01 X1.2976  Y59.5511 
G01 X-1.2976 Y59.5511 
G01 X-1.3487 Y59.5722 
G01 X-1.3726 Y59.5962 
G01 X-1.3726 Y1.3638  
G01 X-1.3487 Y1.3878  
G01 X-1.2976 Y1.4089  
G01 X1.2976  Y1.4089  
G01 X1.3487  Y1.3878  
G01 X1.3878  Y1.3487  
G01 X1.4089  Y1.2976  
G01 X1.4089  Y-1.2976 
G00 Z2.5400  
G00 X5.2279  Y1.8516  
G01 Z-0.1778 F254   
G01 X5.1196  Y2.0136  F508   
G01 X5.0451  Y2.1935  
G01 X5.0071  Y2.3846  
G01 X5.0071  Y2.5794  
G01 X5.0451  Y2.7704  
G01 X5.1196  Y2.9504  
G01 X5.2279  Y3.1124  
G01 X5.3656  Y3.2501  
G01 X5.5276  Y3.3584  
G01 X5.7075  Y3.4329  
G01 X5.8986  Y3.4709  
G01 X6.0934  Y3.4709  
G01 X6.2844  Y3.4329  
G01 X6.4644  Y3.3584  
G01 X6.6264  Y3.2501  
G01 X6.6841  Y3.1924  
G01 X10.2121 Y3.1924  
G01 X10.2121 Y3.3926  
G01 X10.2332 Y3.4437  
G01 X10.2723 Y3.4827  
G01 X10.3234 Y3.5039  
G01 X12.0286 Y3.5039  
G01 X12.0797 Y3.4827  
G01 X12.1188 Y3.4437  
G01 X12.1399 Y3.3926  
G01 X12.1399 Y1.6874  
G01 X12.1188 Y1.6363  
G01 X12.0797 Y1.5972  
G01 X12.0286 Y1.5761  
G01 X10.3234 Y1.5761  
G01 X10.2723 Y1.5972  
G01 X10.2332 Y1.6363  
G01 X10.2121 Y1.6874  
G01 X10.2121 Y1.7716  
G01 X6.6841  Y1.7716  
G01 X6.6264  Y1.7139  
G01 X6.4644  Y1.6056  
G01 X6.2844  Y1.5311  
G01 X6.0934  Y1.4931  
G01 X5.8986  Y1.4931  
G01 X5.7075  Y1.5311  
G01 X5.5276  Y1.6056  
G01 X5.3656  Y1.7139  
G01 X5.2279  Y1.8516  
G00 Z2.5400  
G00 X5.2279  Y5.3516  
G01 Z-0.1778 F254   
G01 X5.1196  Y5.5136  F508   
G01 X5.0451  Y5.6935  
G01 X5.0071  Y5.8846  
G01 X5.0071  Y6.0794  
G01 X5.0451  Y6.2705  
G01 X5.1196  Y6.4504  
G01 X5.2279  Y6.6124  
G01 X5.3656  Y6.7501  
G01 X5.5276  Y6.8583  
G01 X5.7075  Y6.9329  
G01 X5.8986  Y6.9709  
G01 X6.0934  Y6.9709  
G01 X6.2844  Y6.9329  
G01 X6.4644  Y6.8583  
G01 X6.6264  Y6.7501  
G01 X6.6841  Y6.6924  
G01 X10.2121 Y6.6924  
G01 X10.2121 Y6.9486  
G01 X10.2332 Y6.9997  
G01 X10.2723 Y7.0388  
G01 X10.3234 Y7.0599  
G01 X12.0286 Y7.0599  
G01 X12.0797 Y7.0388  
G01 X12.1188 Y6.9997  
G01 X12.1399 Y6.9486  
G01 X12.1399 Y5.2434  
G01 X12.1188 Y5.1923  
G01 X12.0797 Y5.1532  
G01 X12.0286 Y5.1321  
G01 X10.3234 Y5.1321  
G01 X10.2723 Y5.1532  
G01 X10.2332 Y5.1923  
G01 X10.2121 Y5.2434  
G01 X10.2121 Y5.2716  
G01 X6.6841  Y5.2716  
G01 X6.6264  Y5.2139  
G01 X6.4644  Y5.1056  
G01 X6.2844  Y5.0311  
G01 X6.0934  Y4.9931  
G01 X5.8986  Y4.9931  
G01 X5.7075  Y5.0311  
G01 X5.5276  Y5.1056  
G01 X5.3656  Y5.2139  
G01 X5.2279  Y5.3516  
G00 Z2.5400  
G00 X5.2279  Y8.8516  
G01 Z-0.1778 F254   
G01 X5.1196  Y9.0136  F508   
G01 X5.0451  Y9.1935  
G01 X5.0071  Y9.3846  
G01 X5.0071  Y9.5794  
G01 X5.0451  Y9.7705  
G01 X5.1196  Y9.9504  
G01 X5.2279  Y10.1124 
G01 X5.3656  Y10.2501 
G01 X5.5276  Y10.3583 
G01 X5.7075  Y10.4329 
G01 X5.8986  Y10.4709 
G01 X6.0934  Y10.4709 
G01 X6.2844  Y10.4329 
G01 X6.4644  Y10.3583 
G01 X6.6264  Y10.2501 
G01 X6.7641  Y10.1124 
G01 X6.8723  Y9.9504  
G01 X6.9469  Y9.7705  
G01 X6.9849  Y9.5794  
G01 X6.9849  Y9.3846  
G01 X6.9469  Y9.1935  
G01 X6.8723  Y9.0136  
G01 X6.7641  Y8.8516  
G01 X6.6264  Y8.7139  
G01 X6.4644  Y8.6056  
G01 X6.2844  Y8.5311  
G01 X6.0934  Y8.4931  
G01 X5.8986  Y8.4931  
G01 X5.7075  Y8.5311  
G01 X5.5276  Y8.6056  
G01 X5.3656  Y8.7139  
G01 X5.2279  Y8.8516  
G00 Z2.5400  
G00 X5.3079  Y12.2716 
G01 Z-0.1778 F254   
G01 X3.2040  Y12.2716 F508   
G01 X3.0668  Y12.2989 
G01 X2.9375  Y12.3524 
G01 X2.8211  Y12.4302 
G01 X1.0711  Y14.1802 
G01 X0.9722  Y14.2791 
G01 X0.8944  Y14.3955 
G01 X0.8409  Y14.5248 
G01 X0.8136  Y14.6620 
G01 X0.8136  Y54.9340 
G01 X0.8409  Y55.0712 
G01 X0.8944  Y55.2005 
G01 X0.9722  Y55.3169 
G01 X1.0711  Y55.4158 
G01 X3.3162  Y57.6608 
G01 X3.4151  Y57.7598 
G01 X3.5315  Y57.8375 
G01 X3.6608  Y57.8911 
G01 X3.7980  Y57.9184 
G01 X5.3079  Y57.9184 
G01 X5.3656  Y57.9761 
G01 X5.5276  Y58.0844 
G01 X5.7075  Y58.1589 
G01 X5.8986  Y58.1969 
G01 X6.0934  Y58.1969 
G01 X6.2844  Y58.1589 
G01 X6.4644  Y58.0844 
G01 X6.6264  Y57.9761 
G01 X6.7421  Y57.8604 
G01 X17.8500 Y57.8604 
G01 X17.9872 Y57.8331 
G01 X18.1165 Y57.7795 
G01 X18.2329 Y57.7018 
G01 X19.6096 Y56.3250 
G01 X19.6096 Y57.4740 
G01 X19.6369 Y57.6112 
G01 X19.6904 Y57.7405 
G01 X19.7682 Y57.8569 
G01 X22.0542 Y60.1429 
G01 X22.1531 Y60.2418 
G01 X22.2695 Y60.3195 
G01 X22.3988 Y60.3731 
G01 X22.5360 Y60.4004 
G01 X33.3440 Y60.4004 
G01 X33.4812 Y60.3731 
G01 X33.6105 Y60.3195 
G01 X33.7269 Y60.2418 
G01 X34.7429 Y59.2258 
G01 X34.8418 Y59.1269 
G01 X34.9195 Y59.0105 
G01 X34.9731 Y58.8812 
G01 X35.0004 Y58.7440 
G01 X35.0004 Y55.4241 
G01 X35.0301 Y55.3944 
G01 X35.1384 Y55.2324 
G01 X35.2129 Y55.0525 
G01 X35.2509 Y54.8614 
G01 X35.2509 Y54.6666 
G01 X35.2129 Y54.4755 
G01 X35.1384 Y54.2956 
G01 X35.0301 Y54.1336 
G01 X34.9724 Y54.0759 
G01 X34.9724 Y44.2761 
G01 X35.0301 Y44.2184 
G01 X35.1384 Y44.0564 
G01 X35.2129 Y43.8764 
G01 X35.2509 Y43.6854 
G01 X35.2509 Y43.4906 
G01 X35.2129 Y43.2995 
G01 X35.1384 Y43.1196 
G01 X35.0301 Y42.9576 
G01 X34.9724 Y42.8999 
G01 X34.9724 Y34.6123 
G01 X35.0034 Y34.5813 
G01 X35.5371 Y34.5813 
G01 X35.6915 Y34.5506 
G01 X35.8370 Y34.4903 
G01 X35.9679 Y34.4029 
G01 X36.0793 Y34.2915 
G01 X36.1667 Y34.1606 
G01 X36.2270 Y34.0151 
G01 X36.2577 Y33.8607 
G01 X36.2577 Y33.7033 
G01 X36.2270 Y33.5489 
G01 X36.1667 Y33.4034 
G01 X36.0793 Y33.2725 
G01 X35.9679 Y33.1611 
G01 X35.8370 Y33.0737 
G01 X35.6915 Y33.0134 
G01 X35.5371 Y32.9827 
G01 X34.0589 Y32.9827 
G01 X33.9044 Y33.0134 
G01 X33.7640 Y33.0716 
G01 X31.0283 Y33.0716 
G01 X29.9169 Y31.9602 
G01 X29.8005 Y31.8824 
G01 X29.6712 Y31.8289 
G01 X29.5340 Y31.8016 
G01 X23.1697 Y31.8016 
G01 X22.9792 Y31.6111 
G01 X22.2328 Y31.6111 
G01 X22.0423 Y31.8016 
G01 X20.6297 Y31.8016 
G01 X20.4392 Y31.6111 
G01 X19.6928 Y31.6111 
G01 X19.1651 Y32.1388 
G01 X19.1651 Y32.8852 
G01 X19.5516 Y33.2717 
G01 X19.5516 Y42.5759 
G01 X19.5455 Y42.5784 
G01 X19.4291 Y42.6562 
G01 X19.3302 Y42.7551 
G01 X19.2524 Y42.8715 
G01 X19.1989 Y43.0008 
G01 X19.1716 Y43.1380 
G01 X19.1716 Y43.2780 
G01 X19.1989 Y43.4152 
G01 X19.2524 Y43.5445 
G01 X19.2731 Y43.5754 
G01 X19.2731 Y43.6854 
G01 X19.3111 Y43.8764 
G01 X19.3856 Y44.0564 
G01 X19.4939 Y44.2184 
G01 X19.5516 Y44.2761 
G01 X19.5516 Y54.0759 
G01 X19.4939 Y54.1336 
G01 X19.3856 Y54.2956 
G01 X19.3111 Y54.4755 
G01 X19.2767 Y54.6487 
G01 X17.4857 Y56.4396 
G01 X6.6260  Y56.4396 
G01 X6.4644  Y56.3316 
G01 X6.2844  Y56.2571 
G01 X6.0934  Y56.2191 
G01 X5.8986  Y56.2191 
G01 X5.7075  Y56.2571 
G01 X5.5276  Y56.3316 
G01 X5.3656  Y56.4399 
G01 X5.3079  Y56.4976 
G01 X4.1623  Y56.4976 
G01 X2.2344  Y54.5697 
G01 X2.2344  Y43.9184 
G01 X5.3079  Y43.9184 
G01 X5.3656  Y43.9761 
G01 X5.5276  Y44.0844 
G01 X5.7075  Y44.1589 
G01 X5.8986  Y44.1969 
G01 X6.0934  Y44.1969 
G01 X6.2844  Y44.1589 
G01 X6.4644  Y44.0844 
G01 X6.6264  Y43.9761 
G01 X6.7641  Y43.8384 
G01 X6.8723  Y43.6764 
G01 X6.9469  Y43.4965 
G01 X6.9849  Y43.3054 
G01 X6.9849  Y43.1106 
G01 X6.9469  Y42.9195 
G01 X6.8723  Y42.7396 
G01 X6.7641  Y42.5776 
G01 X6.6264  Y42.4399 
G01 X6.4644  Y42.3316 
G01 X6.2844  Y42.2571 
G01 X6.0934  Y42.2191 
G01 X5.8986  Y42.2191 
G01 X5.7075  Y42.2571 
G01 X5.5276  Y42.3316 
G01 X5.3656  Y42.4399 
G01 X5.3079  Y42.4976 
G01 X2.2344  Y42.4976 
G01 X2.2344  Y28.7423 
G01 X3.3423  Y27.6344 
G01 X5.2499  Y27.6344 
G01 X5.3656  Y27.7501 
G01 X5.5276  Y27.8584 
G01 X5.7075  Y27.9329 
G01 X5.8986  Y27.9709 
G01 X6.0934  Y27.9709 
G01 X6.2844  Y27.9329 
G01 X6.4644  Y27.8584 
G01 X6.6264  Y27.7501 
G01 X6.7641  Y27.6124 
G01 X6.8723  Y27.4504 
G01 X6.9469  Y27.2705 
G01 X6.9849  Y27.0794 
G01 X6.9849  Y26.8846 
G01 X6.9469  Y26.6935 
G01 X6.8723  Y26.5136 
G01 X6.7641  Y26.3516 
G01 X6.6264  Y26.2139 
G01 X6.4644  Y26.1056 
G01 X6.2844  Y26.0311 
G01 X6.0934  Y25.9931 
G01 X5.8986  Y25.9931 
G01 X5.7075  Y26.0311 
G01 X5.5276  Y26.1056 
G01 X5.3660  Y26.2136 
G01 X2.9780  Y26.2136 
G01 X2.8408  Y26.2409 
G01 X2.7115  Y26.2945 
G01 X2.5951  Y26.3722 
G01 X2.4962  Y26.4711 
G01 X2.2344  Y26.7329 
G01 X2.2344  Y15.0263 
G01 X3.5683  Y13.6924 
G01 X5.3079  Y13.6924 
G01 X5.3656  Y13.7501 
G01 X5.5276  Y13.8583 
G01 X5.7075  Y13.9329 
G01 X5.8986  Y13.9709 
G01 X6.0934  Y13.9709 
G01 X6.2844  Y13.9329 
G01 X6.4644  Y13.8583 
G01 X6.6264  Y13.7501 
G01 X6.7641  Y13.6124 
G01 X6.8723  Y13.4504 
G01 X6.9469  Y13.2705 
G01 X6.9849  Y13.0794 
G01 X6.9849  Y12.8846 
G01 X6.9469  Y12.6935 
G01 X6.8723  Y12.5136 
G01 X6.7641  Y12.3516 
G01 X6.6264  Y12.2139 
G01 X6.4644  Y12.1056 
G01 X6.2844  Y12.0311 
G01 X6.0934  Y11.9931 
G01 X5.8986  Y11.9931 
G01 X5.7075  Y12.0311 
G01 X5.5276  Y12.1056 
G01 X5.3656  Y12.2139 
G01 X5.3079  Y12.2716 
G00 Z2.5400  
G00 X5.3656  Y15.7139 
G01 Z-0.1778 F254   
G01 X5.2279  Y15.8516 F508   
G01 X5.1196  Y16.0136 
G01 X5.0451  Y16.1935 
G01 X5.0071  Y16.3846 
G01 X5.0071  Y16.5794 
G01 X5.0451  Y16.7705 
G01 X5.1196  Y16.9504 
G01 X5.2279  Y17.1124 
G01 X5.3656  Y17.2501 
G01 X5.5276  Y17.3584 
G01 X5.7075  Y17.4329 
G01 X5.8986  Y17.4709 
G01 X6.0934  Y17.4709 
G01 X6.2844  Y17.4329 
G01 X6.4644  Y17.3584 
G01 X6.6264  Y17.2501 
G01 X6.6841  Y17.1924 
G01 X7.2100  Y17.1924 
G01 X7.3472  Y17.1651 
G01 X7.4765  Y17.1115 
G01 X7.5929  Y17.0338 
G01 X9.3429  Y15.2838 
G01 X9.4418  Y15.1849 
G01 X9.5195  Y15.0685 
G01 X9.5731  Y14.9392 
G01 X9.6004  Y14.8020 
G01 X9.6004  Y13.5023 
G01 X9.9463  Y13.1564 
G01 X10.2121 Y13.1564 
G01 X10.2121 Y13.2986 
G01 X10.2332 Y13.3497 
G01 X10.2723 Y13.3887 
G01 X10.3234 Y13.4099 
G01 X12.0286 Y13.4099 
G01 X12.0797 Y13.3887 
G01 X12.1188 Y13.3497 
G01 X12.1399 Y13.2986 
G01 X12.1399 Y11.5934 
G01 X12.1188 Y11.5423 
G01 X12.0797 Y11.5032 
G01 X12.0286 Y11.4821 
G01 X10.3234 Y11.4821 
G01 X10.2723 Y11.5032 
G01 X10.2332 Y11.5423 
G01 X10.2121 Y11.5934 
G01 X10.2121 Y11.7356 
G01 X9.5820  Y11.7356 
G01 X9.4448  Y11.7629 
G01 X9.3155  Y11.8164 
G01 X9.1991  Y11.8942 
G01 X9.1002  Y11.9931 
G01 X8.3382  Y12.7551 
G01 X8.2605  Y12.8715 
G01 X8.2069  Y13.0008 
G01 X8.1796  Y13.1380 
G01 X8.1796  Y14.4377 
G01 X6.8457  Y15.7716 
G01 X6.6841  Y15.7716 
G01 X6.6264  Y15.7139 
G01 X6.4644  Y15.6056 
G01 X6.2844  Y15.5311 
G01 X6.0934  Y15.4931 
G01 X5.8986  Y15.4931 
G01 X5.7075  Y15.5311 
G01 X5.5276  Y15.6056 
G01 X5.3656  Y15.7139 
G00 Z2.5400  
G00 X5.3656  Y19.2139 
G01 Z-0.1778 F254   
G01 X5.2279  Y19.3516 F508   
G01 X5.1196  Y19.5136 
G01 X5.0451  Y19.6935 
G01 X5.0071  Y19.8846 
G01 X5.0071  Y20.0794 
G01 X5.0451  Y20.2705 
G01 X5.1196  Y20.4504 
G01 X5.2279  Y20.6124 
G01 X5.3656  Y20.7501 
G01 X5.5276  Y20.8584 
G01 X5.7075  Y20.9329 
G01 X5.8986  Y20.9709 
G01 X6.0934  Y20.9709 
G01 X6.2844  Y20.9329 
G01 X6.4644  Y20.8584 
G01 X6.6264  Y20.7501 
G01 X6.6841  Y20.6924 
G01 X8.0280  Y20.6924 
G01 X8.1652  Y20.6651 
G01 X8.2945  Y20.6115 
G01 X8.4109  Y20.5338 
G01 X11.6289 Y17.3158 
G01 X11.7278 Y17.2169 
G01 X11.8055 Y17.1005 
G01 X11.8591 Y16.9712 
G01 X11.8864 Y16.8340 
G01 X11.8864 Y16.4579 
G01 X12.0286 Y16.4579 
G01 X12.0797 Y16.4367 
G01 X12.1188 Y16.3977 
G01 X12.1399 Y16.3466 
G01 X12.1399 Y14.6414 
G01 X12.1188 Y14.5903 
G01 X12.0797 Y14.5512 
G01 X12.0286 Y14.5301 
G01 X10.3234 Y14.5301 
G01 X10.2723 Y14.5512 
G01 X10.2332 Y14.5903 
G01 X10.2121 Y14.6414 
G01 X10.2121 Y16.3466 
G01 X10.2332 Y16.3977 
G01 X10.2723 Y16.4367 
G01 X10.3234 Y16.4579 
G01 X10.4656 Y16.4579 
G01 X10.4656 Y16.4697 
G01 X7.6637  Y19.2716 
G01 X6.6841  Y19.2716 
G01 X6.6264  Y19.2139 
G01 X6.4644  Y19.1056 
G01 X6.2844  Y19.0311 
G01 X6.0934  Y18.9931 
G01 X5.8986  Y18.9931 
G01 X5.7075  Y19.0311 
G01 X5.5276  Y19.1056 
G01 X5.3656  Y19.2139 
G00 Z2.5400  
G00 X5.3656  Y22.7139 
G01 Z-0.1778 F254   
G01 X5.2279  Y22.8516 F508   
G01 X5.1196  Y23.0136 
G01 X5.0451  Y23.1935 
G01 X5.0071  Y23.3846 
G01 X5.0071  Y23.5794 
G01 X5.0451  Y23.7705 
G01 X5.1196  Y23.9504 
G01 X5.2279  Y24.1124 
G01 X5.3656  Y24.2501 
G01 X5.5276  Y24.3584 
G01 X5.7075  Y24.4329 
G01 X5.8986  Y24.4709 
G01 X6.0934  Y24.4709 
G01 X6.2844  Y24.4329 
G01 X6.4644  Y24.3584 
G01 X6.6264  Y24.2501 
G01 X6.7641  Y24.1124 
G01 X6.8723  Y23.9504 
G01 X6.9469  Y23.7705 
G01 X6.9849  Y23.5794 
G01 X6.9849  Y23.3846 
G01 X6.9469  Y23.1935 
G01 X6.8723  Y23.0136 
G01 X6.7641  Y22.8516 
G01 X6.6264  Y22.7139 
G01 X6.4644  Y22.6056 
G01 X6.2844  Y22.5311 
G01 X6.0934  Y22.4931 
G01 X5.8986  Y22.4931 
G01 X5.7075  Y22.5311 
G01 X5.5276  Y22.6056 
G01 X5.3656  Y22.7139 
G00 Z2.5400  
G00 X9.4496  Y21.0120 
G01 Z-0.1778 F254   
G01 X9.4496  Y30.9141 F508   
G01 X8.1783  Y31.9976 
G01 X6.6841  Y31.9976 
G01 X6.6264  Y31.9399 
G01 X6.4644  Y31.8316 
G01 X6.2844  Y31.7571 
G01 X6.0934  Y31.7191 
G01 X5.8986  Y31.7191 
G01 X5.7075  Y31.7571 
G01 X5.5276  Y31.8316 
G01 X5.3656  Y31.9399 
G01 X5.2279  Y32.0776 
G01 X5.1196  Y32.2396 
G01 X5.0451  Y32.4195 
G01 X5.0071  Y32.6106 
G01 X5.0071  Y32.8054 
G01 X5.0451  Y32.9965 
G01 X5.1196  Y33.1764 
G01 X5.2279  Y33.3384 
G01 X5.3656  Y33.4761 
G01 X5.5276  Y33.5844 
G01 X5.7075  Y33.6589 
G01 X5.8986  Y33.6969 
G01 X6.0934  Y33.6969 
G01 X6.2844  Y33.6589 
G01 X6.4644  Y33.5844 
G01 X6.6264  Y33.4761 
G01 X6.6841  Y33.4184 
G01 X8.4117  Y33.4184 
G01 X8.4533  Y33.4217 
G01 X8.4815  Y33.4184 
G01 X8.5100  Y33.4184 
G01 X8.5509  Y33.4103 
G01 X8.5923  Y33.4054 
G01 X8.6193  Y33.3966 
G01 X8.6472  Y33.3911 
G01 X8.6857  Y33.3751 
G01 X8.7254  Y33.3623 
G01 X8.7502  Y33.3484 
G01 X8.7765  Y33.3375 
G01 X8.8112  Y33.3144 
G01 X8.8476  Y33.2940 
G01 X8.8692  Y33.2756 
G01 X8.8929  Y33.2598 
G01 X8.9223  Y33.2303 
G01 X10.5892 Y31.8096 
G01 X10.6129 Y31.7938 
G01 X10.6423 Y31.7643 
G01 X10.6741 Y31.7373 
G01 X10.6917 Y31.7150 
G01 X10.7118 Y31.6949 
G01 X10.7350 Y31.6602 
G01 X10.7608 Y31.6275 
G01 X10.7737 Y31.6022 
G01 X10.7895 Y31.5785 
G01 X10.8055 Y31.5400 
G01 X10.8245 Y31.5028 
G01 X10.8322 Y31.4755 
G01 X10.8431 Y31.4492 
G01 X10.8512 Y31.4083 
G01 X10.8626 Y31.3682 
G01 X10.8649 Y31.3399 
G01 X10.8704 Y31.3120 
G01 X10.8704 Y31.2703 
G01 X10.8737 Y31.2287 
G01 X10.8704 Y31.2005 
G01 X10.8704 Y21.3763 
G01 X14.2643 Y17.9824 
G01 X19.5023 Y17.9824 
G01 X19.6928 Y18.1729 
G01 X20.4392 Y18.1729 
G01 X20.9669 Y17.6452 
G01 X20.9669 Y16.8988 
G01 X20.4392 Y16.3711 
G01 X19.6928 Y16.3711 
G01 X19.5023 Y16.5616 
G01 X13.9000 Y16.5616 
G01 X13.7628 Y16.5889 
G01 X13.6335 Y16.6425 
G01 X13.5171 Y16.7202 
G01 X13.4182 Y16.8191 
G01 X9.6082  Y20.6291 
G01 X9.5305  Y20.7455 
G01 X9.4769  Y20.8748 
G01 X9.4496  Y21.0120 
G00 Z2.5400  
G00 X11.6402 Y21.6451 
G01 Z-0.1778 F254   
G01 X11.5625 Y21.7615 F508   
G01 X11.5089 Y21.8908 
G01 X11.4816 Y22.0280 
G01 X11.4816 Y34.5037 
G01 X10.4877 Y35.4976 
G01 X6.6841  Y35.4976 
G01 X6.6264  Y35.4399 
G01 X6.4644  Y35.3316 
G01 X6.2844  Y35.2571 
G01 X6.0934  Y35.2191 
G01 X5.8986  Y35.2191 
G01 X5.7075  Y35.2571 
G01 X5.5276  Y35.3316 
G01 X5.3656  Y35.4399 
G01 X5.2279  Y35.5776 
G01 X5.1196  Y35.7396 
G01 X5.0451  Y35.9195 
G01 X5.0071  Y36.1106 
G01 X5.0071  Y36.3054 
G01 X5.0451  Y36.4965 
G01 X5.1196  Y36.6764 
G01 X5.2279  Y36.8384 
G01 X5.3656  Y36.9761 
G01 X5.5276  Y37.0844 
G01 X5.7075  Y37.1589 
G01 X5.8986  Y37.1969 
G01 X6.0934  Y37.1969 
G01 X6.2844  Y37.1589 
G01 X6.4644  Y37.0844 
G01 X6.6264  Y36.9761 
G01 X6.6841  Y36.9184 
G01 X10.8520 Y36.9184 
G01 X10.9892 Y36.8911 
G01 X11.1185 Y36.8375 
G01 X11.2349 Y36.7598 
G01 X12.7438 Y35.2509 
G01 X12.8215 Y35.1345 
G01 X12.8751 Y35.0052 
G01 X12.9024 Y34.8680 
G01 X12.9024 Y22.3923 
G01 X14.7723 Y20.5224 
G01 X19.5023 Y20.5224 
G01 X19.6928 Y20.7129 
G01 X20.4392 Y20.7129 
G01 X20.9669 Y20.1852 
G01 X20.9669 Y19.4388 
G01 X20.4392 Y18.9111 
G01 X19.6928 Y18.9111 
G01 X19.5023 Y19.1016 
G01 X14.4080 Y19.1016 
G01 X14.2708 Y19.1289 
G01 X14.1415 Y19.1824 
G01 X14.0251 Y19.2602 
G01 X13.9262 Y19.3591 
G01 X11.6402 Y21.6451 
G00 Z2.5400  
G00 X13.6722 Y22.9151 
G01 Z-0.1778 F254   
G01 X13.5945 Y23.0315 F508   
G01 X13.5409 Y23.1608 
G01 X13.5136 Y23.2980 
G01 X13.5136 Y44.9177 
G01 X12.4337 Y45.9976 
G01 X6.6841  Y45.9976 
G01 X6.6264  Y45.9399 
G01 X6.4644  Y45.8316 
G01 X6.2844  Y45.7571 
G01 X6.0934  Y45.7191 
G01 X5.8986  Y45.7191 
G01 X5.7075  Y45.7571 
G01 X5.5276  Y45.8316 
G01 X5.3656  Y45.9399 
G01 X5.2279  Y46.0776 
G01 X5.1196  Y46.2396 
G01 X5.0451  Y46.4195 
G01 X5.0071  Y46.6106 
G01 X5.0071  Y46.8054 
G01 X5.0451  Y46.9965 
G01 X5.1196  Y47.1764 
G01 X5.2279  Y47.3384 
G01 X5.3656  Y47.4761 
G01 X5.5276  Y47.5844 
G01 X5.7075  Y47.6589 
G01 X5.8986  Y47.6969 
G01 X6.0934  Y47.6969 
G01 X6.2844  Y47.6589 
G01 X6.4644  Y47.5844 
G01 X6.6264  Y47.4761 
G01 X6.6841  Y47.4184 
G01 X12.7980 Y47.4184 
G01 X12.9352 Y47.3911 
G01 X13.0645 Y47.3375 
G01 X13.1809 Y47.2598 
G01 X14.6769 Y45.7638 
G01 X14.7758 Y45.6649 
G01 X14.8535 Y45.5485 
G01 X14.9071 Y45.4192 
G01 X14.9344 Y45.2820 
G01 X14.9344 Y23.6623 
G01 X15.5343 Y23.0624 
G01 X19.5023 Y23.0624 
G01 X19.6928 Y23.2529 
G01 X20.4392 Y23.2529 
G01 X20.9669 Y22.7252 
G01 X20.9669 Y21.9788 
G01 X20.4392 Y21.4511 
G01 X19.6928 Y21.4511 
G01 X19.5023 Y21.6416 
G01 X15.1700 Y21.6416 
G01 X15.0328 Y21.6689 
G01 X14.9035 Y21.7224 
G01 X14.7871 Y21.8002 
G01 X14.6882 Y21.8991 
G01 X13.6722 Y22.9151 
G00 Z2.5400  
G00 X15.9582 Y24.4391 
G01 Z-0.1778 F254   
G01 X15.8804 Y24.5555 F508   
G01 X15.8269 Y24.6848 
G01 X15.7996 Y24.8220 
G01 X15.7996 Y47.7117 
G01 X14.0137 Y49.4976 
G01 X6.6841  Y49.4976 
G01 X6.6264  Y49.4399 
G01 X6.4644  Y49.3316 
G01 X6.2844  Y49.2571 
G01 X6.0934  Y49.2191 
G01 X5.8986  Y49.2191 
G01 X5.7075  Y49.2571 
G01 X5.5276  Y49.3316 
G01 X5.3656  Y49.4399 
G01 X5.2279  Y49.5776 
G01 X5.1196  Y49.7396 
G01 X5.0451  Y49.9195 
G01 X5.0071  Y50.1106 
G01 X5.0071  Y50.3054 
G01 X5.0451  Y50.4965 
G01 X5.1196  Y50.6764 
G01 X5.2279  Y50.8384 
G01 X5.3656  Y50.9761 
G01 X5.5276  Y51.0844 
G01 X5.7075  Y51.1589 
G01 X5.8986  Y51.1969 
G01 X6.0934  Y51.1969 
G01 X6.2844  Y51.1589 
G01 X6.4644  Y51.0844 
G01 X6.6264  Y50.9761 
G01 X6.6841  Y50.9184 
G01 X14.3780 Y50.9184 
G01 X14.5152 Y50.8911 
G01 X14.6445 Y50.8375 
G01 X14.7609 Y50.7598 
G01 X16.9629 Y48.5578 
G01 X17.0618 Y48.4589 
G01 X17.1395 Y48.3425 
G01 X17.1931 Y48.2132 
G01 X17.2204 Y48.0760 
G01 X17.2204 Y25.6024 
G01 X19.5023 Y25.6024 
G01 X19.6928 Y25.7929 
G01 X20.4392 Y25.7929 
G01 X20.9669 Y25.2652 
G01 X20.9669 Y24.5188 
G01 X20.4392 Y23.9911 
G01 X19.6928 Y23.9911 
G01 X19.5023 Y24.1816 
G01 X16.4400 Y24.1816 
G01 X16.3028 Y24.2089 
G01 X16.1735 Y24.2625 
G01 X16.0571 Y24.3402 
G01 X15.9582 Y24.4391 
G00 Z2.5400  
G00 X19.1651 Y27.0588 
G01 Z-0.1778 F254   
G01 X19.1651 Y27.8052 F508   
G01 X19.6928 Y28.3329 
G01 X20.4392 Y28.3329 
G01 X20.9669 Y27.8052 
G01 X20.9669 Y27.0588 
G01 X20.4392 Y26.5311 
G01 X19.6928 Y26.5311 
G01 X19.1651 Y27.0588 
G00 Z2.5400  
G00 X19.1651 Y29.5988 
G01 Z-0.1778 F254   
G01 X19.1651 Y30.3452 F508   
G01 X19.6928 Y30.8729 
G01 X20.4392 Y30.8729 
G01 X20.9669 Y30.3452 
G01 X20.9669 Y29.5988 
G01 X20.4392 Y29.0711 
G01 X19.6928 Y29.0711 
G01 X19.1651 Y29.5988 
G00 Z2.5400  
G00 X21.7051 Y29.5988 
G01 Z-0.1778 F254   
G01 X21.7051 Y30.3452 F508   
G01 X22.2328 Y30.8729 
G01 X22.9792 Y30.8729 
G01 X23.5069 Y30.3452 
G01 X23.5069 Y29.5988 
G01 X22.9792 Y29.0711 
G01 X22.2328 Y29.0711 
G01 X21.7051 Y29.5988 
G00 Z2.5400  
G00 X22.2328 Y28.3329 
G01 Z-0.1778 F254   
G01 X22.9792 Y28.3329 F508   
G01 X23.5069 Y27.8052 
G01 X23.5069 Y27.0588 
G01 X22.9792 Y26.5311 
G01 X22.2328 Y26.5311 
G01 X21.7051 Y27.0588 
G01 X21.7051 Y27.8052 
G01 X22.2328 Y28.3329 
G00 Z2.5400  
G00 X22.2328 Y25.7929 
G01 Z-0.1778 F254   
G01 X22.9792 Y25.7929 F508   
G01 X23.1697 Y25.6024 
G01 X24.1821 Y25.6024 
G01 X24.1821 Y25.7446 
G01 X24.2032 Y25.7957 
G01 X24.2423 Y25.8347 
G01 X24.2934 Y25.8559 
G01 X25.9986 Y25.8559 
G01 X26.0497 Y25.8347 
G01 X26.0888 Y25.7957 
G01 X26.1099 Y25.7446 
G01 X26.1099 Y24.0394 
G01 X26.0888 Y23.9883 
G01 X26.0497 Y23.9492 
G01 X25.9986 Y23.9281 
G01 X24.2934 Y23.9281 
G01 X24.2423 Y23.9492 
G01 X24.2032 Y23.9883 
G01 X24.1821 Y24.0394 
G01 X24.1821 Y24.1816 
G01 X23.1697 Y24.1816 
G01 X22.9792 Y23.9911 
G01 X22.2328 Y23.9911 
G01 X21.7051 Y24.5188 
G01 X21.7051 Y25.2652 
G01 X22.2328 Y25.7929 
G00 Z2.5400  
G00 X22.2328 Y23.2529 
G01 Z-0.1778 F254   
G01 X22.9792 Y23.2529 F508   
G01 X23.1697 Y23.0624 
G01 X24.1821 Y23.0624 
G01 X24.1821 Y23.2046 
G01 X24.2032 Y23.2557 
G01 X24.2423 Y23.2948 
G01 X24.2934 Y23.3159 
G01 X25.9986 Y23.3159 
G01 X26.0497 Y23.2948 
G01 X26.0888 Y23.2557 
G01 X26.1099 Y23.2046 
G01 X26.1099 Y21.4994 
G01 X26.0888 Y21.4483 
G01 X26.0497 Y21.4092 
G01 X25.9986 Y21.3881 
G01 X24.2934 Y21.3881 
G01 X24.2423 Y21.4092 
G01 X24.2032 Y21.4483 
G01 X24.1821 Y21.4994 
G01 X24.1821 Y21.6416 
G01 X23.1697 Y21.6416 
G01 X22.9792 Y21.4511 
G01 X22.2328 Y21.4511 
G01 X21.7051 Y21.9788 
G01 X21.7051 Y22.7252 
G01 X22.2328 Y23.2529 
G00 Z2.5400  
G00 X22.2328 Y20.7129 
G01 Z-0.1778 F254   
G01 X22.9792 Y20.7129 F508   
G01 X23.1697 Y20.5224 
G01 X24.1821 Y20.5224 
G01 X24.1821 Y20.6646 
G01 X24.2032 Y20.7157 
G01 X24.2423 Y20.7548 
G01 X24.2934 Y20.7759 
G01 X25.9986 Y20.7759 
G01 X26.0497 Y20.7548 
G01 X26.0888 Y20.7157 
G01 X26.1099 Y20.6646 
G01 X26.1099 Y18.9594 
G01 X26.0888 Y18.9083 
G01 X26.0497 Y18.8692 
G01 X25.9986 Y18.8481 
G01 X24.2934 Y18.8481 
G01 X24.2423 Y18.8692 
G01 X24.2032 Y18.9083 
G01 X24.1821 Y18.9594 
G01 X24.1821 Y19.1016 
G01 X23.1697 Y19.1016 
G01 X22.9792 Y18.9111 
G01 X22.2328 Y18.9111 
G01 X21.7051 Y19.4388 
G01 X21.7051 Y20.1852 
G01 X22.2328 Y20.7129 
G00 Z2.5400  
G00 X22.2328 Y18.1729 
G01 Z-0.1778 F254   
G01 X22.9792 Y18.1729 F508   
G01 X23.1697 Y17.9824 
G01 X24.1821 Y17.9824 
G01 X24.1821 Y18.1246 
G01 X24.2032 Y18.1757 
G01 X24.2423 Y18.2147 
G01 X24.2934 Y18.2359 
G01 X25.9986 Y18.2359 
G01 X26.0497 Y18.2147 
G01 X26.0888 Y18.1757 
G01 X26.1099 Y18.1246 
G01 X26.1099 Y16.4194 
G01 X26.0888 Y16.3683 
G01 X26.0497 Y16.3292 
G01 X25.9986 Y16.3081 
G01 X24.2934 Y16.3081 
G01 X24.2423 Y16.3292 
G01 X24.2032 Y16.3683 
G01 X24.1821 Y16.4194 
G01 X24.1821 Y16.5616 
G01 X23.1697 Y16.5616 
G01 X22.9792 Y16.3711 
G01 X22.2328 Y16.3711 
G01 X21.7051 Y16.8988 
G01 X21.7051 Y17.6452 
G01 X22.2328 Y18.1729 
G00 Z2.5400  
G00 X22.2328 Y15.6329 
G01 Z-0.1778 F254   
G01 X22.9792 Y15.6329 F508   
G01 X23.5069 Y15.1052 
G01 X23.5069 Y14.3588 
G01 X22.9792 Y13.8311 
G01 X22.2328 Y13.8311 
G01 X21.7051 Y14.3588 
G01 X21.7051 Y15.1052 
G01 X22.2328 Y15.6329 
G00 Z2.5400  
G00 X20.9669 Y15.1052 
G01 Z-0.1778 F254   
G01 X20.9669 Y14.3588 F508   
G01 X20.4392 Y13.8311 
G01 X19.6928 Y13.8311 
G01 X19.5023 Y14.0216 
G01 X16.0423 Y14.0216 
G01 X14.9344 Y12.9137 
G01 X14.9344 Y3.3423  
G01 X16.0423 Y2.2344  
G01 X47.2037 Y2.2344  
G01 X48.0576 Y3.0883  
G01 X48.0576 Y14.5296 
G01 X38.1622 Y14.5296 
G01 X38.1546 Y14.5282 
G01 X38.0923 Y14.5296 
G01 X38.0300 Y14.5296 
G01 X38.0224 Y14.5311 
G01 X38.0146 Y14.5313 
G01 X37.9539 Y14.5447 
G01 X37.8928 Y14.5569 
G01 X37.8856 Y14.5599 
G01 X37.8780 Y14.5616 
G01 X37.8211 Y14.5866 
G01 X37.7635 Y14.6105 
G01 X37.7570 Y14.6148 
G01 X37.7499 Y14.6179 
G01 X37.6990 Y14.6536 
G01 X37.6471 Y14.6882 
G01 X37.6416 Y14.6937 
G01 X35.1589 Y16.4316 
G01 X35.1071 Y16.4662 
G01 X35.1017 Y16.4717 
G01 X35.0953 Y16.4761 
G01 X35.0522 Y16.5211 
G01 X35.0082 Y16.5651 
G01 X35.0039 Y16.5716 
G01 X34.9985 Y16.5772 
G01 X34.9651 Y16.6297 
G01 X34.9305 Y16.6815 
G01 X34.9275 Y16.6887 
G01 X34.9233 Y16.6952 
G01 X34.9008 Y16.7532 
G01 X34.8769 Y16.8108 
G01 X34.8754 Y16.8184 
G01 X34.8726 Y16.8256 
G01 X34.8617 Y16.8870 
G01 X34.8496 Y16.9480 
G01 X34.8496 Y16.9558 
G01 X34.8483 Y16.9634 
G01 X34.8496 Y17.0257 
G01 X34.8496 Y18.8463 
G01 X34.7036 Y18.9439 
G01 X34.5659 Y19.0816 
G01 X34.4576 Y19.2436 
G01 X34.3831 Y19.4235 
G01 X34.3451 Y19.6146 
G01 X34.3451 Y19.8094 
G01 X34.3831 Y20.0005 
G01 X34.4576 Y20.1804 
G01 X34.5659 Y20.3424 
G01 X34.7036 Y20.4801 
G01 X34.8656 Y20.5883 
G01 X35.0455 Y20.6629 
G01 X35.2366 Y20.7009 
G01 X35.4314 Y20.7009 
G01 X35.6225 Y20.6629 
G01 X35.8024 Y20.5883 
G01 X35.9644 Y20.4801 
G01 X36.1021 Y20.3424 
G01 X36.2103 Y20.1804 
G01 X36.2849 Y20.0005 
G01 X36.3229 Y19.8094 
G01 X36.3229 Y19.6146 
G01 X36.2849 Y19.4235 
G01 X36.2704 Y19.3885 
G01 X36.2704 Y17.3879 
G01 X38.3239 Y15.9504 
G01 X48.8380 Y15.9504 
G01 X48.9752 Y15.9231 
G01 X49.1045 Y15.8695 
G01 X49.2209 Y15.7918 
G01 X49.3198 Y15.6929 
G01 X49.3975 Y15.5765 
G01 X49.4511 Y15.4472 
G01 X49.4784 Y15.3100 
G01 X49.4784 Y2.7240  
G01 X49.4511 Y2.5868  
G01 X49.3975 Y2.4575  
G01 X49.3198 Y2.3411  
G01 X49.2209 Y2.2422  
G01 X47.9509 Y0.9722  
G01 X47.8345 Y0.8944  
G01 X47.7052 Y0.8409  
G01 X47.5680 Y0.8136  
G01 X15.6780 Y0.8136  
G01 X15.5408 Y0.8409  
G01 X15.4115 Y0.8944  
G01 X15.2951 Y0.9722  
G01 X15.1962 Y1.0711  
G01 X13.6722 Y2.5951  
G01 X13.5945 Y2.7115  
G01 X13.5409 Y2.8408  
G01 X13.5136 Y2.9780  
G01 X13.5136 Y13.2780 
G01 X13.5409 Y13.4152 
G01 X13.5945 Y13.5445 
G01 X13.6722 Y13.6609 
G01 X13.7711 Y13.7598 
G01 X15.2951 Y15.2838 
G01 X15.4115 Y15.3615 
G01 X15.5408 Y15.4151 
G01 X15.6780 Y15.4424 
G01 X19.5023 Y15.4424 
G01 X19.6928 Y15.6329 
G01 X20.4392 Y15.6329 
G01 X20.9669 Y15.1052 
G00 Z2.5400  
G00 X20.9669 Y12.5652 
G01 Z-0.1778 F254   
G01 X20.9669 Y11.8188 F508   
G01 X20.4392 Y11.2911 
G01 X19.6928 Y11.2911 
G01 X19.5023 Y11.4816 
G01 X17.7284 Y11.4816 
G01 X17.7284 Y5.0284  
G01 X34.5956 Y5.0284  
G01 X34.5956 Y7.3679  
G01 X34.5659 Y7.3976  
G01 X34.4576 Y7.5596  
G01 X34.3831 Y7.7395  
G01 X34.3451 Y7.9306  
G01 X34.3451 Y8.1254  
G01 X34.3831 Y8.3164  
G01 X34.4576 Y8.4964  
G01 X34.5659 Y8.6584  
G01 X34.7036 Y8.7961  
G01 X34.8656 Y8.9044  
G01 X35.0455 Y8.9789  
G01 X35.2366 Y9.0169  
G01 X35.4314 Y9.0169  
G01 X35.6225 Y8.9789  
G01 X35.8024 Y8.9044  
G01 X35.9644 Y8.7961  
G01 X36.1021 Y8.6584  
G01 X36.2103 Y8.4964  
G01 X36.2849 Y8.3164  
G01 X36.3229 Y8.1254  
G01 X36.3229 Y7.9306  
G01 X36.2849 Y7.7395  
G01 X36.2103 Y7.5596  
G01 X36.1021 Y7.3976  
G01 X36.0164 Y7.3119  
G01 X36.0164 Y4.2480  
G01 X35.9891 Y4.1108  
G01 X35.9355 Y3.9815  
G01 X35.8578 Y3.8651  
G01 X35.7589 Y3.7662  
G01 X35.6425 Y3.6885  
G01 X35.5132 Y3.6349  
G01 X35.3760 Y3.6076  
G01 X16.9480 Y3.6076  
G01 X16.8108 Y3.6349  
G01 X16.6815 Y3.6885  
G01 X16.5651 Y3.7662  
G01 X16.4662 Y3.8651  
G01 X16.3884 Y3.9815  
G01 X16.3349 Y4.1108  
G01 X16.3076 Y4.2480  
G01 X16.3076 Y12.2620 
G01 X16.3349 Y12.3992 
G01 X16.3884 Y12.5285 
G01 X16.4662 Y12.6449 
G01 X16.5651 Y12.7438 
G01 X16.6815 Y12.8215 
G01 X16.8108 Y12.8751 
G01 X16.9480 Y12.9024 
G01 X19.5023 Y12.9024 
G01 X19.6928 Y13.0929 
G01 X20.4392 Y13.0929 
G01 X20.9669 Y12.5652 
G00 Z2.5400  
G00 X21.7051 Y12.5652 
G01 Z-0.1778 F254   
G01 X22.2328 Y13.0929 F508   
G01 X22.9792 Y13.0929 
G01 X23.5069 Y12.5652 
G01 X23.5069 Y11.8188 
G01 X22.9792 Y11.2911 
G01 X22.2328 Y11.2911 
G01 X21.7051 Y11.8188 
G01 X21.7051 Y12.5652 
G00 Z2.5400  
G00 X22.2328 Y10.5529 
G01 Z-0.1778 F254   
G01 X22.9792 Y10.5529 F508   
G01 X23.5069 Y10.0252 
G01 X23.5069 Y9.2788  
G01 X22.9792 Y8.7511  
G01 X22.2328 Y8.7511  
G01 X21.7051 Y9.2788  
G01 X21.7051 Y10.0252 
G01 X22.2328 Y10.5529 
G00 Z2.5400  
G00 X20.9669 Y10.0252 
G01 Z-0.1778 F254   
G01 X20.9669 Y9.2788  F508   
G01 X20.4392 Y8.7511  
G01 X19.6928 Y8.7511  
G01 X19.1651 Y9.2788  
G01 X19.1651 Y10.0252 
G01 X19.6928 Y10.5529 
G01 X20.4392 Y10.5529 
G01 X20.9669 Y10.0252 
G00 Z2.5400  
G00 X27.6236 Y8.7161  
G01 Z-0.1778 F254   
G01 X27.6236 Y19.0239 F508   
G01 X27.5659 Y19.0816 
G01 X27.4576 Y19.2436 
G01 X27.3831 Y19.4235 
G01 X27.3451 Y19.6146 
G01 X27.3451 Y19.8094 
G01 X27.3831 Y20.0005 
G01 X27.4576 Y20.1804 
G01 X27.5659 Y20.3424 
G01 X27.6236 Y20.4001 
G01 X27.6236 Y21.5460 
G01 X27.6509 Y21.6832 
G01 X27.7045 Y21.8125 
G01 X27.7822 Y21.9289 
G01 X28.9122 Y23.0589 
G01 X29.0111 Y23.1578 
G01 X29.1275 Y23.2355 
G01 X29.2568 Y23.2891 
G01 X29.3940 Y23.3164 
G01 X38.1516 Y23.3164 
G01 X38.1516 Y25.1057 
G01 X35.3546 Y27.9027 
G01 X34.0589 Y27.9027 
G01 X33.9044 Y27.9334 
G01 X33.7590 Y27.9937 
G01 X33.6281 Y28.0811 
G01 X33.5167 Y28.1925 
G01 X33.4293 Y28.3234 
G01 X33.3690 Y28.4688 
G01 X33.3383 Y28.6233 
G01 X33.3383 Y28.7807 
G01 X33.3690 Y28.9351 
G01 X33.4293 Y29.0806 
G01 X33.5167 Y29.2115 
G01 X33.6281 Y29.3229 
G01 X33.7590 Y29.4103 
G01 X33.9044 Y29.4706 
G01 X34.0589 Y29.5013 
G01 X35.5371 Y29.5013 
G01 X35.6915 Y29.4706 
G01 X35.8370 Y29.4103 
G01 X35.9679 Y29.3229 
G01 X36.0793 Y29.2115 
G01 X36.1278 Y29.1388 
G01 X39.3149 Y25.9518 
G01 X39.4138 Y25.8529 
G01 X39.4915 Y25.7365 
G01 X39.5451 Y25.6072 
G01 X39.5724 Y25.4700 
G01 X39.5724 Y20.3721 
G01 X39.6021 Y20.3424 
G01 X39.7103 Y20.1804 
G01 X39.7849 Y20.0005 
G01 X39.8229 Y19.8094 
G01 X39.8229 Y19.6146 
G01 X39.7849 Y19.4235 
G01 X39.7103 Y19.2436 
G01 X39.6021 Y19.0816 
G01 X39.4644 Y18.9439 
G01 X39.3024 Y18.8356 
G01 X39.1225 Y18.7611 
G01 X38.9314 Y18.7231 
G01 X38.7366 Y18.7231 
G01 X38.5455 Y18.7611 
G01 X38.3656 Y18.8356 
G01 X38.2036 Y18.9439 
G01 X38.0659 Y19.0816 
G01 X37.9576 Y19.2436 
G01 X37.8831 Y19.4235 
G01 X37.8451 Y19.6146 
G01 X37.8451 Y19.8094 
G01 X37.8831 Y20.0005 
G01 X37.9576 Y20.1804 
G01 X38.0659 Y20.3424 
G01 X38.1516 Y20.4281 
G01 X38.1516 Y21.8956 
G01 X29.7583 Y21.8956 
G01 X29.0444 Y21.1817 
G01 X29.0444 Y20.4001 
G01 X29.1021 Y20.3424 
G01 X29.2103 Y20.1804 
G01 X29.2849 Y20.0005 
G01 X29.3229 Y19.8094 
G01 X29.3229 Y19.6146 
G01 X29.2849 Y19.4235 
G01 X29.2103 Y19.2436 
G01 X29.1021 Y19.0816 
G01 X29.0444 Y19.0239 
G01 X29.0444 Y12.2691 
G01 X29.1662 Y12.3909 
G01 X29.2651 Y12.4898 
G01 X29.3815 Y12.5675 
G01 X29.5108 Y12.6211 
G01 X29.6480 Y12.6484 
G01 X37.4080 Y12.6484 
G01 X37.5452 Y12.6211 
G01 X37.6745 Y12.5675 
G01 X37.7909 Y12.4898 
G01 X39.3149 Y10.9658 
G01 X39.4138 Y10.8669 
G01 X39.4915 Y10.7505 
G01 X39.5451 Y10.6212 
G01 X39.5724 Y10.4840 
G01 X39.5724 Y8.6881  
G01 X39.6021 Y8.6584  
G01 X39.7103 Y8.4964  
G01 X39.7849 Y8.3164  
G01 X39.8229 Y8.1254  
G01 X39.8229 Y7.9306  
G01 X39.7849 Y7.7395  
G01 X39.7103 Y7.5596  
G01 X39.6021 Y7.3976  
G01 X39.4644 Y7.2599  
G01 X39.3024 Y7.1516  
G01 X39.1225 Y7.0771  
G01 X38.9314 Y7.0391  
G01 X38.7366 Y7.0391  
G01 X38.5455 Y7.0771  
G01 X38.3656 Y7.1516  
G01 X38.2036 Y7.2599  
G01 X38.0659 Y7.3976  
G01 X37.9576 Y7.5596  
G01 X37.8831 Y7.7395  
G01 X37.8451 Y7.9306  
G01 X37.8451 Y8.1254  
G01 X37.8831 Y8.3164  
G01 X37.9576 Y8.4964  
G01 X38.0659 Y8.6584  
G01 X38.1516 Y8.7441  
G01 X38.1516 Y10.1197 
G01 X37.0437 Y11.2276 
G01 X30.0123 Y11.2276 
G01 X29.0444 Y10.2597 
G01 X29.0444 Y8.7161  
G01 X29.1021 Y8.6584  
G01 X29.2103 Y8.4964  
G01 X29.2849 Y8.3164  
G01 X29.3229 Y8.1254  
G01 X29.3229 Y7.9306  
G01 X29.2849 Y7.7395  
G01 X29.2103 Y7.5596  
G01 X29.1021 Y7.3976  
G01 X28.9644 Y7.2599  
G01 X28.8024 Y7.1516  
G01 X28.6225 Y7.0771  
G01 X28.4314 Y7.0391  
G01 X28.2366 Y7.0391  
G01 X28.0455 Y7.0771  
G01 X27.8656 Y7.1516  
G01 X27.7036 Y7.2599  
G01 X27.5659 Y7.3976  
G01 X27.4576 Y7.5596  
G01 X27.3831 Y7.7395  
G01 X27.3451 Y7.9306  
G01 X27.3451 Y8.1254  
G01 X27.3831 Y8.3164  
G01 X27.4576 Y8.4964  
G01 X27.5659 Y8.6584  
G01 X27.6236 Y8.7161  
G00 Z2.5400  
G00 X31.0659 Y8.6584  
G01 Z-0.1778 F254   
G01 X31.2036 Y8.7961  F508   
G01 X31.3656 Y8.9044  
G01 X31.5455 Y8.9789  
G01 X31.7366 Y9.0169  
G01 X31.9314 Y9.0169  
G01 X32.1225 Y8.9789  
G01 X32.3024 Y8.9044  
G01 X32.4644 Y8.7961  
G01 X32.6021 Y8.6584  
G01 X32.7103 Y8.4964  
G01 X32.7849 Y8.3164  
G01 X32.8229 Y8.1254  
G01 X32.8229 Y7.9306  
G01 X32.7849 Y7.7395  
G01 X32.7103 Y7.5596  
G01 X32.6021 Y7.3976  
G01 X32.4644 Y7.2599  
G01 X32.3024 Y7.1516  
G01 X32.1225 Y7.0771  
G01 X31.9314 Y7.0391  
G01 X31.7366 Y7.0391  
G01 X31.5455 Y7.0771  
G01 X31.3656 Y7.1516  
G01 X31.2036 Y7.2599  
G01 X31.0659 Y7.3976  
G01 X30.9576 Y7.5596  
G01 X30.8831 Y7.7395  
G01 X30.8451 Y7.9306  
G01 X30.8451 Y8.1254  
G01 X30.8831 Y8.3164  
G01 X30.9576 Y8.4964  
G01 X31.0659 Y8.6584  
G00 Z2.5400  
G00 X31.0659 Y19.0816 
G01 Z-0.1778 F254   
G01 X30.9576 Y19.2436 F508   
G01 X30.8831 Y19.4235 
G01 X30.8451 Y19.6146 
G01 X30.8451 Y19.8094 
G01 X30.8831 Y20.0005 
G01 X30.9576 Y20.1804 
G01 X31.0659 Y20.3424 
G01 X31.2036 Y20.4801 
G01 X31.3656 Y20.5883 
G01 X31.5455 Y20.6629 
G01 X31.7366 Y20.7009 
G01 X31.9314 Y20.7009 
G01 X32.1225 Y20.6629 
G01 X32.3024 Y20.5883 
G01 X32.4644 Y20.4801 
G01 X32.6021 Y20.3424 
G01 X32.7103 Y20.1804 
G01 X32.7849 Y20.0005 
G01 X32.8229 Y19.8094 
G01 X32.8229 Y19.6146 
G01 X32.7849 Y19.4235 
G01 X32.7103 Y19.2436 
G01 X32.6021 Y19.0816 
G01 X32.4644 Y18.9439 
G01 X32.3024 Y18.8356 
G01 X32.1225 Y18.7611 
G01 X31.9314 Y18.7231 
G01 X31.7366 Y18.7231 
G01 X31.5455 Y18.7611 
G01 X31.3656 Y18.8356 
G01 X31.2036 Y18.9439 
G01 X31.0659 Y19.0816 
G00 Z2.5400  
G00 X29.1067 Y26.2009 
G01 Z-0.1778 F254   
G01 X28.2973 Y26.2009 F508   
G01 X27.7249 Y26.7733 
G01 X27.7249 Y27.5827 
G01 X27.9916 Y27.8494 
G01 X27.9916 Y28.7720 
G01 X28.0189 Y28.9092 
G01 X28.0724 Y29.0385 
G01 X28.1502 Y29.1549 
G01 X30.6902 Y31.6949 
G01 X30.7891 Y31.7938 
G01 X30.9055 Y31.8715 
G01 X31.0348 Y31.9251 
G01 X31.1720 Y31.9524 
G01 X33.7640 Y31.9524 
G01 X33.9044 Y32.0106 
G01 X34.0589 Y32.0413 
G01 X35.5371 Y32.0413 
G01 X35.6915 Y32.0106 
G01 X35.8320 Y31.9524 
G01 X40.8537 Y31.9524 
G01 X42.1202 Y33.2189 
G01 X42.2191 Y33.3178 
G01 X42.3355 Y33.3955 
G01 X42.4648 Y33.4491 
G01 X42.6020 Y33.4764 
G01 X44.1439 Y33.4764 
G01 X44.1736 Y33.5061 
G01 X44.3356 Y33.6144 
G01 X44.5155 Y33.6889 
G01 X44.7066 Y33.7269 
G01 X44.9014 Y33.7269 
G01 X45.0924 Y33.6889 
G01 X45.2724 Y33.6144 
G01 X45.4344 Y33.5061 
G01 X45.5721 Y33.3684 
G01 X45.6803 Y33.2064 
G01 X45.7549 Y33.0264 
G01 X45.7929 Y32.8354 
G01 X45.7929 Y32.6406 
G01 X45.7549 Y32.4495 
G01 X45.6803 Y32.2696 
G01 X45.5721 Y32.1076 
G01 X45.5144 Y32.0499 
G01 X45.5144 Y29.9261 
G01 X45.5721 Y29.8684 
G01 X45.6803 Y29.7064 
G01 X45.7549 Y29.5265 
G01 X45.7929 Y29.3354 
G01 X45.7929 Y29.1406 
G01 X45.7549 Y28.9495 
G01 X45.6803 Y28.7696 
G01 X45.5721 Y28.6076 
G01 X45.4344 Y28.4699 
G01 X45.2724 Y28.3616 
G01 X45.0924 Y28.2871 
G01 X44.9014 Y28.2491 
G01 X44.7066 Y28.2491 
G01 X44.5155 Y28.2871 
G01 X44.3356 Y28.3616 
G01 X44.1736 Y28.4699 
G01 X44.0359 Y28.6076 
G01 X43.9276 Y28.7696 
G01 X43.8531 Y28.9495 
G01 X43.8151 Y29.1406 
G01 X43.8151 Y29.3354 
G01 X43.8531 Y29.5265 
G01 X43.9276 Y29.7064 
G01 X44.0359 Y29.8684 
G01 X44.0936 Y29.9261 
G01 X44.0936 Y32.0499 
G01 X44.0879 Y32.0556 
G01 X42.9663 Y32.0556 
G01 X41.6009 Y30.6902 
G01 X41.4845 Y30.6124 
G01 X41.3552 Y30.5589 
G01 X41.2180 Y30.5316 
G01 X35.8320 Y30.5316 
G01 X35.6915 Y30.4734 
G01 X35.5371 Y30.4427 
G01 X34.0589 Y30.4427 
G01 X33.9044 Y30.4734 
G01 X33.7640 Y30.5316 
G01 X31.5363 Y30.5316 
G01 X29.4124 Y28.4077 
G01 X29.4124 Y27.8494 
G01 X29.6791 Y27.5827 
G01 X29.6791 Y26.7733 
G01 X29.1067 Y26.2009 
G00 Z2.5400  
G00 X29.1697 Y33.2224 
G01 Z-0.1778 F254   
G01 X30.1822 Y34.2349 F508   
G01 X30.2811 Y34.3338 
G01 X30.3975 Y34.4115 
G01 X30.5268 Y34.4651 
G01 X30.6640 Y34.4924 
G01 X33.5516 Y34.4924 
G01 X33.5516 Y42.8999 
G01 X33.4939 Y42.9576 
G01 X33.3856 Y43.1196 
G01 X33.3111 Y43.2995 
G01 X33.2731 Y43.4906 
G01 X33.2731 Y43.6854 
G01 X33.3111 Y43.8764 
G01 X33.3856 Y44.0564 
G01 X33.4939 Y44.2184 
G01 X33.5516 Y44.2761 
G01 X33.5516 Y54.0759 
G01 X33.4939 Y54.1336 
G01 X33.3856 Y54.2956 
G01 X33.3111 Y54.4755 
G01 X33.2731 Y54.6666 
G01 X33.2731 Y54.8614 
G01 X33.3111 Y55.0525 
G01 X33.3856 Y55.2324 
G01 X33.4939 Y55.3944 
G01 X33.5796 Y55.4801 
G01 X33.5796 Y58.3797 
G01 X32.9797 Y58.9796 
G01 X22.9003 Y58.9796 
G01 X21.0304 Y57.1097 
G01 X21.0304 Y55.3940 
G01 X21.1383 Y55.2324 
G01 X21.2129 Y55.0525 
G01 X21.2509 Y54.8614 
G01 X21.2509 Y54.6666 
G01 X21.2129 Y54.4755 
G01 X21.1383 Y54.2956 
G01 X21.0301 Y54.1336 
G01 X20.9724 Y54.0759 
G01 X20.9724 Y44.2761 
G01 X21.0301 Y44.2184 
G01 X21.1383 Y44.0564 
G01 X21.2129 Y43.8764 
G01 X21.2509 Y43.6854 
G01 X21.2509 Y43.4906 
G01 X21.2129 Y43.2995 
G01 X21.1383 Y43.1196 
G01 X21.0301 Y42.9576 
G01 X20.9724 Y42.8999 
G01 X20.9724 Y33.2224 
G01 X22.0423 Y33.2224 
G01 X22.2328 Y33.4129 
G01 X22.9792 Y33.4129 
G01 X23.1697 Y33.2224 
G01 X29.1697 Y33.2224 
G00 Z2.5400  
G00 X29.1067 Y35.3449 
G01 Z-0.1778 F254   
G01 X28.2973 Y35.3449 F508   
G01 X27.7249 Y35.9173 
G01 X27.7249 Y36.2944 
G01 X23.2102 Y40.8091 
G01 X23.1324 Y40.9255 
G01 X23.0789 Y41.0548 
G01 X23.0516 Y41.1920 
G01 X23.0516 Y42.8999 
G01 X22.9939 Y42.9576 
G01 X22.8856 Y43.1196 
G01 X22.8111 Y43.2995 
G01 X22.7731 Y43.4906 
G01 X22.7731 Y43.6854 
G01 X22.8111 Y43.8764 
G01 X22.8856 Y44.0564 
G01 X22.9939 Y44.2184 
G01 X23.0516 Y44.2761 
G01 X23.0516 Y54.0759 
G01 X22.9939 Y54.1336 
G01 X22.8856 Y54.2956 
G01 X22.8111 Y54.4755 
G01 X22.7731 Y54.6666 
G01 X22.7731 Y54.8614 
G01 X22.8111 Y55.0525 
G01 X22.8856 Y55.2324 
G01 X22.9939 Y55.3944 
G01 X23.1316 Y55.5321 
G01 X23.2936 Y55.6403 
G01 X23.4735 Y55.7149 
G01 X23.6646 Y55.7529 
G01 X23.8594 Y55.7529 
G01 X24.0505 Y55.7149 
G01 X24.2304 Y55.6403 
G01 X24.3924 Y55.5321 
G01 X24.5301 Y55.3944 
G01 X24.6383 Y55.2324 
G01 X24.7129 Y55.0525 
G01 X24.7509 Y54.8614 
G01 X24.7509 Y54.6666 
G01 X24.7129 Y54.4755 
G01 X24.6383 Y54.2956 
G01 X24.5301 Y54.1336 
G01 X24.4724 Y54.0759 
G01 X24.4724 Y44.2761 
G01 X24.5301 Y44.2184 
G01 X24.6383 Y44.0564 
G01 X24.7129 Y43.8764 
G01 X24.7509 Y43.6854 
G01 X24.7509 Y43.4906 
G01 X24.7129 Y43.2995 
G01 X24.6383 Y43.1196 
G01 X24.5301 Y42.9576 
G01 X24.4724 Y42.8999 
G01 X24.4724 Y41.5563 
G01 X28.7296 Y37.2991 
G01 X29.1067 Y37.2991 
G01 X29.6791 Y36.7267 
G01 X29.6791 Y35.9173 
G01 X29.1067 Y35.3449 
G00 Z2.5400  
G00 X29.9939 Y42.9576 
G01 Z-0.1778 F254   
G01 X29.8856 Y43.1196 F508   
G01 X29.8111 Y43.2995 
G01 X29.7731 Y43.4906 
G01 X29.7731 Y43.6854 
G01 X29.8111 Y43.8764 
G01 X29.8856 Y44.0564 
G01 X29.9939 Y44.2184 
G01 X30.0516 Y44.2761 
G01 X30.0516 Y54.0759 
G01 X29.9939 Y54.1336 
G01 X29.8856 Y54.2956 
G01 X29.8111 Y54.4755 
G01 X29.7731 Y54.6666 
G01 X29.7731 Y54.8614 
G01 X29.8111 Y55.0525 
G01 X29.8856 Y55.2324 
G01 X29.9939 Y55.3944 
G01 X30.1316 Y55.5321 
G01 X30.2936 Y55.6403 
G01 X30.4735 Y55.7149 
G01 X30.6646 Y55.7529 
G01 X30.8594 Y55.7529 
G01 X31.0505 Y55.7149 
G01 X31.2304 Y55.6403 
G01 X31.3924 Y55.5321 
G01 X31.5301 Y55.3944 
G01 X31.6383 Y55.2324 
G01 X31.7129 Y55.0525 
G01 X31.7509 Y54.8614 
G01 X31.7509 Y54.6666 
G01 X31.7129 Y54.4755 
G01 X31.6383 Y54.2956 
G01 X31.5301 Y54.1336 
G01 X31.4724 Y54.0759 
G01 X31.4724 Y44.2761 
G01 X31.5301 Y44.2184 
G01 X31.6383 Y44.0564 
G01 X31.7129 Y43.8764 
G01 X31.7509 Y43.6854 
G01 X31.7509 Y43.4906 
G01 X31.7129 Y43.2995 
G01 X31.6383 Y43.1196 
G01 X31.5301 Y42.9576 
G01 X31.3924 Y42.8199 
G01 X31.2304 Y42.7116 
G01 X31.0505 Y42.6371 
G01 X30.8594 Y42.5991 
G01 X30.6646 Y42.5991 
G01 X30.4735 Y42.6371 
G01 X30.2936 Y42.7116 
G01 X30.1316 Y42.8199 
G01 X29.9939 Y42.9576 
G00 Z2.5400  
G00 X28.0301 Y42.9576 
G01 Z-0.1778 F254   
G01 X27.8924 Y42.8199 F508   
G01 X27.7304 Y42.7116 
G01 X27.5505 Y42.6371 
G01 X27.3594 Y42.5991 
G01 X27.1646 Y42.5991 
G01 X26.9735 Y42.6371 
G01 X26.7936 Y42.7116 
G01 X26.6316 Y42.8199 
G01 X26.4939 Y42.9576 
G01 X26.3856 Y43.1196 
G01 X26.3111 Y43.2995 
G01 X26.2731 Y43.4906 
G01 X26.2731 Y43.6854 
G01 X26.3111 Y43.8764 
G01 X26.3856 Y44.0564 
G01 X26.4939 Y44.2184 
G01 X26.5516 Y44.2761 
G01 X26.5516 Y54.0759 
G01 X26.4939 Y54.1336 
G01 X26.3856 Y54.2956 
G01 X26.3111 Y54.4755 
G01 X26.2731 Y54.6666 
G01 X26.2731 Y54.8614 
G01 X26.3111 Y55.0525 
G01 X26.3856 Y55.2324 
G01 X26.4939 Y55.3944 
G01 X26.6316 Y55.5321 
G01 X26.7936 Y55.6403 
G01 X26.9735 Y55.7149 
G01 X27.1646 Y55.7529 
G01 X27.3594 Y55.7529 
G01 X27.5505 Y55.7149 
G01 X27.7304 Y55.6403 
G01 X27.8924 Y55.5321 
G01 X28.0301 Y55.3944 
G01 X28.1383 Y55.2324 
G01 X28.2129 Y55.0525 
G01 X28.2509 Y54.8614 
G01 X28.2509 Y54.6666 
G01 X28.2129 Y54.4755 
G01 X28.1383 Y54.2956 
G01 X28.0301 Y54.1336 
G01 X27.9724 Y54.0759 
G01 X27.9724 Y44.2761 
G01 X28.0301 Y44.2184 
G01 X28.1383 Y44.0564 
G01 X28.2129 Y43.8764 
G01 X28.2509 Y43.6854 
G01 X28.2509 Y43.4906 
G01 X28.2129 Y43.2995 
G01 X28.1383 Y43.1196 
G01 X28.0301 Y42.9576 
G00 Z2.5400  
G00 X36.9939 Y42.9576 
G01 Z-0.1778 F254   
G01 X36.8856 Y43.1196 F508   
G01 X36.8111 Y43.2995 
G01 X36.7731 Y43.4906 
G01 X36.7731 Y43.6854 
G01 X36.8111 Y43.8764 
G01 X36.8856 Y44.0564 
G01 X36.9939 Y44.2184 
G01 X37.0516 Y44.2761 
G01 X37.0516 Y54.0759 
G01 X36.9939 Y54.1336 
G01 X36.8856 Y54.2956 
G01 X36.8111 Y54.4755 
G01 X36.7731 Y54.6666 
G01 X36.7731 Y54.8614 
G01 X36.8111 Y55.0525 
G01 X36.8856 Y55.2324 
G01 X36.9939 Y55.3944 
G01 X37.1316 Y55.5321 
G01 X37.2936 Y55.6403 
G01 X37.4735 Y55.7149 
G01 X37.6646 Y55.7529 
G01 X37.8594 Y55.7529 
G01 X38.0504 Y55.7149 
G01 X38.2304 Y55.6403 
G01 X38.3924 Y55.5321 
G01 X38.5301 Y55.3944 
G01 X38.6384 Y55.2324 
G01 X38.7129 Y55.0525 
G01 X38.7509 Y54.8614 
G01 X38.7509 Y54.6666 
G01 X38.7129 Y54.4755 
G01 X38.6384 Y54.2956 
G01 X38.5301 Y54.1336 
G01 X38.4724 Y54.0759 
G01 X38.4724 Y44.2761 
G01 X38.5301 Y44.2184 
G01 X38.6384 Y44.0564 
G01 X38.7129 Y43.8764 
G01 X38.7509 Y43.6854 
G01 X38.7509 Y43.4906 
G01 X38.7129 Y43.2995 
G01 X38.6384 Y43.1196 
G01 X38.5301 Y42.9576 
G01 X38.3924 Y42.8199 
G01 X38.2304 Y42.7116 
G01 X38.0504 Y42.6371 
G01 X37.8594 Y42.5991 
G01 X37.6646 Y42.5991 
G01 X37.4735 Y42.6371 
G01 X37.2936 Y42.7116 
G01 X37.1316 Y42.8199 
G01 X36.9939 Y42.9576 
G00 Z2.5400  
G00 X40.4939 Y42.9576 
G01 Z-0.1778 F254   
G01 X40.3856 Y43.1196 F508   
G01 X40.3111 Y43.2995 
G01 X40.2731 Y43.4906 
G01 X40.2731 Y43.6854 
G01 X40.3111 Y43.8764 
G01 X40.3856 Y44.0564 
G01 X40.4939 Y44.2184 
G01 X40.5516 Y44.2761 
G01 X40.5516 Y54.0759 
G01 X40.4939 Y54.1336 
G01 X40.3856 Y54.2956 
G01 X40.3111 Y54.4755 
G01 X40.2731 Y54.6666 
G01 X40.2731 Y54.8614 
G01 X40.3111 Y55.0525 
G01 X40.3856 Y55.2324 
G01 X40.4939 Y55.3944 
G01 X40.6316 Y55.5321 
G01 X40.7936 Y55.6403 
G01 X40.9735 Y55.7149 
G01 X41.1646 Y55.7529 
G01 X41.3594 Y55.7529 
G01 X41.5504 Y55.7149 
G01 X41.7304 Y55.6403 
G01 X41.8924 Y55.5321 
G01 X42.0301 Y55.3944 
G01 X42.1384 Y55.2324 
G01 X42.2129 Y55.0525 
G01 X42.2509 Y54.8614 
G01 X42.2509 Y54.6666 
G01 X42.2129 Y54.4755 
G01 X42.1384 Y54.2956 
G01 X42.0301 Y54.1336 
G01 X41.9724 Y54.0759 
G01 X41.9724 Y44.2761 
G01 X42.0301 Y44.2184 
G01 X42.1384 Y44.0564 
G01 X42.2129 Y43.8764 
G01 X42.2509 Y43.6854 
G01 X42.2509 Y43.4906 
G01 X42.2129 Y43.2995 
G01 X42.1384 Y43.1196 
G01 X42.0301 Y42.9576 
G01 X41.8924 Y42.8199 
G01 X41.7304 Y42.7116 
G01 X41.5504 Y42.6371 
G01 X41.3594 Y42.5991 
G01 X41.1646 Y42.5991 
G01 X40.9735 Y42.6371 
G01 X40.7936 Y42.7116 
G01 X40.6316 Y42.8199 
G01 X40.4939 Y42.9576 
G00 Z2.5400  
G00 X43.9939 Y42.9576 
G01 Z-0.1778 F254   
G01 X43.8856 Y43.1196 F508   
G01 X43.8111 Y43.2995 
G01 X43.7731 Y43.4906 
G01 X43.7731 Y43.6854 
G01 X43.8111 Y43.8764 
G01 X43.8856 Y44.0564 
G01 X43.9939 Y44.2184 
G01 X44.0516 Y44.2761 
G01 X44.0516 Y54.0759 
G01 X43.9939 Y54.1336 
G01 X43.8856 Y54.2956 
G01 X43.8111 Y54.4755 
G01 X43.7731 Y54.6666 
G01 X43.7731 Y54.8614 
G01 X43.8111 Y55.0525 
G01 X43.8856 Y55.2324 
G01 X43.9939 Y55.3944 
G01 X44.1316 Y55.5321 
G01 X44.2936 Y55.6403 
G01 X44.4735 Y55.7149 
G01 X44.6646 Y55.7529 
G01 X44.8594 Y55.7529 
G01 X45.0504 Y55.7149 
G01 X45.2304 Y55.6403 
G01 X45.3924 Y55.5321 
G01 X45.5301 Y55.3944 
G01 X45.6384 Y55.2324 
G01 X45.7129 Y55.0525 
G01 X45.7509 Y54.8614 
G01 X45.7509 Y54.6666 
G01 X45.7129 Y54.4755 
G01 X45.6384 Y54.2956 
G01 X45.5301 Y54.1336 
G01 X45.4724 Y54.0759 
G01 X45.4724 Y44.2761 
G01 X45.5301 Y44.2184 
G01 X45.6384 Y44.0564 
G01 X45.7129 Y43.8764 
G01 X45.7509 Y43.6854 
G01 X45.7509 Y43.4906 
G01 X45.7129 Y43.2995 
G01 X45.6384 Y43.1196 
G01 X45.5301 Y42.9576 
G01 X45.3924 Y42.8199 
G01 X45.2304 Y42.7116 
G01 X45.0504 Y42.6371 
G01 X44.8594 Y42.5991 
G01 X44.6646 Y42.5991 
G01 X44.4735 Y42.6371 
G01 X44.2936 Y42.7116 
G01 X44.1316 Y42.8199 
G01 X43.9939 Y42.9576 
G00 Z2.5400  
G00 X43.1021 Y20.3424 
G01 Z-0.1778 F254   
G01 X43.2103 Y20.1804 F508   
G01 X43.2849 Y20.0005 
G01 X43.3229 Y19.8094 
G01 X43.3229 Y19.6146 
G01 X43.2849 Y19.4235 
G01 X43.2103 Y19.2436 
G01 X43.1021 Y19.0816 
G01 X42.9644 Y18.9439 
G01 X42.8024 Y18.8356 
G01 X42.6225 Y18.7611 
G01 X42.4314 Y18.7231 
G01 X42.2366 Y18.7231 
G01 X42.0455 Y18.7611 
G01 X41.8656 Y18.8356 
G01 X41.7036 Y18.9439 
G01 X41.5659 Y19.0816 
G01 X41.4576 Y19.2436 
G01 X41.3831 Y19.4235 
G01 X41.3451 Y19.6146 
G01 X41.3451 Y19.8094 
G01 X41.3831 Y20.0005 
G01 X41.4576 Y20.1804 
G01 X41.5659 Y20.3424 
G01 X41.7036 Y20.4801 
G01 X41.8656 Y20.5883 
G01 X42.0455 Y20.6629 
G01 X42.2366 Y20.7009 
G01 X42.4314 Y20.7009 
G01 X42.6225 Y20.6629 
G01 X42.8024 Y20.5883 
G01 X42.9644 Y20.4801 
G01 X43.1021 Y20.3424 
G00 Z2.5400  
G00 X45.0659 Y20.3424 
G01 Z-0.1778 F254   
G01 X45.2036 Y20.4801 F508   
G01 X45.3656 Y20.5883 
G01 X45.5455 Y20.6629 
G01 X45.7366 Y20.7009 
G01 X45.9314 Y20.7009 
G01 X46.1225 Y20.6629 
G01 X46.3024 Y20.5883 
G01 X46.4644 Y20.4801 
G01 X46.6021 Y20.3424 
G01 X46.7103 Y20.1804 
G01 X46.7849 Y20.0005 
G01 X46.8229 Y19.8094 
G01 X46.8229 Y19.6146 
G01 X46.7849 Y19.4235 
G01 X46.7103 Y19.2436 
G01 X46.6021 Y19.0816 
G01 X46.4644 Y18.9439 
G01 X46.3024 Y18.8356 
G01 X46.1225 Y18.7611 
G01 X45.9314 Y18.7231 
G01 X45.7366 Y18.7231 
G01 X45.5455 Y18.7611 
G01 X45.3656 Y18.8356 
G01 X45.2036 Y18.9439 
G01 X45.0659 Y19.0816 
G01 X44.9576 Y19.2436 
G01 X44.8831 Y19.4235 
G01 X44.8451 Y19.6146 
G01 X44.8451 Y19.8094 
G01 X44.8831 Y20.0005 
G01 X44.9576 Y20.1804 
G01 X45.0659 Y20.3424 
G00 Z2.5400  
G00 X45.2036 Y8.7961  
G01 Z-0.1778 F254   
G01 X45.3656 Y8.9044  F508   
G01 X45.5455 Y8.9789  
G01 X45.7366 Y9.0169  
G01 X45.9314 Y9.0169  
G01 X46.1225 Y8.9789  
G01 X46.3024 Y8.9044  
G01 X46.4644 Y8.7961  
G01 X46.6021 Y8.6584  
G01 X46.7103 Y8.4964  
G01 X46.7849 Y8.3164  
G01 X46.8229 Y8.1254  
G01 X46.8229 Y7.9306  
G01 X46.7849 Y7.7395  
G01 X46.7103 Y7.5596  
G01 X46.6021 Y7.3976  
G01 X46.4644 Y7.2599  
G01 X46.3024 Y7.1516  
G01 X46.1225 Y7.0771  
G01 X45.9314 Y7.0391  
G01 X45.7366 Y7.0391  
G01 X45.5455 Y7.0771  
G01 X45.3656 Y7.1516  
G01 X45.2036 Y7.2599  
G01 X45.0659 Y7.3976  
G01 X44.9576 Y7.5596  
G01 X44.8831 Y7.7395  
G01 X44.8451 Y7.9306  
G01 X44.8451 Y8.1254  
G01 X44.8831 Y8.3164  
G01 X44.9576 Y8.4964  
G01 X45.0659 Y8.6584  
G01 X45.2036 Y8.7961  
G00 Z2.5400  
G00 X43.1021 Y8.6584  
G01 Z-0.1778 F254   
G01 X43.2103 Y8.4964  F508   
G01 X43.2849 Y8.3164  
G01 X43.3229 Y8.1254  
G01 X43.3229 Y7.9306  
G01 X43.2849 Y7.7395  
G01 X43.2103 Y7.5596  
G01 X43.1021 Y7.3976  
G01 X42.9644 Y7.2599  
G01 X42.8024 Y7.1516  
G01 X42.6225 Y7.0771  
G01 X42.4314 Y7.0391  
G01 X42.2366 Y7.0391  
G01 X42.0455 Y7.0771  
G01 X41.8656 Y7.1516  
G01 X41.7036 Y7.2599  
G01 X41.5659 Y7.3976  
G01 X41.4576 Y7.5596  
G01 X41.3831 Y7.7395  
G01 X41.3451 Y7.9306  
G01 X41.3451 Y8.1254  
G01 X41.3831 Y8.3164  
G01 X41.4576 Y8.4964  
G01 X41.5659 Y8.6584  
G01 X41.7036 Y8.7961  
G01 X41.8656 Y8.9044  
G01 X42.0455 Y8.9789  
G01 X42.2366 Y9.0169  
G01 X42.4314 Y9.0169  
G01 X42.6225 Y8.9789  
G01 X42.8024 Y8.9044  
G01 X42.9644 Y8.7961  
G01 X43.1021 Y8.6584  
G00 Z2.5400  
G00 X52.1638 Y-1.3726 
G01 Z-0.1778 F254   
G01 X52.1726 Y-1.3726 F508   
G01 X52.1726 Y-1.3638 
G01 X52.1638 Y-1.3726 
G00 Z2.5400  
G00 X52.1726 Y62.3238 
G01 Z-0.1778 F254   
G01 X52.1726 Y62.3326 F508   
G01 X52.1638 Y62.3326 
G01 X52.1726 Y62.3238 
G00 Z2.5400  
G00 X6.7641  Y54.3384 
G01 Z-0.1778 F254   
G01 X6.8723  Y54.1764 F508   
G01 X6.9469  Y53.9965 
G01 X6.9849  Y53.8054 
G01 X6.9849  Y53.6106 
G01 X6.9469  Y53.4195 
G01 X6.8723  Y53.2396 
G01 X6.7641  Y53.0776 
G01 X6.6264  Y52.9399 
G01 X6.4644  Y52.8316 
G01 X6.2844  Y52.7571 
G01 X6.0934  Y52.7191 
G01 X5.8986  Y52.7191 
G01 X5.7075  Y52.7571 
G01 X5.5276  Y52.8316 
G01 X5.3656  Y52.9399 
G01 X5.2279  Y53.0776 
G01 X5.1196  Y53.2396 
G01 X5.0451  Y53.4195 
G01 X5.0071  Y53.6106 
G01 X5.0071  Y53.8054 
G01 X5.0451  Y53.9965 
G01 X5.1196  Y54.1764 
G01 X5.2279  Y54.3384 
G01 X5.3656  Y54.4761 
G01 X5.5276  Y54.5844 
G01 X5.7075  Y54.6589 
G01 X5.8986  Y54.6969 
G01 X6.0934  Y54.6969 
G01 X6.2844  Y54.6589 
G01 X6.4644  Y54.5844 
G01 X6.6264  Y54.4761 
G01 X6.7641  Y54.3384 
G00 Z2.5400  
G00 X6.7641  Y40.3384 
G01 Z-0.1778 F254   
G01 X6.8723  Y40.1764 F508   
G01 X6.9469  Y39.9965 
G01 X6.9849  Y39.8054 
G01 X6.9849  Y39.6106 
G01 X6.9469  Y39.4195 
G01 X6.8723  Y39.2396 
G01 X6.7641  Y39.0776 
G01 X6.6264  Y38.9399 
G01 X6.4644  Y38.8316 
G01 X6.2844  Y38.7571 
G01 X6.0934  Y38.7191 
G01 X5.8986  Y38.7191 
G01 X5.7075  Y38.7571 
G01 X5.5276  Y38.8316 
G01 X5.3656  Y38.9399 
G01 X5.2279  Y39.0776 
G01 X5.1196  Y39.2396 
G01 X5.0451  Y39.4195 
G01 X5.0071  Y39.6106 
G01 X5.0071  Y39.8054 
G01 X5.0451  Y39.9965 
G01 X5.1196  Y40.1764 
G01 X5.2279  Y40.3384 
G01 X5.3656  Y40.4761 
G01 X5.5276  Y40.5844 
G01 X5.7075  Y40.6589 
G01 X5.8986  Y40.6969 
G01 X6.0934  Y40.6969 
G01 X6.2844  Y40.6589 
G01 X6.4644  Y40.5844 
G01 X6.6264  Y40.4761 
G01 X6.7641  Y40.3384 
G00 Z2.5400  
G00 X-1.3638 Y62.3326 
G01 Z-0.1778 F254   
G01 X-1.3726 Y62.3326 F508   
G01 X-1.3726 Y62.3238 
G01 X-1.3638 Y62.3326 
G00 Z2.5400  
G00 X1.5359  Y-1.3050 
G01 Z-0.1778 F254   
G01 X1.5178  Y-1.3726 F508   
G01 X49.2822 Y-1.3726 
G01 X49.2641 Y-1.3050 
G01 X49.2641 Y1.3050  
G01 X49.2822 Y1.3726  
G01 X49.3172 Y1.4333  
G01 X49.3667 Y1.4828  
G01 X49.4274 Y1.5178  
G01 X49.4950 Y1.5359  
G01 X52.1050 Y1.5359  
G01 X52.1726 Y1.5178  
G01 X52.1726 Y59.4422 
G01 X52.1050 Y59.4241 
G01 X49.4950 Y59.4241 
G01 X49.4274 Y59.4422 
G01 X49.3667 Y59.4772 
G01 X49.3172 Y59.5267 
G01 X49.2822 Y59.5874 
G01 X49.2641 Y59.6550 
G01 X49.2641 Y62.2650 
G01 X49.2822 Y62.3326 
G01 X1.5178  Y62.3326 
G01 X1.5359  Y62.2650 
G01 X1.5359  Y59.6550 
G01 X1.5178  Y59.5874 
G01 X1.4828  Y59.5267 
G01 X1.4333  Y59.4772 
G01 X1.3726  Y59.4422 
G01 X1.3050  Y59.4241 
G01 X-1.3050 Y59.4241 
G01 X-1.3726 Y59.4422 
G01 X-1.3726 Y1.5178  
G01 X-1.3050 Y1.5359  
G01 X1.3050  Y1.5359  
G01 X1.3726  Y1.5178  
G01 X1.4333  Y1.4828  
G01 X1.4828  Y1.4333  
G01 X1.5178  Y1.3726  
G01 X1.5359  Y1.3050  
G01 X1.5359  Y-1.3050 
G00 Z2.5400  
G00 X5.1448  Y1.7550  
G01 Z-0.1778 F254   
G01 X5.0416  Y1.8971  F508   
G01 X4.9619  Y2.0536  
G01 X4.9076  Y2.2207  
G01 X4.8801  Y2.3942  
G01 X4.8801  Y2.5698  
G01 X4.9076  Y2.7433  
G01 X4.9619  Y2.9104  
G01 X5.0416  Y3.0669  
G01 X5.1448  Y3.2090  
G01 X5.2690  Y3.3332  
G01 X5.4111  Y3.4364  
G01 X5.5676  Y3.5161  
G01 X5.7347  Y3.5704  
G01 X5.9082  Y3.5979  
G01 X6.0838  Y3.5979  
G01 X6.2573  Y3.5704  
G01 X6.4244  Y3.5161  
G01 X6.5809  Y3.4364  
G01 X6.7230  Y3.3332  
G01 X6.7367  Y3.3194  
G01 X10.0851 Y3.3194  
G01 X10.0851 Y3.4000  
G01 X10.1032 Y3.4676  
G01 X10.1382 Y3.5283  
G01 X10.1877 Y3.5778  
G01 X10.2484 Y3.6128  
G01 X10.3160 Y3.6309  
G01 X12.0360 Y3.6309  
G01 X12.1036 Y3.6128  
G01 X12.1643 Y3.5778  
G01 X12.2138 Y3.5283  
G01 X12.2488 Y3.4676  
G01 X12.2669 Y3.4000  
G01 X12.2669 Y1.6800  
G01 X12.2488 Y1.6124  
G01 X12.2138 Y1.5517  
G01 X12.1643 Y1.5022  
G01 X12.1036 Y1.4672  
G01 X12.0360 Y1.4491  
G01 X10.3160 Y1.4491  
G01 X10.2484 Y1.4672  
G01 X10.1877 Y1.5022  
G01 X10.1382 Y1.5517  
G01 X10.1032 Y1.6124  
G01 X10.0946 Y1.6446  
G01 X6.7367  Y1.6446  
G01 X6.7230  Y1.6308  
G01 X6.5809  Y1.5276  
G01 X6.4244  Y1.4479  
G01 X6.2573  Y1.3936  
G01 X6.0838  Y1.3661  
G01 X5.9082  Y1.3661  
G01 X5.7347  Y1.3936  
G01 X5.5676  Y1.4479  
G01 X5.4111  Y1.5276  
G01 X5.2690  Y1.6308  
G01 X5.1448  Y1.7550  
G00 Z2.5400  
G00 X5.1448  Y5.2550  
G01 Z-0.1778 F254   
G01 X5.0416  Y5.3971  F508   
G01 X4.9619  Y5.5536  
G01 X4.9076  Y5.7207  
G01 X4.8801  Y5.8942  
G01 X4.8801  Y6.0698  
G01 X4.9076  Y6.2433  
G01 X4.9619  Y6.4104  
G01 X5.0416  Y6.5669  
G01 X5.1448  Y6.7090  
G01 X5.2690  Y6.8332  
G01 X5.4111  Y6.9364  
G01 X5.5676  Y7.0161  
G01 X5.7347  Y7.0704  
G01 X5.9082  Y7.0979  
G01 X6.0838  Y7.0979  
G01 X6.2573  Y7.0704  
G01 X6.4244  Y7.0161  
G01 X6.5809  Y6.9364  
G01 X6.7230  Y6.8332  
G01 X6.7367  Y6.8194  
G01 X10.0851 Y6.8194  
G01 X10.0851 Y6.9560  
G01 X10.1032 Y7.0236  
G01 X10.1382 Y7.0843  
G01 X10.1877 Y7.1338  
G01 X10.2484 Y7.1688  
G01 X10.3160 Y7.1869  
G01 X12.0360 Y7.1869  
G01 X12.1036 Y7.1688  
G01 X12.1643 Y7.1338  
G01 X12.2138 Y7.0843  
G01 X12.2488 Y7.0236  
G01 X12.2669 Y6.9560  
G01 X12.2669 Y5.2360  
G01 X12.2488 Y5.1684  
G01 X12.2138 Y5.1077  
G01 X12.1643 Y5.0582  
G01 X12.1036 Y5.0232  
G01 X12.0360 Y5.0051  
G01 X10.3160 Y5.0051  
G01 X10.2484 Y5.0232  
G01 X10.1877 Y5.0582  
G01 X10.1382 Y5.1077  
G01 X10.1169 Y5.1446  
G01 X6.7367  Y5.1446  
G01 X6.7230  Y5.1308  
G01 X6.5809  Y5.0276  
G01 X6.4244  Y4.9479  
G01 X6.2573  Y4.8936  
G01 X6.0838  Y4.8661  
G01 X5.9082  Y4.8661  
G01 X5.7347  Y4.8936  
G01 X5.5676  Y4.9479  
G01 X5.4111  Y5.0276  
G01 X5.2690  Y5.1308  
G01 X5.1448  Y5.2550  
G00 Z2.5400  
G00 X5.1448  Y8.7550  
G01 Z-0.1778 F254   
G01 X5.0416  Y8.8971  F508   
G01 X4.9619  Y9.0536  
G01 X4.9076  Y9.2207  
G01 X4.8801  Y9.3942  
G01 X4.8801  Y9.5698  
G01 X4.9076  Y9.7433  
G01 X4.9619  Y9.9104  
G01 X5.0416  Y10.0669 
G01 X5.1448  Y10.2090 
G01 X5.2690  Y10.3332 
G01 X5.4111  Y10.4364 
G01 X5.5676  Y10.5161 
G01 X5.7347  Y10.5704 
G01 X5.9082  Y10.5979 
G01 X6.0838  Y10.5979 
G01 X6.2573  Y10.5704 
G01 X6.4244  Y10.5161 
G01 X6.5809  Y10.4364 
G01 X6.7230  Y10.3332 
G01 X6.8472  Y10.2090 
G01 X6.9504  Y10.0669 
G01 X7.0301  Y9.9104  
G01 X7.0844  Y9.7433  
G01 X7.1119  Y9.5698  
G01 X7.1119  Y9.3942  
G01 X7.0844  Y9.2207  
G01 X7.0301  Y9.0536  
G01 X6.9504  Y8.8971  
G01 X6.8472  Y8.7550  
G01 X6.7230  Y8.6308  
G01 X6.5809  Y8.5276  
G01 X6.4244  Y8.4479  
G01 X6.2573  Y8.3936  
G01 X6.0838  Y8.3661  
G01 X5.9082  Y8.3661  
G01 X5.7347  Y8.3936  
G01 X5.5676  Y8.4479  
G01 X5.4111  Y8.5276  
G01 X5.2690  Y8.6308  
G01 X5.1448  Y8.7550  
G00 Z2.5400  
G00 X5.2553  Y12.1446 
G01 Z-0.1778 F254   
G01 X3.1915  Y12.1446 F508   
G01 X3.0297  Y12.1768 
G01 X2.8773  Y12.2399 
G01 X2.7402  Y12.3315 
G01 X0.9902  Y14.0815 
G01 X0.8735  Y14.1982 
G01 X0.7819  Y14.3353 
G01 X0.7188  Y14.4877 
G01 X0.6866  Y14.6495 
G01 X0.6866  Y54.9465 
G01 X0.7188  Y55.1083 
G01 X0.7819  Y55.2607 
G01 X0.8735  Y55.3978 
G01 X0.9902  Y55.5144 
G01 X3.2175  Y57.7418 
G01 X3.3342  Y57.8584 
G01 X3.4713  Y57.9501 
G01 X3.6237  Y58.0132 
G01 X3.7855  Y58.0454 
G01 X5.2553  Y58.0454 
G01 X5.2690  Y58.0592 
G01 X5.4111  Y58.1624 
G01 X5.5676  Y58.2421 
G01 X5.7347  Y58.2964 
G01 X5.9082  Y58.3239 
G01 X6.0838  Y58.3239 
G01 X6.2573  Y58.2964 
G01 X6.4244  Y58.2421 
G01 X6.5809  Y58.1624 
G01 X6.7230  Y58.0592 
G01 X6.7947  Y57.9874 
G01 X17.8625 Y57.9874 
G01 X18.0243 Y57.9552 
G01 X18.1767 Y57.8921 
G01 X18.3138 Y57.8004 
G01 X19.4826 Y56.6317 
G01 X19.4826 Y57.4865 
G01 X19.5148 Y57.6483 
G01 X19.5779 Y57.8007 
G01 X19.6695 Y57.9378 
G01 X21.9555 Y60.2238 
G01 X22.0722 Y60.3404 
G01 X22.2093 Y60.4321 
G01 X22.3617 Y60.4952 
G01 X22.5235 Y60.5274 
G01 X33.3565 Y60.5274 
G01 X33.5183 Y60.4952 
G01 X33.6707 Y60.4321 
G01 X33.8078 Y60.3404 
G01 X34.8238 Y59.3244 
G01 X34.9404 Y59.2078 
G01 X35.0321 Y59.0707 
G01 X35.0952 Y58.9183 
G01 X35.1274 Y58.7565 
G01 X35.1274 Y55.4714 
G01 X35.2164 Y55.3489 
G01 X35.2961 Y55.1924 
G01 X35.3504 Y55.0253 
G01 X35.3779 Y54.8518 
G01 X35.3779 Y54.6762 
G01 X35.3504 Y54.5027 
G01 X35.2961 Y54.3356 
G01 X35.2164 Y54.1791 
G01 X35.1132 Y54.0370 
G01 X35.0994 Y54.0233 
G01 X35.0994 Y44.3287 
G01 X35.1132 Y44.3150 
G01 X35.2164 Y44.1729 
G01 X35.2961 Y44.0164 
G01 X35.3504 Y43.8493 
G01 X35.3779 Y43.6758 
G01 X35.3779 Y43.5002 
G01 X35.3504 Y43.3267 
G01 X35.2961 Y43.1596 
G01 X35.2164 Y43.0031 
G01 X35.1132 Y42.8610 
G01 X35.0994 Y42.8473 
G01 X35.0994 Y34.7083 
G01 X35.5496 Y34.7083 
G01 X35.7286 Y34.6727 
G01 X35.8972 Y34.6029 
G01 X36.0489 Y34.5015 
G01 X36.1779 Y34.3725 
G01 X36.2793 Y34.2208 
G01 X36.3491 Y34.0522 
G01 X36.3847 Y33.8732 
G01 X36.3847 Y33.6908 
G01 X36.3491 Y33.5118 
G01 X36.2793 Y33.3432 
G01 X36.1779 Y33.1915 
G01 X36.0489 Y33.0625 
G01 X35.8972 Y32.9611 
G01 X35.7286 Y32.8913 
G01 X35.5496 Y32.8557 
G01 X34.0464 Y32.8557 
G01 X33.8674 Y32.8913 
G01 X33.7387 Y32.9446 
G01 X31.0809 Y32.9446 
G01 X29.9978 Y31.8615 
G01 X29.8607 Y31.7699 
G01 X29.7083 Y31.7068 
G01 X29.5465 Y31.6746 
G01 X23.2223 Y31.6746 
G01 X23.0318 Y31.4841 
G01 X22.1802 Y31.4841 
G01 X21.9897 Y31.6746 
G01 X20.6823 Y31.6746 
G01 X20.4918 Y31.4841 
G01 X19.6402 Y31.4841 
G01 X19.0381 Y32.0862 
G01 X19.0381 Y32.9378 
G01 X19.4246 Y33.3243 
G01 X19.4246 Y42.5065 
G01 X19.3482 Y42.5575 
G01 X19.2315 Y42.6742 
G01 X19.1399 Y42.8113 
G01 X19.0768 Y42.9637 
G01 X19.0446 Y43.1255 
G01 X19.0446 Y43.2905 
G01 X19.0768 Y43.4523 
G01 X19.1399 Y43.6047 
G01 X19.1461 Y43.6139 
G01 X19.1461 Y43.6758 
G01 X19.1736 Y43.8493 
G01 X19.2279 Y44.0164 
G01 X19.3076 Y44.1729 
G01 X19.4108 Y44.3150 
G01 X19.4246 Y44.3287 
G01 X19.4246 Y54.0233 
G01 X19.4108 Y54.0370 
G01 X19.3076 Y54.1791 
G01 X19.2279 Y54.3356 
G01 X19.1736 Y54.5027 
G01 X19.1605 Y54.5852 
G01 X17.4331 Y56.3126 
G01 X6.6621  Y56.3126 
G01 X6.5809  Y56.2536 
G01 X6.4244  Y56.1739 
G01 X6.2573  Y56.1196 
G01 X6.0838  Y56.0921 
G01 X5.9082  Y56.0921 
G01 X5.7347  Y56.1196 
G01 X5.5676  Y56.1739 
G01 X5.4111  Y56.2536 
G01 X5.2690  Y56.3568 
G01 X5.2553  Y56.3706 
G01 X4.2149  Y56.3706 
G01 X2.3614  Y54.5171 
G01 X2.3614  Y44.0454 
G01 X5.2553  Y44.0454 
G01 X5.2690  Y44.0592 
G01 X5.4111  Y44.1624 
G01 X5.5676  Y44.2421 
G01 X5.7347  Y44.2964 
G01 X5.9082  Y44.3239 
G01 X6.0838  Y44.3239 
G01 X6.2573  Y44.2964 
G01 X6.4244  Y44.2421 
G01 X6.5809  Y44.1624 
G01 X6.7230  Y44.0592 
G01 X6.8472  Y43.9350 
G01 X6.9504  Y43.7929 
G01 X7.0301  Y43.6364 
G01 X7.0844  Y43.4693 
G01 X7.1119  Y43.2958 
G01 X7.1119  Y43.1202 
G01 X7.0844  Y42.9467 
G01 X7.0301  Y42.7796 
G01 X6.9504  Y42.6231 
G01 X6.8472  Y42.4810 
G01 X6.7230  Y42.3568 
G01 X6.5809  Y42.2536 
G01 X6.4244  Y42.1739 
G01 X6.2573  Y42.1196 
G01 X6.0838  Y42.0921 
G01 X5.9082  Y42.0921 
G01 X5.7347  Y42.1196 
G01 X5.5676  Y42.1739 
G01 X5.4111  Y42.2536 
G01 X5.2690  Y42.3568 
G01 X5.2553  Y42.3706 
G01 X2.3614  Y42.3706 
G01 X2.3614  Y28.7949 
G01 X3.3949  Y27.7614 
G01 X5.1973  Y27.7614 
G01 X5.2690  Y27.8332 
G01 X5.4111  Y27.9364 
G01 X5.5676  Y28.0161 
G01 X5.7347  Y28.0704 
G01 X5.9082  Y28.0979 
G01 X6.0838  Y28.0979 
G01 X6.2573  Y28.0704 
G01 X6.4244  Y28.0161 
G01 X6.5809  Y27.9364 
G01 X6.7230  Y27.8332 
G01 X6.8472  Y27.7090 
G01 X6.9504  Y27.5669 
G01 X7.0301  Y27.4104 
G01 X7.0844  Y27.2433 
G01 X7.1119  Y27.0698 
G01 X7.1119  Y26.8942 
G01 X7.0844  Y26.7207 
G01 X7.0301  Y26.5536 
G01 X6.9504  Y26.3971 
G01 X6.8472  Y26.2550 
G01 X6.7230  Y26.1308 
G01 X6.5809  Y26.0276 
G01 X6.4244  Y25.9479 
G01 X6.2573  Y25.8936 
G01 X6.0838  Y25.8661 
G01 X5.9082  Y25.8661 
G01 X5.7347  Y25.8936 
G01 X5.5676  Y25.9479 
G01 X5.4111  Y26.0276 
G01 X5.3299  Y26.0866 
G01 X2.9655  Y26.0866 
G01 X2.8037  Y26.1188 
G01 X2.6513  Y26.1819 
G01 X2.5142  Y26.2735 
G01 X2.3975  Y26.3902 
G01 X2.3614  Y26.4263 
G01 X2.3614  Y15.0789 
G01 X3.6209  Y13.8194 
G01 X5.2553  Y13.8194 
G01 X5.2690  Y13.8332 
G01 X5.4111  Y13.9364 
G01 X5.5676  Y14.0161 
G01 X5.7347  Y14.0704 
G01 X5.9082  Y14.0979 
G01 X6.0838  Y14.0979 
G01 X6.2573  Y14.0704 
G01 X6.4244  Y14.0161 
G01 X6.5809  Y13.9364 
G01 X6.7230  Y13.8332 
G01 X6.8472  Y13.7090 
G01 X6.9504  Y13.5669 
G01 X7.0301  Y13.4104 
G01 X7.0844  Y13.2433 
G01 X7.1119  Y13.0698 
G01 X7.1119  Y12.8942 
G01 X7.0844  Y12.7207 
G01 X7.0301  Y12.5536 
G01 X6.9504  Y12.3971 
G01 X6.8472  Y12.2550 
G01 X6.7230  Y12.1308 
G01 X6.5809  Y12.0276 
G01 X6.4244  Y11.9479 
G01 X6.2573  Y11.8936 
G01 X6.0838  Y11.8661 
G01 X5.9082  Y11.8661 
G01 X5.7347  Y11.8936 
G01 X5.5676  Y11.9479 
G01 X5.4111  Y12.0276 
G01 X5.2690  Y12.1308 
G01 X5.2553  Y12.1446 
G00 Z2.5400  
G00 X5.2690  Y15.6308 
G01 Z-0.1778 F254   
G01 X5.1448  Y15.7550 F508   
G01 X5.0416  Y15.8971 
G01 X4.9619  Y16.0536 
G01 X4.9076  Y16.2207 
G01 X4.8801  Y16.3942 
G01 X4.8801  Y16.5698 
G01 X4.9076  Y16.7433 
G01 X4.9619  Y16.9104 
G01 X5.0416  Y17.0669 
G01 X5.1448  Y17.2090 
G01 X5.2690  Y17.3332 
G01 X5.4111  Y17.4364 
G01 X5.5676  Y17.5161 
G01 X5.7347  Y17.5704 
G01 X5.9082  Y17.5979 
G01 X6.0838  Y17.5979 
G01 X6.2573  Y17.5704 
G01 X6.4244  Y17.5161 
G01 X6.5809  Y17.4364 
G01 X6.7230  Y17.3332 
G01 X6.7367  Y17.3194 
G01 X7.2225  Y17.3194 
G01 X7.3843  Y17.2872 
G01 X7.5367  Y17.2241 
G01 X7.6738  Y17.1324 
G01 X9.4238  Y15.3825 
G01 X9.5404  Y15.2658 
G01 X9.6321  Y15.1287 
G01 X9.6952  Y14.9763 
G01 X9.7274  Y14.8145 
G01 X9.7274  Y13.5549 
G01 X9.9989  Y13.2834 
G01 X10.0851 Y13.2834 
G01 X10.0851 Y13.3060 
G01 X10.1032 Y13.3736 
G01 X10.1382 Y13.4343 
G01 X10.1877 Y13.4838 
G01 X10.2484 Y13.5188 
G01 X10.3160 Y13.5369 
G01 X12.0360 Y13.5369 
G01 X12.1036 Y13.5188 
G01 X12.1643 Y13.4838 
G01 X12.2138 Y13.4343 
G01 X12.2488 Y13.3736 
G01 X12.2669 Y13.3060 
G01 X12.2669 Y11.5860 
G01 X12.2488 Y11.5184 
G01 X12.2138 Y11.4577 
G01 X12.1643 Y11.4082 
G01 X12.1036 Y11.3732 
G01 X12.0360 Y11.3551 
G01 X10.3160 Y11.3551 
G01 X10.2484 Y11.3732 
G01 X10.1877 Y11.4082 
G01 X10.1382 Y11.4577 
G01 X10.1032 Y11.5184 
G01 X10.0851 Y11.5860 
G01 X10.0851 Y11.6086 
G01 X9.5695  Y11.6086 
G01 X9.4077  Y11.6408 
G01 X9.2553  Y11.7039 
G01 X9.1182  Y11.7955 
G01 X9.0015  Y11.9122 
G01 X8.2395  Y12.6742 
G01 X8.1479  Y12.8113 
G01 X8.0848  Y12.9637 
G01 X8.0526  Y13.1255 
G01 X8.0526  Y14.3851 
G01 X6.7931  Y15.6446 
G01 X6.7367  Y15.6446 
G01 X6.7230  Y15.6308 
G01 X6.5809  Y15.5276 
G01 X6.4244  Y15.4479 
G01 X6.2573  Y15.3936 
G01 X6.0838  Y15.3661 
G01 X5.9082  Y15.3661 
G01 X5.7347  Y15.3936 
G01 X5.5676  Y15.4479 
G01 X5.4111  Y15.5276 
G01 X5.2690  Y15.6308 
G00 Z2.5400  
G00 X5.2690  Y19.1308 
G01 Z-0.1778 F254   
G01 X5.1448  Y19.2550 F508   
G01 X5.0416  Y19.3971 
G01 X4.9619  Y19.5536 
G01 X4.9076  Y19.7207 
G01 X4.8801  Y19.8942 
G01 X4.8801  Y20.0698 
G01 X4.9076  Y20.2433 
G01 X4.9619  Y20.4104 
G01 X5.0416  Y20.5669 
G01 X5.1448  Y20.7090 
G01 X5.2690  Y20.8332 
G01 X5.4111  Y20.9364 
G01 X5.5676  Y21.0161 
G01 X5.7347  Y21.0704 
G01 X5.9082  Y21.0979 
G01 X6.0838  Y21.0979 
G01 X6.2573  Y21.0704 
G01 X6.4244  Y21.0161 
G01 X6.5809  Y20.9364 
G01 X6.7230  Y20.8332 
G01 X6.7367  Y20.8194 
G01 X8.0405  Y20.8194 
G01 X8.2023  Y20.7872 
G01 X8.3547  Y20.7241 
G01 X8.4918  Y20.6324 
G01 X11.7098 Y17.4144 
G01 X11.8264 Y17.2978 
G01 X11.9181 Y17.1607 
G01 X11.9812 Y17.0083 
G01 X12.0134 Y16.8465 
G01 X12.0134 Y16.5849 
G01 X12.0360 Y16.5849 
G01 X12.1036 Y16.5668 
G01 X12.1643 Y16.5318 
G01 X12.2138 Y16.4823 
G01 X12.2488 Y16.4216 
G01 X12.2669 Y16.3540 
G01 X12.2669 Y14.6340 
G01 X12.2488 Y14.5664 
G01 X12.2138 Y14.5057 
G01 X12.1643 Y14.4562 
G01 X12.1036 Y14.4212 
G01 X12.0360 Y14.4031 
G01 X10.3160 Y14.4031 
G01 X10.2484 Y14.4212 
G01 X10.1877 Y14.4562 
G01 X10.1382 Y14.5057 
G01 X10.1032 Y14.5664 
G01 X10.0851 Y14.6340 
G01 X10.0851 Y16.3540 
G01 X10.1032 Y16.4216 
G01 X10.1382 Y16.4823 
G01 X10.1877 Y16.5318 
G01 X10.2107 Y16.5450 
G01 X7.6111  Y19.1446 
G01 X6.7367  Y19.1446 
G01 X6.7230  Y19.1308 
G01 X6.5809  Y19.0276 
G01 X6.4244  Y18.9479 
G01 X6.2573  Y18.8936 
G01 X6.0838  Y18.8661 
G01 X5.9082  Y18.8661 
G01 X5.7347  Y18.8936 
G01 X5.5676  Y18.9479 
G01 X5.4111  Y19.0276 
G01 X5.2690  Y19.1308 
G00 Z2.5400  
G00 X5.2690  Y22.6308 
G01 Z-0.1778 F254   
G01 X5.1448  Y22.7550 F508   
G01 X5.0416  Y22.8971 
G01 X4.9619  Y23.0536 
G01 X4.9076  Y23.2207 
G01 X4.8801  Y23.3942 
G01 X4.8801  Y23.5698 
G01 X4.9076  Y23.7433 
G01 X4.9619  Y23.9104 
G01 X5.0416  Y24.0669 
G01 X5.1448  Y24.2090 
G01 X5.2690  Y24.3332 
G01 X5.4111  Y24.4364 
G01 X5.5676  Y24.5161 
G01 X5.7347  Y24.5704 
G01 X5.9082  Y24.5979 
G01 X6.0838  Y24.5979 
G01 X6.2573  Y24.5704 
G01 X6.4244  Y24.5161 
G01 X6.5809  Y24.4364 
G01 X6.7230  Y24.3332 
G01 X6.8472  Y24.2090 
G01 X6.9504  Y24.0669 
G01 X7.0301  Y23.9104 
G01 X7.0844  Y23.7433 
G01 X7.1119  Y23.5698 
G01 X7.1119  Y23.3942 
G01 X7.0844  Y23.2207 
G01 X7.0301  Y23.0536 
G01 X6.9504  Y22.8971 
G01 X6.8472  Y22.7550 
G01 X6.7230  Y22.6308 
G01 X6.5809  Y22.5276 
G01 X6.4244  Y22.4479 
G01 X6.2573  Y22.3936 
G01 X6.0838  Y22.3661 
G01 X5.9082  Y22.3661 
G01 X5.7347  Y22.3936 
G01 X5.5676  Y22.4479 
G01 X5.4111  Y22.5276 
G01 X5.2690  Y22.6308 
G00 Z2.5400  
G00 X9.3226  Y20.9995 
G01 Z-0.1778 F254   
G01 X9.3226  Y30.8554 F508   
G01 X8.1316  Y31.8706 
G01 X6.7367  Y31.8706 
G01 X6.7230  Y31.8568 
G01 X6.5809  Y31.7536 
G01 X6.4244  Y31.6739 
G01 X6.2573  Y31.6196 
G01 X6.0838  Y31.5921 
G01 X5.9082  Y31.5921 
G01 X5.7347  Y31.6196 
G01 X5.5676  Y31.6739 
G01 X5.4111  Y31.7536 
G01 X5.2690  Y31.8568 
G01 X5.1448  Y31.9810 
G01 X5.0416  Y32.1231 
G01 X4.9619  Y32.2796 
G01 X4.9076  Y32.4467 
G01 X4.8801  Y32.6202 
G01 X4.8801  Y32.7958 
G01 X4.9076  Y32.9693 
G01 X4.9619  Y33.1364 
G01 X5.0416  Y33.2929 
G01 X5.1448  Y33.4350 
G01 X5.2690  Y33.5592 
G01 X5.4111  Y33.6624 
G01 X5.5676  Y33.7421 
G01 X5.7347  Y33.7964 
G01 X5.9082  Y33.8239 
G01 X6.0838  Y33.8239 
G01 X6.2573  Y33.7964 
G01 X6.4244  Y33.7421 
G01 X6.5809  Y33.6624 
G01 X6.7230  Y33.5592 
G01 X6.7367  Y33.5454 
G01 X8.4067  Y33.5454 
G01 X8.4557  Y33.5493 
G01 X8.4890  Y33.5454 
G01 X8.5225  Y33.5454 
G01 X8.5707  Y33.5358 
G01 X8.6195  Y33.5301 
G01 X8.6514  Y33.5198 
G01 X8.6843  Y33.5132 
G01 X8.7296  Y33.4944 
G01 X8.7764  Y33.4793 
G01 X8.8057  Y33.4629 
G01 X8.8367  Y33.4501 
G01 X8.8775  Y33.4228 
G01 X8.9204  Y33.3988 
G01 X8.9459  Y33.3771 
G01 X8.9738  Y33.3584 
G01 X9.0086  Y33.3237 
G01 X10.6659 Y31.9111 
G01 X10.6938 Y31.8925 
G01 X10.7286 Y31.8577 
G01 X10.7660 Y31.8258 
G01 X10.7867 Y31.7995 
G01 X10.8104 Y31.7758 
G01 X10.8378 Y31.7349 
G01 X10.8682 Y31.6964 
G01 X10.8835 Y31.6665 
G01 X10.9021 Y31.6387 
G01 X10.9209 Y31.5932 
G01 X10.9433 Y31.5495 
G01 X10.9524 Y31.5172 
G01 X10.9652 Y31.4863 
G01 X10.9748 Y31.4381 
G01 X10.9882 Y31.3908 
G01 X10.9909 Y31.3573 
G01 X10.9974 Y31.3245 
G01 X10.9974 Y31.2753 
G01 X11.0013 Y31.2263 
G01 X10.9974 Y31.1930 
G01 X10.9974 Y21.4289 
G01 X14.3169 Y18.1094 
G01 X19.4497 Y18.1094 
G01 X19.6402 Y18.2999 
G01 X20.4918 Y18.2999 
G01 X21.0939 Y17.6978 
G01 X21.0939 Y16.8462 
G01 X20.4918 Y16.2441 
G01 X19.6402 Y16.2441 
G01 X19.4497 Y16.4346 
G01 X13.8875 Y16.4346 
G01 X13.7257 Y16.4668 
G01 X13.5733 Y16.5299 
G01 X13.4362 Y16.6215 
G01 X13.3195 Y16.7382 
G01 X9.5095  Y20.5482 
G01 X9.4179  Y20.6853 
G01 X9.3548  Y20.8377 
G01 X9.3226  Y20.9995 
G00 Z2.5400  
G00 X11.5415 Y21.5642 
G01 Z-0.1778 F254   
G01 X11.4499 Y21.7013 F508   
G01 X11.3868 Y21.8537 
G01 X11.3546 Y22.0155 
G01 X11.3546 Y34.4511 
G01 X10.4351 Y35.3706 
G01 X6.7367  Y35.3706 
G01 X6.7230  Y35.3568 
G01 X6.5809  Y35.2536 
G01 X6.4244  Y35.1739 
G01 X6.2573  Y35.1196 
G01 X6.0838  Y35.0921 
G01 X5.9082  Y35.0921 
G01 X5.7347  Y35.1196 
G01 X5.5676  Y35.1739 
G01 X5.4111  Y35.2536 
G01 X5.2690  Y35.3568 
G01 X5.1448  Y35.4810 
G01 X5.0416  Y35.6231 
G01 X4.9619  Y35.7796 
G01 X4.9076  Y35.9467 
G01 X4.8801  Y36.1202 
G01 X4.8801  Y36.2958 
G01 X4.9076  Y36.4693 
G01 X4.9619  Y36.6364 
G01 X5.0416  Y36.7929 
G01 X5.1448  Y36.9350 
G01 X5.2690  Y37.0592 
G01 X5.4111  Y37.1624 
G01 X5.5676  Y37.2421 
G01 X5.7347  Y37.2964 
G01 X5.9082  Y37.3239 
G01 X6.0838  Y37.3239 
G01 X6.2573  Y37.2964 
G01 X6.4244  Y37.2421 
G01 X6.5809  Y37.1624 
G01 X6.7230  Y37.0592 
G01 X6.7367  Y37.0454 
G01 X10.8645 Y37.0454 
G01 X11.0263 Y37.0132 
G01 X11.1787 Y36.9501 
G01 X11.3158 Y36.8584 
G01 X12.8424 Y35.3318 
G01 X12.9341 Y35.1947 
G01 X12.9972 Y35.0423 
G01 X13.0294 Y34.8805 
G01 X13.0294 Y22.4449 
G01 X14.8249 Y20.6494 
G01 X19.4497 Y20.6494 
G01 X19.6402 Y20.8399 
G01 X20.4918 Y20.8399 
G01 X21.0939 Y20.2378 
G01 X21.0939 Y19.3862 
G01 X20.4918 Y18.7841 
G01 X19.6402 Y18.7841 
G01 X19.4497 Y18.9746 
G01 X14.3955 Y18.9746 
G01 X14.2337 Y19.0068 
G01 X14.0813 Y19.0699 
G01 X13.9442 Y19.1615 
G01 X13.8275 Y19.2782 
G01 X11.5415 Y21.5642 
G00 Z2.5400  
G00 X13.5735 Y22.8342 
G01 Z-0.1778 F254   
G01 X13.4819 Y22.9713 F508   
G01 X13.4188 Y23.1237 
G01 X13.3866 Y23.2855 
G01 X13.3866 Y44.8651 
G01 X12.3811 Y45.8706 
G01 X6.7367  Y45.8706 
G01 X6.7230  Y45.8568 
G01 X6.5809  Y45.7536 
G01 X6.4244  Y45.6739 
G01 X6.2573  Y45.6196 
G01 X6.0838  Y45.5921 
G01 X5.9082  Y45.5921 
G01 X5.7347  Y45.6196 
G01 X5.5676  Y45.6739 
G01 X5.4111  Y45.7536 
G01 X5.2690  Y45.8568 
G01 X5.1448  Y45.9810 
G01 X5.0416  Y46.1231 
G01 X4.9619  Y46.2796 
G01 X4.9076  Y46.4467 
G01 X4.8801  Y46.6202 
G01 X4.8801  Y46.7958 
G01 X4.9076  Y46.9693 
G01 X4.9619  Y47.1364 
G01 X5.0416  Y47.2929 
G01 X5.1448  Y47.4350 
G01 X5.2690  Y47.5592 
G01 X5.4111  Y47.6624 
G01 X5.5676  Y47.7421 
G01 X5.7347  Y47.7964 
G01 X5.9082  Y47.8239 
G01 X6.0838  Y47.8239 
G01 X6.2573  Y47.7964 
G01 X6.4244  Y47.7421 
G01 X6.5809  Y47.6624 
G01 X6.7230  Y47.5592 
G01 X6.7367  Y47.5454 
G01 X12.8105 Y47.5454 
G01 X12.9723 Y47.5132 
G01 X13.1247 Y47.4501 
G01 X13.2618 Y47.3584 
G01 X14.7578 Y45.8625 
G01 X14.8744 Y45.7458 
G01 X14.9661 Y45.6087 
G01 X15.0292 Y45.4563 
G01 X15.0614 Y45.2945 
G01 X15.0614 Y23.7149 
G01 X15.5869 Y23.1894 
G01 X19.4497 Y23.1894 
G01 X19.6402 Y23.3799 
G01 X20.4918 Y23.3799 
G01 X21.0939 Y22.7778 
G01 X21.0939 Y21.9262 
G01 X20.4918 Y21.3241 
G01 X19.6402 Y21.3241 
G01 X19.4497 Y21.5146 
G01 X15.1575 Y21.5146 
G01 X14.9957 Y21.5468 
G01 X14.8433 Y21.6099 
G01 X14.7062 Y21.7015 
G01 X14.5895 Y21.8182 
G01 X13.5735 Y22.8342 
G00 Z2.5400  
G00 X15.8595 Y24.3582 
G01 Z-0.1778 F254   
G01 X15.7679 Y24.4953 F508   
G01 X15.7048 Y24.6477 
G01 X15.6726 Y24.8095 
G01 X15.6726 Y47.6591 
G01 X13.9611 Y49.3706 
G01 X6.7367  Y49.3706 
G01 X6.7230  Y49.3568 
G01 X6.5809  Y49.2536 
G01 X6.4244  Y49.1739 
G01 X6.2573  Y49.1196 
G01 X6.0838  Y49.0921 
G01 X5.9082  Y49.0921 
G01 X5.7347  Y49.1196 
G01 X5.5676  Y49.1739 
G01 X5.4111  Y49.2536 
G01 X5.2690  Y49.3568 
G01 X5.1448  Y49.4810 
G01 X5.0416  Y49.6231 
G01 X4.9619  Y49.7796 
G01 X4.9076  Y49.9467 
G01 X4.8801  Y50.1202 
G01 X4.8801  Y50.2958 
G01 X4.9076  Y50.4693 
G01 X4.9619  Y50.6364 
G01 X5.0416  Y50.7929 
G01 X5.1448  Y50.9350 
G01 X5.2690  Y51.0592 
G01 X5.4111  Y51.1624 
G01 X5.5676  Y51.2421 
G01 X5.7347  Y51.2964 
G01 X5.9082  Y51.3239 
G01 X6.0838  Y51.3239 
G01 X6.2573  Y51.2964 
G01 X6.4244  Y51.2421 
G01 X6.5809  Y51.1624 
G01 X6.7230  Y51.0592 
G01 X6.7367  Y51.0454 
G01 X14.3905 Y51.0454 
G01 X14.5523 Y51.0132 
G01 X14.7047 Y50.9501 
G01 X14.8418 Y50.8584 
G01 X17.0438 Y48.6564 
G01 X17.1605 Y48.5398 
G01 X17.2521 Y48.4027 
G01 X17.3152 Y48.2503 
G01 X17.3474 Y48.0885 
G01 X17.3474 Y25.7294 
G01 X19.4497 Y25.7294 
G01 X19.6402 Y25.9199 
G01 X20.4918 Y25.9199 
G01 X21.0939 Y25.3178 
G01 X21.0939 Y24.4662 
G01 X20.4918 Y23.8641 
G01 X19.6402 Y23.8641 
G01 X19.4497 Y24.0546 
G01 X16.4275 Y24.0546 
G01 X16.2657 Y24.0868 
G01 X16.1133 Y24.1499 
G01 X15.9762 Y24.2415 
G01 X15.8595 Y24.3582 
G00 Z2.5400  
G00 X19.0381 Y27.0062 
G01 Z-0.1778 F254   
G01 X19.0381 Y27.8578 F508   
G01 X19.6402 Y28.4599 
G01 X20.4918 Y28.4599 
G01 X21.0939 Y27.8578 
G01 X21.0939 Y27.0062 
G01 X20.4918 Y26.4041 
G01 X19.6402 Y26.4041 
G01 X19.0381 Y27.0062 
G00 Z2.5400  
G00 X19.0381 Y29.5462 
G01 Z-0.1778 F254   
G01 X19.0381 Y30.3978 F508   
G01 X19.6402 Y30.9999 
G01 X20.4918 Y30.9999 
G01 X21.0939 Y30.3978 
G01 X21.0939 Y29.5462 
G01 X20.4918 Y28.9441 
G01 X19.6402 Y28.9441 
G01 X19.0381 Y29.5462 
G00 Z2.5400  
G00 X21.5781 Y29.5462 
G01 Z-0.1778 F254   
G01 X21.5781 Y30.3978 F508   
G01 X22.1802 Y30.9999 
G01 X23.0318 Y30.9999 
G01 X23.6339 Y30.3978 
G01 X23.6339 Y29.5462 
G01 X23.0318 Y28.9441 
G01 X22.1802 Y28.9441 
G01 X21.5781 Y29.5462 
G00 Z2.5400  
G00 X22.1802 Y28.4599 
G01 Z-0.1778 F254   
G01 X23.0318 Y28.4599 F508   
G01 X23.6339 Y27.8578 
G01 X23.6339 Y27.0062 
G01 X23.0318 Y26.4041 
G01 X22.1802 Y26.4041 
G01 X21.5781 Y27.0062 
G01 X21.5781 Y27.8578 
G01 X22.1802 Y28.4599 
G00 Z2.5400  
G00 X22.1802 Y25.9199 
G01 Z-0.1778 F254   
G01 X23.0318 Y25.9199 F508   
G01 X23.2223 Y25.7294 
G01 X24.0551 Y25.7294 
G01 X24.0551 Y25.7520 
G01 X24.0732 Y25.8196 
G01 X24.1082 Y25.8803 
G01 X24.1577 Y25.9298 
G01 X24.2184 Y25.9648 
G01 X24.2860 Y25.9829 
G01 X26.0060 Y25.9829 
G01 X26.0736 Y25.9648 
G01 X26.1343 Y25.9298 
G01 X26.1838 Y25.8803 
G01 X26.2188 Y25.8196 
G01 X26.2369 Y25.7520 
G01 X26.2369 Y24.0320 
G01 X26.2188 Y23.9644 
G01 X26.1838 Y23.9037 
G01 X26.1343 Y23.8542 
G01 X26.0736 Y23.8192 
G01 X26.0060 Y23.8011 
G01 X24.2860 Y23.8011 
G01 X24.2184 Y23.8192 
G01 X24.1577 Y23.8542 
G01 X24.1082 Y23.9037 
G01 X24.0732 Y23.9644 
G01 X24.0551 Y24.0320 
G01 X24.0551 Y24.0546 
G01 X23.2223 Y24.0546 
G01 X23.0318 Y23.8641 
G01 X22.1802 Y23.8641 
G01 X21.5781 Y24.4662 
G01 X21.5781 Y25.3178 
G01 X22.1802 Y25.9199 
G00 Z2.5400  
G00 X22.1802 Y23.3799 
G01 Z-0.1778 F254   
G01 X23.0318 Y23.3799 F508   
G01 X23.2223 Y23.1894 
G01 X24.0551 Y23.1894 
G01 X24.0551 Y23.2120 
G01 X24.0732 Y23.2796 
G01 X24.1082 Y23.3403 
G01 X24.1577 Y23.3898 
G01 X24.2184 Y23.4248 
G01 X24.2860 Y23.4429 
G01 X26.0060 Y23.4429 
G01 X26.0736 Y23.4248 
G01 X26.1343 Y23.3898 
G01 X26.1838 Y23.3403 
G01 X26.2188 Y23.2796 
G01 X26.2369 Y23.2120 
G01 X26.2369 Y21.4920 
G01 X26.2188 Y21.4244 
G01 X26.1838 Y21.3637 
G01 X26.1343 Y21.3142 
G01 X26.0736 Y21.2792 
G01 X26.0060 Y21.2611 
G01 X24.2860 Y21.2611 
G01 X24.2184 Y21.2792 
G01 X24.1577 Y21.3142 
G01 X24.1082 Y21.3637 
G01 X24.0732 Y21.4244 
G01 X24.0551 Y21.4920 
G01 X24.0551 Y21.5146 
G01 X23.2223 Y21.5146 
G01 X23.0318 Y21.3241 
G01 X22.1802 Y21.3241 
G01 X21.5781 Y21.9262 
G01 X21.5781 Y22.7778 
G01 X22.1802 Y23.3799 
G00 Z2.5400  
G00 X22.1802 Y20.8399 
G01 Z-0.1778 F254   
G01 X23.0318 Y20.8399 F508   
G01 X23.2223 Y20.6494 
G01 X24.0551 Y20.6494 
G01 X24.0551 Y20.6720 
G01 X24.0732 Y20.7396 
G01 X24.1082 Y20.8003 
G01 X24.1577 Y20.8498 
G01 X24.2184 Y20.8848 
G01 X24.2860 Y20.9029 
G01 X26.0060 Y20.9029 
G01 X26.0736 Y20.8848 
G01 X26.1343 Y20.8498 
G01 X26.1838 Y20.8003 
G01 X26.2188 Y20.7396 
G01 X26.2369 Y20.6720 
G01 X26.2369 Y18.9520 
G01 X26.2188 Y18.8844 
G01 X26.1838 Y18.8237 
G01 X26.1343 Y18.7742 
G01 X26.0736 Y18.7392 
G01 X26.0060 Y18.7211 
G01 X24.2860 Y18.7211 
G01 X24.2184 Y18.7392 
G01 X24.1577 Y18.7742 
G01 X24.1082 Y18.8237 
G01 X24.0732 Y18.8844 
G01 X24.0551 Y18.9520 
G01 X24.0551 Y18.9746 
G01 X23.2223 Y18.9746 
G01 X23.0318 Y18.7841 
G01 X22.1802 Y18.7841 
G01 X21.5781 Y19.3862 
G01 X21.5781 Y20.2378 
G01 X22.1802 Y20.8399 
G00 Z2.5400  
G00 X22.1802 Y18.2999 
G01 Z-0.1778 F254   
G01 X23.0318 Y18.2999 F508   
G01 X23.2223 Y18.1094 
G01 X24.0551 Y18.1094 
G01 X24.0551 Y18.1320 
G01 X24.0732 Y18.1996 
G01 X24.1082 Y18.2603 
G01 X24.1577 Y18.3098 
G01 X24.2184 Y18.3448 
G01 X24.2860 Y18.3629 
G01 X26.0060 Y18.3629 
G01 X26.0736 Y18.3448 
G01 X26.1343 Y18.3098 
G01 X26.1838 Y18.2603 
G01 X26.2188 Y18.1996 
G01 X26.2369 Y18.1320 
G01 X26.2369 Y16.4120 
G01 X26.2188 Y16.3444 
G01 X26.1838 Y16.2837 
G01 X26.1343 Y16.2342 
G01 X26.0736 Y16.1992 
G01 X26.0060 Y16.1811 
G01 X24.2860 Y16.1811 
G01 X24.2184 Y16.1992 
G01 X24.1577 Y16.2342 
G01 X24.1082 Y16.2837 
G01 X24.0732 Y16.3444 
G01 X24.0551 Y16.4120 
G01 X24.0551 Y16.4346 
G01 X23.2223 Y16.4346 
G01 X23.0318 Y16.2441 
G01 X22.1802 Y16.2441 
G01 X21.5781 Y16.8462 
G01 X21.5781 Y17.6978 
G01 X22.1802 Y18.2999 
G00 Z2.5400  
G00 X22.1802 Y15.7599 
G01 Z-0.1778 F254   
G01 X23.0318 Y15.7599 F508   
G01 X23.6339 Y15.1578 
G01 X23.6339 Y14.3062 
G01 X23.0318 Y13.7041 
G01 X22.1802 Y13.7041 
G01 X21.5781 Y14.3062 
G01 X21.5781 Y15.1578 
G01 X22.1802 Y15.7599 
G00 Z2.5400  
G00 X21.0939 Y15.1578 
G01 Z-0.1778 F254   
G01 X21.0939 Y14.3062 F508   
G01 X20.4918 Y13.7041 
G01 X19.6402 Y13.7041 
G01 X19.4497 Y13.8946 
G01 X16.0949 Y13.8946 
G01 X15.0614 Y12.8611 
G01 X15.0614 Y3.3949  
G01 X16.0949 Y2.3614  
G01 X47.1511 Y2.3614  
G01 X47.9306 Y3.1409  
G01 X47.9306 Y14.4026 
G01 X38.1733 Y14.4026 
G01 X38.1643 Y14.4010 
G01 X38.0909 Y14.4026 
G01 X38.0175 Y14.4026 
G01 X38.0085 Y14.4044 
G01 X37.9994 Y14.4046 
G01 X37.9277 Y14.4205 
G01 X37.8557 Y14.4348 
G01 X37.8473 Y14.4383 
G01 X37.8383 Y14.4403 
G01 X37.7712 Y14.4698 
G01 X37.7033 Y14.4979 
G01 X37.6957 Y14.5030 
G01 X37.6874 Y14.5067 
G01 X37.6273 Y14.5487 
G01 X37.5662 Y14.5895 
G01 X37.5597 Y14.5960 
G01 X35.0872 Y16.3268 
G01 X35.0262 Y16.3675 
G01 X35.0197 Y16.3740 
G01 X35.0122 Y16.3793 
G01 X34.9615 Y16.4323 
G01 X34.9095 Y16.4842 
G01 X34.9045 Y16.4918 
G01 X34.8981 Y16.4984 
G01 X34.8587 Y16.5603 
G01 X34.8179 Y16.6213 
G01 X34.8144 Y16.6298 
G01 X34.8095 Y16.6375 
G01 X34.7828 Y16.7060 
G01 X34.7548 Y16.7737 
G01 X34.7530 Y16.7827 
G01 X34.7497 Y16.7912 
G01 X34.7369 Y16.8636 
G01 X34.7226 Y16.9355 
G01 X34.7226 Y16.9447 
G01 X34.7210 Y16.9537 
G01 X34.7226 Y17.0271 
G01 X34.7226 Y18.7769 
G01 X34.6070 Y18.8608 
G01 X34.4828 Y18.9850 
G01 X34.3796 Y19.1271 
G01 X34.2999 Y19.2836 
G01 X34.2456 Y19.4507 
G01 X34.2181 Y19.6242 
G01 X34.2181 Y19.7998 
G01 X34.2456 Y19.9733 
G01 X34.2999 Y20.1404 
G01 X34.3796 Y20.2969 
G01 X34.4828 Y20.4390 
G01 X34.6070 Y20.5632 
G01 X34.7491 Y20.6664 
G01 X34.9056 Y20.7461 
G01 X35.0727 Y20.8004 
G01 X35.2462 Y20.8279 
G01 X35.4218 Y20.8279 
G01 X35.5953 Y20.8004 
G01 X35.7624 Y20.7461 
G01 X35.9189 Y20.6664 
G01 X36.0610 Y20.5632 
G01 X36.1852 Y20.4390 
G01 X36.2884 Y20.2969 
G01 X36.3681 Y20.1404 
G01 X36.4224 Y19.9733 
G01 X36.4499 Y19.7998 
G01 X36.4499 Y19.6242 
G01 X36.4224 Y19.4507 
G01 X36.3974 Y19.3737 
G01 X36.3974 Y17.4540 
G01 X38.3640 Y16.0774 
G01 X48.8505 Y16.0774 
G01 X49.0123 Y16.0452 
G01 X49.1647 Y15.9821 
G01 X49.3018 Y15.8904 
G01 X49.4184 Y15.7738 
G01 X49.5101 Y15.6367 
G01 X49.5732 Y15.4843 
G01 X49.6054 Y15.3225 
G01 X49.6054 Y2.7115  
G01 X49.5732 Y2.5497  
G01 X49.5101 Y2.3973  
G01 X49.4184 Y2.2602  
G01 X49.3018 Y2.1435  
G01 X48.0318 Y0.8735  
G01 X47.8947 Y0.7819  
G01 X47.7423 Y0.7188  
G01 X47.5805 Y0.6866  
G01 X15.6655 Y0.6866  
G01 X15.5037 Y0.7188  
G01 X15.3513 Y0.7819  
G01 X15.2142 Y0.8735  
G01 X15.0975 Y0.9902  
G01 X13.5735 Y2.5142  
G01 X13.4819 Y2.6513  
G01 X13.4188 Y2.8037  
G01 X13.3866 Y2.9655  
G01 X13.3866 Y13.2905 
G01 X13.4188 Y13.4523 
G01 X13.4819 Y13.6047 
G01 X13.5735 Y13.7418 
G01 X13.6902 Y13.8584 
G01 X15.2142 Y15.3825 
G01 X15.3513 Y15.4741 
G01 X15.5037 Y15.5372 
G01 X15.6655 Y15.5694 
G01 X19.4497 Y15.5694 
G01 X19.6402 Y15.7599 
G01 X20.4918 Y15.7599 
G01 X21.0939 Y15.1578 
G00 Z2.5400  
G00 X21.0939 Y12.6178 
G01 Z-0.1778 F254   
G01 X21.0939 Y11.7662 F508   
G01 X20.4918 Y11.1641 
G01 X19.6402 Y11.1641 
G01 X19.4497 Y11.3546 
G01 X17.8554 Y11.3546 
G01 X17.8554 Y5.1554  
G01 X34.4686 Y5.1554  
G01 X34.4686 Y7.3206  
G01 X34.3796 Y7.4431  
G01 X34.2999 Y7.5996  
G01 X34.2456 Y7.7667  
G01 X34.2181 Y7.9402  
G01 X34.2181 Y8.1158  
G01 X34.2456 Y8.2893  
G01 X34.2999 Y8.4564  
G01 X34.3796 Y8.6129  
G01 X34.4828 Y8.7550  
G01 X34.6070 Y8.8792  
G01 X34.7491 Y8.9824  
G01 X34.9056 Y9.0621  
G01 X35.0727 Y9.1164  
G01 X35.2462 Y9.1439  
G01 X35.4218 Y9.1439  
G01 X35.5953 Y9.1164  
G01 X35.7624 Y9.0621  
G01 X35.9189 Y8.9824  
G01 X36.0610 Y8.8792  
G01 X36.1852 Y8.7550  
G01 X36.2884 Y8.6129  
G01 X36.3681 Y8.4564  
G01 X36.4224 Y8.2893  
G01 X36.4499 Y8.1158  
G01 X36.4499 Y7.9402  
G01 X36.4224 Y7.7667  
G01 X36.3681 Y7.5996  
G01 X36.2884 Y7.4431  
G01 X36.1852 Y7.3010  
G01 X36.1434 Y7.2593  
G01 X36.1434 Y4.2355  
G01 X36.1112 Y4.0737  
G01 X36.0481 Y3.9213  
G01 X35.9564 Y3.7842  
G01 X35.8398 Y3.6675  
G01 X35.7027 Y3.5759  
G01 X35.5503 Y3.5128  
G01 X35.3885 Y3.4806  
G01 X16.9355 Y3.4806  
G01 X16.7737 Y3.5128  
G01 X16.6213 Y3.5759  
G01 X16.4842 Y3.6675  
G01 X16.3675 Y3.7842  
G01 X16.2759 Y3.9213  
G01 X16.2128 Y4.0737  
G01 X16.1806 Y4.2355  
G01 X16.1806 Y12.2745 
G01 X16.2128 Y12.4363 
G01 X16.2759 Y12.5887 
G01 X16.3675 Y12.7258 
G01 X16.4842 Y12.8424 
G01 X16.6213 Y12.9341 
G01 X16.7737 Y12.9972 
G01 X16.9355 Y13.0294 
G01 X19.4497 Y13.0294 
G01 X19.6402 Y13.2199 
G01 X20.4918 Y13.2199 
G01 X21.0939 Y12.6178 
G00 Z2.5400  
G00 X21.5781 Y12.6178 
G01 Z-0.1778 F254   
G01 X22.1802 Y13.2199 F508   
G01 X23.0318 Y13.2199 
G01 X23.6339 Y12.6178 
G01 X23.6339 Y11.7662 
G01 X23.0318 Y11.1641 
G01 X22.1802 Y11.1641 
G01 X21.5781 Y11.7662 
G01 X21.5781 Y12.6178 
G00 Z2.5400  
G00 X22.1802 Y10.6799 
G01 Z-0.1778 F254   
G01 X23.0318 Y10.6799 F508   
G01 X23.6339 Y10.0778 
G01 X23.6339 Y9.2262  
G01 X23.0318 Y8.6241  
G01 X22.1802 Y8.6241  
G01 X21.5781 Y9.2262  
G01 X21.5781 Y10.0778 
G01 X22.1802 Y10.6799 
G00 Z2.5400  
G00 X21.0939 Y10.0778 
G01 Z-0.1778 F254   
G01 X21.0939 Y9.2262  F508   
G01 X20.4918 Y8.6241  
G01 X19.6402 Y8.6241  
G01 X19.0381 Y9.2262  
G01 X19.0381 Y10.0778 
G01 X19.6402 Y10.6799 
G01 X20.4918 Y10.6799 
G01 X21.0939 Y10.0778 
G00 Z2.5400  
G00 X27.4966 Y8.7687  
G01 Z-0.1778 F254   
G01 X27.4966 Y18.9713 F508   
G01 X27.4828 Y18.9850 
G01 X27.3796 Y19.1271 
G01 X27.2999 Y19.2836 
G01 X27.2456 Y19.4507 
G01 X27.2181 Y19.6242 
G01 X27.2181 Y19.7998 
G01 X27.2456 Y19.9733 
G01 X27.2999 Y20.1404 
G01 X27.3796 Y20.2969 
G01 X27.4828 Y20.4390 
G01 X27.4966 Y20.4527 
G01 X27.4966 Y21.5585 
G01 X27.5288 Y21.7203 
G01 X27.5919 Y21.8727 
G01 X27.6835 Y22.0098 
G01 X28.8135 Y23.1398 
G01 X28.9302 Y23.2565 
G01 X29.0673 Y23.3481 
G01 X29.2197 Y23.4112 
G01 X29.3815 Y23.4434 
G01 X38.0246 Y23.4434 
G01 X38.0246 Y25.0531 
G01 X35.3020 Y27.7757 
G01 X34.0464 Y27.7757 
G01 X33.8674 Y27.8113 
G01 X33.6988 Y27.8811 
G01 X33.5471 Y27.9825 
G01 X33.4181 Y28.1115 
G01 X33.3167 Y28.2632 
G01 X33.2469 Y28.4318 
G01 X33.2113 Y28.6108 
G01 X33.2113 Y28.7932 
G01 X33.2469 Y28.9722 
G01 X33.3167 Y29.1408 
G01 X33.4181 Y29.2925 
G01 X33.5471 Y29.4215 
G01 X33.6988 Y29.5229 
G01 X33.8674 Y29.5927 
G01 X34.0464 Y29.6283 
G01 X35.5496 Y29.6283 
G01 X35.7286 Y29.5927 
G01 X35.8972 Y29.5229 
G01 X36.0489 Y29.4215 
G01 X36.1779 Y29.2925 
G01 X36.2265 Y29.2198 
G01 X39.3958 Y26.0505 
G01 X39.5125 Y25.9338 
G01 X39.6041 Y25.7967 
G01 X39.6672 Y25.6443 
G01 X39.6994 Y25.4825 
G01 X39.6994 Y20.4194 
G01 X39.7884 Y20.2969 
G01 X39.8681 Y20.1404 
G01 X39.9224 Y19.9733 
G01 X39.9499 Y19.7998 
G01 X39.9499 Y19.6242 
G01 X39.9224 Y19.4507 
G01 X39.8681 Y19.2836 
G01 X39.7884 Y19.1271 
G01 X39.6852 Y18.9850 
G01 X39.5610 Y18.8608 
G01 X39.4189 Y18.7576 
G01 X39.2624 Y18.6779 
G01 X39.0953 Y18.6236 
G01 X38.9218 Y18.5961 
G01 X38.7462 Y18.5961 
G01 X38.5727 Y18.6236 
G01 X38.4056 Y18.6779 
G01 X38.2491 Y18.7576 
G01 X38.1070 Y18.8608 
G01 X37.9828 Y18.9850 
G01 X37.8796 Y19.1271 
G01 X37.7999 Y19.2836 
G01 X37.7456 Y19.4507 
G01 X37.7181 Y19.6242 
G01 X37.7181 Y19.7998 
G01 X37.7456 Y19.9733 
G01 X37.7999 Y20.1404 
G01 X37.8796 Y20.2969 
G01 X37.9828 Y20.4390 
G01 X38.0246 Y20.4807 
G01 X38.0246 Y21.7686 
G01 X29.8109 Y21.7686 
G01 X29.1714 Y21.1291 
G01 X29.1714 Y20.4527 
G01 X29.1852 Y20.4390 
G01 X29.2884 Y20.2969 
G01 X29.3681 Y20.1404 
G01 X29.4224 Y19.9733 
G01 X29.4499 Y19.7998 
G01 X29.4499 Y19.6242 
G01 X29.4224 Y19.4507 
G01 X29.3681 Y19.2836 
G01 X29.2884 Y19.1271 
G01 X29.1852 Y18.9850 
G01 X29.1714 Y18.9713 
G01 X29.1714 Y12.5757 
G01 X29.1842 Y12.5884 
G01 X29.3213 Y12.6801 
G01 X29.4737 Y12.7432 
G01 X29.6355 Y12.7754 
G01 X37.4205 Y12.7754 
G01 X37.5823 Y12.7432 
G01 X37.7347 Y12.6801 
G01 X37.8718 Y12.5884 
G01 X39.3958 Y11.0645 
G01 X39.5125 Y10.9478 
G01 X39.6041 Y10.8107 
G01 X39.6672 Y10.6583 
G01 X39.6994 Y10.4965 
G01 X39.6994 Y8.7354  
G01 X39.7884 Y8.6129  
G01 X39.8681 Y8.4564  
G01 X39.9224 Y8.2893  
G01 X39.9499 Y8.1158  
G01 X39.9499 Y7.9402  
G01 X39.9224 Y7.7667  
G01 X39.8681 Y7.5996  
G01 X39.7884 Y7.4431  
G01 X39.6852 Y7.3010  
G01 X39.5610 Y7.1768  
G01 X39.4189 Y7.0736  
G01 X39.2624 Y6.9939  
G01 X39.0953 Y6.9396  
G01 X38.9218 Y6.9121  
G01 X38.7462 Y6.9121  
G01 X38.5727 Y6.9396  
G01 X38.4056 Y6.9939  
G01 X38.2491 Y7.0736  
G01 X38.1070 Y7.1768  
G01 X37.9828 Y7.3010  
G01 X37.8796 Y7.4431  
G01 X37.7999 Y7.5996  
G01 X37.7456 Y7.7667  
G01 X37.7181 Y7.9402  
G01 X37.7181 Y8.1158  
G01 X37.7456 Y8.2893  
G01 X37.7999 Y8.4564  
G01 X37.8796 Y8.6129  
G01 X37.9828 Y8.7550  
G01 X38.0246 Y8.7967  
G01 X38.0246 Y10.0671 
G01 X36.9911 Y11.1006 
G01 X30.0649 Y11.1006 
G01 X29.1714 Y10.2071 
G01 X29.1714 Y8.7687  
G01 X29.1852 Y8.7550  
G01 X29.2884 Y8.6129  
G01 X29.3681 Y8.4564  
G01 X29.4224 Y8.2893  
G01 X29.4499 Y8.1158  
G01 X29.4499 Y7.9402  
G01 X29.4224 Y7.7667  
G01 X29.3681 Y7.5996  
G01 X29.2884 Y7.4431  
G01 X29.1852 Y7.3010  
G01 X29.0610 Y7.1768  
G01 X28.9189 Y7.0736  
G01 X28.7624 Y6.9939  
G01 X28.5953 Y6.9396  
G01 X28.4218 Y6.9121  
G01 X28.2462 Y6.9121  
G01 X28.0727 Y6.9396  
G01 X27.9056 Y6.9939  
G01 X27.7491 Y7.0736  
G01 X27.6070 Y7.1768  
G01 X27.4828 Y7.3010  
G01 X27.3796 Y7.4431  
G01 X27.2999 Y7.5996  
G01 X27.2456 Y7.7667  
G01 X27.2181 Y7.9402  
G01 X27.2181 Y8.1158  
G01 X27.2456 Y8.2893  
G01 X27.2999 Y8.4564  
G01 X27.3796 Y8.6129  
G01 X27.4828 Y8.7550  
G01 X27.4966 Y8.7687  
G00 Z2.5400  
G00 X30.9828 Y8.7550  
G01 Z-0.1778 F254   
G01 X31.1070 Y8.8792  F508   
G01 X31.2491 Y8.9824  
G01 X31.4056 Y9.0621  
G01 X31.5727 Y9.1164  
G01 X31.7462 Y9.1439  
G01 X31.9218 Y9.1439  
G01 X32.0953 Y9.1164  
G01 X32.2624 Y9.0621  
G01 X32.4189 Y8.9824  
G01 X32.5610 Y8.8792  
G01 X32.6852 Y8.7550  
G01 X32.7884 Y8.6129  
G01 X32.8681 Y8.4564  
G01 X32.9224 Y8.2893  
G01 X32.9499 Y8.1158  
G01 X32.9499 Y7.9402  
G01 X32.9224 Y7.7667  
G01 X32.8681 Y7.5996  
G01 X32.7884 Y7.4431  
G01 X32.6852 Y7.3010  
G01 X32.5610 Y7.1768  
G01 X32.4189 Y7.0736  
G01 X32.2624 Y6.9939  
G01 X32.0953 Y6.9396  
G01 X31.9218 Y6.9121  
G01 X31.7462 Y6.9121  
G01 X31.5727 Y6.9396  
G01 X31.4056 Y6.9939  
G01 X31.2491 Y7.0736  
G01 X31.1070 Y7.1768  
G01 X30.9828 Y7.3010  
G01 X30.8796 Y7.4431  
G01 X30.7999 Y7.5996  
G01 X30.7456 Y7.7667  
G01 X30.7181 Y7.9402  
G01 X30.7181 Y8.1158  
G01 X30.7456 Y8.2893  
G01 X30.7999 Y8.4564  
G01 X30.8796 Y8.6129  
G01 X30.9828 Y8.7550  
G00 Z2.5400  
G00 X30.9828 Y18.9850 
G01 Z-0.1778 F254   
G01 X30.8796 Y19.1271 F508   
G01 X30.7999 Y19.2836 
G01 X30.7456 Y19.4507 
G01 X30.7181 Y19.6242 
G01 X30.7181 Y19.7998 
G01 X30.7456 Y19.9733 
G01 X30.7999 Y20.1404 
G01 X30.8796 Y20.2969 
G01 X30.9828 Y20.4390 
G01 X31.1070 Y20.5632 
G01 X31.2491 Y20.6664 
G01 X31.4056 Y20.7461 
G01 X31.5727 Y20.8004 
G01 X31.7462 Y20.8279 
G01 X31.9218 Y20.8279 
G01 X32.0953 Y20.8004 
G01 X32.2624 Y20.7461 
G01 X32.4189 Y20.6664 
G01 X32.5610 Y20.5632 
G01 X32.6852 Y20.4390 
G01 X32.7884 Y20.2969 
G01 X32.8681 Y20.1404 
G01 X32.9224 Y19.9733 
G01 X32.9499 Y19.7998 
G01 X32.9499 Y19.6242 
G01 X32.9224 Y19.4507 
G01 X32.8681 Y19.2836 
G01 X32.7884 Y19.1271 
G01 X32.6852 Y18.9850 
G01 X32.5610 Y18.8608 
G01 X32.4189 Y18.7576 
G01 X32.2624 Y18.6779 
G01 X32.0953 Y18.6236 
G01 X31.9218 Y18.5961 
G01 X31.7462 Y18.5961 
G01 X31.5727 Y18.6236 
G01 X31.4056 Y18.6779 
G01 X31.2491 Y18.7576 
G01 X31.1070 Y18.8608 
G01 X30.9828 Y18.9850 
G00 Z2.5400  
G00 X29.1593 Y26.0739 
G01 Z-0.1778 F254   
G01 X28.2447 Y26.0739 F508   
G01 X27.5979 Y26.7207 
G01 X27.5979 Y27.6353 
G01 X27.8646 Y27.9020 
G01 X27.8646 Y28.7845 
G01 X27.8968 Y28.9463 
G01 X27.9599 Y29.0987 
G01 X28.0515 Y29.2358 
G01 X30.5915 Y31.7758 
G01 X30.7082 Y31.8925 
G01 X30.8453 Y31.9841 
G01 X30.9977 Y32.0472 
G01 X31.1595 Y32.0794 
G01 X33.7387 Y32.0794 
G01 X33.8674 Y32.1327 
G01 X34.0464 Y32.1683 
G01 X35.5496 Y32.1683 
G01 X35.7286 Y32.1327 
G01 X35.8573 Y32.0794 
G01 X40.8011 Y32.0794 
G01 X42.0215 Y33.2998 
G01 X42.1382 Y33.4164 
G01 X42.2753 Y33.5081 
G01 X42.4277 Y33.5712 
G01 X42.5895 Y33.6034 
G01 X44.0966 Y33.6034 
G01 X44.2191 Y33.6924 
G01 X44.3756 Y33.7721 
G01 X44.5427 Y33.8264 
G01 X44.7162 Y33.8539 
G01 X44.8918 Y33.8539 
G01 X45.0653 Y33.8264 
G01 X45.2324 Y33.7721 
G01 X45.3889 Y33.6924 
G01 X45.5310 Y33.5892 
G01 X45.6552 Y33.4650 
G01 X45.7584 Y33.3229 
G01 X45.8381 Y33.1664 
G01 X45.8924 Y32.9993 
G01 X45.9199 Y32.8258 
G01 X45.9199 Y32.6502 
G01 X45.8924 Y32.4767 
G01 X45.8381 Y32.3096 
G01 X45.7584 Y32.1531 
G01 X45.6552 Y32.0110 
G01 X45.6414 Y31.9973 
G01 X45.6414 Y29.9787 
G01 X45.6552 Y29.9650 
G01 X45.7584 Y29.8229 
G01 X45.8381 Y29.6664 
G01 X45.8924 Y29.4993 
G01 X45.9199 Y29.3258 
G01 X45.9199 Y29.1502 
G01 X45.8924 Y28.9767 
G01 X45.8381 Y28.8096 
G01 X45.7584 Y28.6531 
G01 X45.6552 Y28.5110 
G01 X45.5310 Y28.3868 
G01 X45.3889 Y28.2836 
G01 X45.2324 Y28.2039 
G01 X45.0653 Y28.1496 
G01 X44.8918 Y28.1221 
G01 X44.7162 Y28.1221 
G01 X44.5427 Y28.1496 
G01 X44.3756 Y28.2039 
G01 X44.2191 Y28.2836 
G01 X44.0770 Y28.3868 
G01 X43.9528 Y28.5110 
G01 X43.8496 Y28.6531 
G01 X43.7699 Y28.8096 
G01 X43.7156 Y28.9767 
G01 X43.6881 Y29.1502 
G01 X43.6881 Y29.3258 
G01 X43.7156 Y29.4993 
G01 X43.7699 Y29.6664 
G01 X43.8496 Y29.8229 
G01 X43.9528 Y29.9650 
G01 X43.9666 Y29.9787 
G01 X43.9666 Y31.9286 
G01 X43.0189 Y31.9286 
G01 X41.6818 Y30.5915 
G01 X41.5447 Y30.4999 
G01 X41.3923 Y30.4368 
G01 X41.2305 Y30.4046 
G01 X35.8573 Y30.4046 
G01 X35.7286 Y30.3513 
G01 X35.5496 Y30.3157 
G01 X34.0464 Y30.3157 
G01 X33.8674 Y30.3513 
G01 X33.7387 Y30.4046 
G01 X31.5889 Y30.4046 
G01 X29.5394 Y28.3551 
G01 X29.5394 Y27.9020 
G01 X29.8061 Y27.6353 
G01 X29.8061 Y26.7207 
G01 X29.1593 Y26.0739 
G00 Z2.5400  
G00 X29.1171 Y33.3494 
G01 Z-0.1778 F254   
G01 X30.0835 Y34.3158 F508   
G01 X30.2002 Y34.4325 
G01 X30.3373 Y34.5241 
G01 X30.4897 Y34.5872 
G01 X30.6515 Y34.6194 
G01 X33.4246 Y34.6194 
G01 X33.4246 Y42.8473 
G01 X33.4108 Y42.8610 
G01 X33.3076 Y43.0031 
G01 X33.2279 Y43.1596 
G01 X33.1736 Y43.3267 
G01 X33.1461 Y43.5002 
G01 X33.1461 Y43.6758 
G01 X33.1736 Y43.8493 
G01 X33.2279 Y44.0164 
G01 X33.3076 Y44.1729 
G01 X33.4108 Y44.3150 
G01 X33.4246 Y44.3287 
G01 X33.4246 Y54.0233 
G01 X33.4108 Y54.0370 
G01 X33.3076 Y54.1791 
G01 X33.2279 Y54.3356 
G01 X33.1736 Y54.5027 
G01 X33.1461 Y54.6762 
G01 X33.1461 Y54.8518 
G01 X33.1736 Y55.0253 
G01 X33.2279 Y55.1924 
G01 X33.3076 Y55.3489 
G01 X33.4108 Y55.4910 
G01 X33.4526 Y55.5327 
G01 X33.4526 Y58.3271 
G01 X32.9271 Y58.8526 
G01 X22.9529 Y58.8526 
G01 X21.1574 Y57.0571 
G01 X21.1574 Y55.4301 
G01 X21.2164 Y55.3489 
G01 X21.2961 Y55.1924 
G01 X21.3504 Y55.0253 
G01 X21.3779 Y54.8518 
G01 X21.3779 Y54.6762 
G01 X21.3504 Y54.5027 
G01 X21.2961 Y54.3356 
G01 X21.2164 Y54.1791 
G01 X21.1132 Y54.0370 
G01 X21.0994 Y54.0233 
G01 X21.0994 Y44.3287 
G01 X21.1132 Y44.3150 
G01 X21.2164 Y44.1729 
G01 X21.2961 Y44.0164 
G01 X21.3504 Y43.8493 
G01 X21.3779 Y43.6758 
G01 X21.3779 Y43.5002 
G01 X21.3504 Y43.3267 
G01 X21.2961 Y43.1596 
G01 X21.2164 Y43.0031 
G01 X21.1132 Y42.8610 
G01 X21.0994 Y42.8473 
G01 X21.0994 Y33.3494 
G01 X21.9897 Y33.3494 
G01 X22.1802 Y33.5399 
G01 X23.0318 Y33.5399 
G01 X23.2223 Y33.3494 
G01 X29.1171 Y33.3494 
G00 Z2.5400  
G00 X29.1593 Y35.2179 
G01 Z-0.1778 F254   
G01 X28.2447 Y35.2179 F508   
G01 X27.5979 Y35.8647 
G01 X27.5979 Y36.2418 
G01 X23.1115 Y40.7282 
G01 X23.0199 Y40.8653 
G01 X22.9568 Y41.0177 
G01 X22.9246 Y41.1795 
G01 X22.9246 Y42.8473 
G01 X22.9108 Y42.8610 
G01 X22.8076 Y43.0031 
G01 X22.7279 Y43.1596 
G01 X22.6736 Y43.3267 
G01 X22.6461 Y43.5002 
G01 X22.6461 Y43.6758 
G01 X22.6736 Y43.8493 
G01 X22.7279 Y44.0164 
G01 X22.8076 Y44.1729 
G01 X22.9108 Y44.3150 
G01 X22.9246 Y44.3287 
G01 X22.9246 Y54.0233 
G01 X22.9108 Y54.0370 
G01 X22.8076 Y54.1791 
G01 X22.7279 Y54.3356 
G01 X22.6736 Y54.5027 
G01 X22.6461 Y54.6762 
G01 X22.6461 Y54.8518 
G01 X22.6736 Y55.0253 
G01 X22.7279 Y55.1924 
G01 X22.8076 Y55.3489 
G01 X22.9108 Y55.4910 
G01 X23.0350 Y55.6152 
G01 X23.1771 Y55.7184 
G01 X23.3336 Y55.7981 
G01 X23.5007 Y55.8524 
G01 X23.6742 Y55.8799 
G01 X23.8498 Y55.8799 
G01 X24.0233 Y55.8524 
G01 X24.1904 Y55.7981 
G01 X24.3469 Y55.7184 
G01 X24.4890 Y55.6152 
G01 X24.6132 Y55.4910 
G01 X24.7164 Y55.3489 
G01 X24.7961 Y55.1924 
G01 X24.8504 Y55.0253 
G01 X24.8779 Y54.8518 
G01 X24.8779 Y54.6762 
G01 X24.8504 Y54.5027 
G01 X24.7961 Y54.3356 
G01 X24.7164 Y54.1791 
G01 X24.6132 Y54.0370 
G01 X24.5994 Y54.0233 
G01 X24.5994 Y44.3287 
G01 X24.6132 Y44.3150 
G01 X24.7164 Y44.1729 
G01 X24.7961 Y44.0164 
G01 X24.8504 Y43.8493 
G01 X24.8779 Y43.6758 
G01 X24.8779 Y43.5002 
G01 X24.8504 Y43.3267 
G01 X24.7961 Y43.1596 
G01 X24.7164 Y43.0031 
G01 X24.6132 Y42.8610 
G01 X24.5994 Y42.8473 
G01 X24.5994 Y41.6089 
G01 X28.7822 Y37.4261 
G01 X29.1593 Y37.4261 
G01 X29.8061 Y36.7793 
G01 X29.8061 Y35.8647 
G01 X29.1593 Y35.2179 
G00 Z2.5400  
G00 X29.9108 Y42.8610 
G01 Z-0.1778 F254   
G01 X29.8076 Y43.0031 F508   
G01 X29.7279 Y43.1596 
G01 X29.6736 Y43.3267 
G01 X29.6461 Y43.5002 
G01 X29.6461 Y43.6758 
G01 X29.6736 Y43.8493 
G01 X29.7279 Y44.0164 
G01 X29.8076 Y44.1729 
G01 X29.9108 Y44.3150 
G01 X29.9246 Y44.3287 
G01 X29.9246 Y54.0233 
G01 X29.9108 Y54.0370 
G01 X29.8076 Y54.1791 
G01 X29.7279 Y54.3356 
G01 X29.6736 Y54.5027 
G01 X29.6461 Y54.6762 
G01 X29.6461 Y54.8518 
G01 X29.6736 Y55.0253 
G01 X29.7279 Y55.1924 
G01 X29.8076 Y55.3489 
G01 X29.9108 Y55.4910 
G01 X30.0350 Y55.6152 
G01 X30.1771 Y55.7184 
G01 X30.3336 Y55.7981 
G01 X30.5007 Y55.8524 
G01 X30.6742 Y55.8799 
G01 X30.8498 Y55.8799 
G01 X31.0233 Y55.8524 
G01 X31.1904 Y55.7981 
G01 X31.3469 Y55.7184 
G01 X31.4890 Y55.6152 
G01 X31.6132 Y55.4910 
G01 X31.7164 Y55.3489 
G01 X31.7961 Y55.1924 
G01 X31.8504 Y55.0253 
G01 X31.8779 Y54.8518 
G01 X31.8779 Y54.6762 
G01 X31.8504 Y54.5027 
G01 X31.7961 Y54.3356 
G01 X31.7164 Y54.1791 
G01 X31.6132 Y54.0370 
G01 X31.5994 Y54.0233 
G01 X31.5994 Y44.3287 
G01 X31.6132 Y44.3150 
G01 X31.7164 Y44.1729 
G01 X31.7961 Y44.0164 
G01 X31.8504 Y43.8493 
G01 X31.8779 Y43.6758 
G01 X31.8779 Y43.5002 
G01 X31.8504 Y43.3267 
G01 X31.7961 Y43.1596 
G01 X31.7164 Y43.0031 
G01 X31.6132 Y42.8610 
G01 X31.4890 Y42.7368 
G01 X31.3469 Y42.6336 
G01 X31.1904 Y42.5539 
G01 X31.0233 Y42.4996 
G01 X30.8498 Y42.4721 
G01 X30.6742 Y42.4721 
G01 X30.5007 Y42.4996 
G01 X30.3336 Y42.5539 
G01 X30.1771 Y42.6336 
G01 X30.0350 Y42.7368 
G01 X29.9108 Y42.8610 
G00 Z2.5400  
G00 X28.1132 Y42.8610 
G01 Z-0.1778 F254   
G01 X27.9890 Y42.7368 F508   
G01 X27.8469 Y42.6336 
G01 X27.6904 Y42.5539 
G01 X27.5233 Y42.4996 
G01 X27.3498 Y42.4721 
G01 X27.1742 Y42.4721 
G01 X27.0007 Y42.4996 
G01 X26.8336 Y42.5539 
G01 X26.6771 Y42.6336 
G01 X26.5350 Y42.7368 
G01 X26.4108 Y42.8610 
G01 X26.3076 Y43.0031 
G01 X26.2279 Y43.1596 
G01 X26.1736 Y43.3267 
G01 X26.1461 Y43.5002 
G01 X26.1461 Y43.6758 
G01 X26.1736 Y43.8493 
G01 X26.2279 Y44.0164 
G01 X26.3076 Y44.1729 
G01 X26.4108 Y44.3150 
G01 X26.4246 Y44.3287 
G01 X26.4246 Y54.0233 
G01 X26.4108 Y54.0370 
G01 X26.3076 Y54.1791 
G01 X26.2279 Y54.3356 
G01 X26.1736 Y54.5027 
G01 X26.1461 Y54.6762 
G01 X26.1461 Y54.8518 
G01 X26.1736 Y55.0253 
G01 X26.2279 Y55.1924 
G01 X26.3076 Y55.3489 
G01 X26.4108 Y55.4910 
G01 X26.5350 Y55.6152 
G01 X26.6771 Y55.7184 
G01 X26.8336 Y55.7981 
G01 X27.0007 Y55.8524 
G01 X27.1742 Y55.8799 
G01 X27.3498 Y55.8799 
G01 X27.5233 Y55.8524 
G01 X27.6904 Y55.7981 
G01 X27.8469 Y55.7184 
G01 X27.9890 Y55.6152 
G01 X28.1132 Y55.4910 
G01 X28.2164 Y55.3489 
G01 X28.2961 Y55.1924 
G01 X28.3504 Y55.0253 
G01 X28.3779 Y54.8518 
G01 X28.3779 Y54.6762 
G01 X28.3504 Y54.5027 
G01 X28.2961 Y54.3356 
G01 X28.2164 Y54.1791 
G01 X28.1132 Y54.0370 
G01 X28.0994 Y54.0233 
G01 X28.0994 Y44.3287 
G01 X28.1132 Y44.3150 
G01 X28.2164 Y44.1729 
G01 X28.2961 Y44.0164 
G01 X28.3504 Y43.8493 
G01 X28.3779 Y43.6758 
G01 X28.3779 Y43.5002 
G01 X28.3504 Y43.3267 
G01 X28.2961 Y43.1596 
G01 X28.2164 Y43.0031 
G01 X28.1132 Y42.8610 
G00 Z2.5400  
G00 X36.9108 Y42.8610 
G01 Z-0.1778 F254   
G01 X36.8076 Y43.0031 F508   
G01 X36.7279 Y43.1596 
G01 X36.6736 Y43.3267 
G01 X36.6461 Y43.5002 
G01 X36.6461 Y43.6758 
G01 X36.6736 Y43.8493 
G01 X36.7279 Y44.0164 
G01 X36.8076 Y44.1729 
G01 X36.9108 Y44.3150 
G01 X36.9246 Y44.3287 
G01 X36.9246 Y54.0233 
G01 X36.9108 Y54.0370 
G01 X36.8076 Y54.1791 
G01 X36.7279 Y54.3356 
G01 X36.6736 Y54.5027 
G01 X36.6461 Y54.6762 
G01 X36.6461 Y54.8518 
G01 X36.6736 Y55.0253 
G01 X36.7279 Y55.1924 
G01 X36.8076 Y55.3489 
G01 X36.9108 Y55.4910 
G01 X37.0350 Y55.6152 
G01 X37.1771 Y55.7184 
G01 X37.3336 Y55.7981 
G01 X37.5007 Y55.8524 
G01 X37.6742 Y55.8799 
G01 X37.8498 Y55.8799 
G01 X38.0233 Y55.8524 
G01 X38.1904 Y55.7981 
G01 X38.3469 Y55.7184 
G01 X38.4890 Y55.6152 
G01 X38.6132 Y55.4910 
G01 X38.7164 Y55.3489 
G01 X38.7961 Y55.1924 
G01 X38.8504 Y55.0253 
G01 X38.8779 Y54.8518 
G01 X38.8779 Y54.6762 
G01 X38.8504 Y54.5027 
G01 X38.7961 Y54.3356 
G01 X38.7164 Y54.1791 
G01 X38.6132 Y54.0370 
G01 X38.5994 Y54.0233 
G01 X38.5994 Y44.3287 
G01 X38.6132 Y44.3150 
G01 X38.7164 Y44.1729 
G01 X38.7961 Y44.0164 
G01 X38.8504 Y43.8493 
G01 X38.8779 Y43.6758 
G01 X38.8779 Y43.5002 
G01 X38.8504 Y43.3267 
G01 X38.7961 Y43.1596 
G01 X38.7164 Y43.0031 
G01 X38.6132 Y42.8610 
G01 X38.4890 Y42.7368 
G01 X38.3469 Y42.6336 
G01 X38.1904 Y42.5539 
G01 X38.0233 Y42.4996 
G01 X37.8498 Y42.4721 
G01 X37.6742 Y42.4721 
G01 X37.5007 Y42.4996 
G01 X37.3336 Y42.5539 
G01 X37.1771 Y42.6336 
G01 X37.0350 Y42.7368 
G01 X36.9108 Y42.8610 
G00 Z2.5400  
G00 X40.4108 Y42.8610 
G01 Z-0.1778 F254   
G01 X40.3076 Y43.0031 F508   
G01 X40.2279 Y43.1596 
G01 X40.1736 Y43.3267 
G01 X40.1461 Y43.5002 
G01 X40.1461 Y43.6758 
G01 X40.1736 Y43.8493 
G01 X40.2279 Y44.0164 
G01 X40.3076 Y44.1729 
G01 X40.4108 Y44.3150 
G01 X40.4246 Y44.3287 
G01 X40.4246 Y54.0233 
G01 X40.4108 Y54.0370 
G01 X40.3076 Y54.1791 
G01 X40.2279 Y54.3356 
G01 X40.1736 Y54.5027 
G01 X40.1461 Y54.6762 
G01 X40.1461 Y54.8518 
G01 X40.1736 Y55.0253 
G01 X40.2279 Y55.1924 
G01 X40.3076 Y55.3489 
G01 X40.4108 Y55.4910 
G01 X40.5350 Y55.6152 
G01 X40.6771 Y55.7184 
G01 X40.8336 Y55.7981 
G01 X41.0007 Y55.8524 
G01 X41.1742 Y55.8799 
G01 X41.3498 Y55.8799 
G01 X41.5233 Y55.8524 
G01 X41.6904 Y55.7981 
G01 X41.8469 Y55.7184 
G01 X41.9890 Y55.6152 
G01 X42.1132 Y55.4910 
G01 X42.2164 Y55.3489 
G01 X42.2961 Y55.1924 
G01 X42.3504 Y55.0253 
G01 X42.3779 Y54.8518 
G01 X42.3779 Y54.6762 
G01 X42.3504 Y54.5027 
G01 X42.2961 Y54.3356 
G01 X42.2164 Y54.1791 
G01 X42.1132 Y54.0370 
G01 X42.0994 Y54.0233 
G01 X42.0994 Y44.3287 
G01 X42.1132 Y44.3150 
G01 X42.2164 Y44.1729 
G01 X42.2961 Y44.0164 
G01 X42.3504 Y43.8493 
G01 X42.3779 Y43.6758 
G01 X42.3779 Y43.5002 
G01 X42.3504 Y43.3267 
G01 X42.2961 Y43.1596 
G01 X42.2164 Y43.0031 
G01 X42.1132 Y42.8610 
G01 X41.9890 Y42.7368 
G01 X41.8469 Y42.6336 
G01 X41.6904 Y42.5539 
G01 X41.5233 Y42.4996 
G01 X41.3498 Y42.4721 
G01 X41.1742 Y42.4721 
G01 X41.0007 Y42.4996 
G01 X40.8336 Y42.5539 
G01 X40.6771 Y42.6336 
G01 X40.5350 Y42.7368 
G01 X40.4108 Y42.8610 
G00 Z2.5400  
G00 X43.9108 Y42.8610 
G01 Z-0.1778 F254   
G01 X43.8076 Y43.0031 F508   
G01 X43.7279 Y43.1596 
G01 X43.6736 Y43.3267 
G01 X43.6461 Y43.5002 
G01 X43.6461 Y43.6758 
G01 X43.6736 Y43.8493 
G01 X43.7279 Y44.0164 
G01 X43.8076 Y44.1729 
G01 X43.9108 Y44.3150 
G01 X43.9246 Y44.3287 
G01 X43.9246 Y54.0233 
G01 X43.9108 Y54.0370 
G01 X43.8076 Y54.1791 
G01 X43.7279 Y54.3356 
G01 X43.6736 Y54.5027 
G01 X43.6461 Y54.6762 
