(.../workspace/GcodePhorum/pcb-gcode.ulp)
(Copyright 2005 - 2012 by John Johnson)
(See readme.txt for licensing terms.)
(This file generated from the board:)
(.../InterfaceEagle/interfaceBoard.brd)
(Current profile is .../GcodePhorum/profiles/mach.pp  )
(This file generated 7/4/2015 12:07:26 AM)
(Settings from pcb-machine.h)
(spindle on time = 3.0000)
(  Tool Size)
(0.1778  )
(spindle speed = 10000.0000)
(tool change at 0.0000  0.0000  25.4000 )
(feed rate xy = F508   )
(feed rate z  = F254   )
(Z Axis Settings)
(  High     Up        Down     Drill)
(12.7000 	2.5400  	-0.1778 	-0.8128 )
(Settings from pcb-defaults.h)
(isolate min = 0.0500)
(isolate max = 0.5080)
(isolate step = 0.1270)
(Generated top outlines, top drill, bottom outlines, bottom drill, )
(Unit of measure: mm)
(Metric Mode)
G21
(Absolute Coordinates)
G90
S10000
G00 Z12.7000 
G00 X0.0000  Y0.0000  
M03
G04 P3.000000
G00 Z2.5400  
G00 X1.4089  Y-1.2976 
G01 Z-0.1778 F254   
G01 X1.4089  Y1.2976  F508   
G01 X1.3878  Y1.3487  
G01 X1.3487  Y1.3878  
G01 X1.2976  Y1.4089  
G01 X-1.2976 Y1.4089  
G01 X-1.3487 Y1.3878  
G01 X-1.3878 Y1.3487  
G01 X-1.4089 Y1.2976  
G01 X-1.4089 Y-1.2976 
G01 X-1.3878 Y-1.3487 
G01 X-1.3487 Y-1.3878 
G01 X-1.2976 Y-1.4089 
G01 X1.2976  Y-1.4089 
G01 X1.3487  Y-1.3878 
G01 X1.3878  Y-1.3487 
G01 X1.4089  Y-1.2976 
G00 Z2.5400  
G00 X5.4819  Y2.8676  
G01 Z-0.1778 F254   
G01 X5.6196  Y2.7299  F508   
G01 X5.7816  Y2.6216  
G01 X5.9615  Y2.5471  
G01 X6.1526  Y2.5091  
G01 X6.3474  Y2.5091  
G01 X6.5385  Y2.5471  
G01 X6.7184  Y2.6216  
G01 X6.8804  Y2.7299  
G01 X7.0181  Y2.8676  
G01 X7.1264  Y3.0296  
G01 X7.2009  Y3.2095  
G01 X7.2389  Y3.4006  
G01 X7.2389  Y3.5954  
G01 X7.2009  Y3.7864  
G01 X7.1264  Y3.9664  
G01 X7.0181  Y4.1284  
G01 X6.8804  Y4.2661  
G01 X6.7184  Y4.3743  
G01 X6.5385  Y4.4489  
G01 X6.3474  Y4.4869  
G01 X6.1526  Y4.4869  
G01 X5.9615  Y4.4489  
G01 X5.7816  Y4.3743  
G01 X5.6196  Y4.2661  
G01 X5.4819  Y4.1284  
G01 X5.3736  Y3.9664  
G01 X5.2991  Y3.7864  
G01 X5.2611  Y3.5954  
G01 X5.2611  Y3.4006  
G01 X5.2991  Y3.2095  
G01 X5.3736  Y3.0296  
G01 X5.4819  Y2.8676  
G00 Z2.5400  
G00 X5.4819  Y6.3676  
G01 Z-0.1778 F254   
G01 X5.6196  Y6.2299  F508   
G01 X5.7816  Y6.1216  
G01 X5.9615  Y6.0471  
G01 X6.1526  Y6.0091  
G01 X6.3474  Y6.0091  
G01 X6.5385  Y6.0471  
G01 X6.7184  Y6.1216  
G01 X6.8804  Y6.2299  
G01 X7.0181  Y6.3676  
G01 X7.1264  Y6.5296  
G01 X7.2009  Y6.7095  
G01 X7.2389  Y6.9006  
G01 X7.2389  Y7.0954  
G01 X7.2009  Y7.2865  
G01 X7.1264  Y7.4664  
G01 X7.0181  Y7.6284  
G01 X6.8804  Y7.7661  
G01 X6.7184  Y7.8743  
G01 X6.5385  Y7.9489  
G01 X6.3474  Y7.9869  
G01 X6.1526  Y7.9869  
G01 X5.9615  Y7.9489  
G01 X5.7816  Y7.8743  
G01 X5.6196  Y7.7661  
G01 X5.4819  Y7.6284  
G01 X5.3736  Y7.4664  
G01 X5.2991  Y7.2865  
G01 X5.2611  Y7.0954  
G01 X5.2611  Y6.9006  
G01 X5.2991  Y6.7095  
G01 X5.3736  Y6.5296  
G01 X5.4819  Y6.3676  
G00 Z2.5400  
G00 X5.4819  Y9.8676  
G01 Z-0.1778 F254   
G01 X5.6196  Y9.7299  F508   
G01 X5.7816  Y9.6216  
G01 X5.9615  Y9.5471  
G01 X6.1526  Y9.5091  
G01 X6.3474  Y9.5091  
G01 X6.5385  Y9.5471  
G01 X6.7184  Y9.6216  
G01 X6.8804  Y9.7299  
G01 X7.0181  Y9.8676  
G01 X7.1264  Y10.0296 
G01 X7.1649  Y10.1227 
G01 X19.5912 Y10.1227 
G01 X19.9468 Y9.7671  
G01 X20.6932 Y9.7671  
G01 X21.0488 Y10.1227 
G01 X22.1312 Y10.1227 
G01 X22.3147 Y9.9392  
G01 X22.3147 Y7.5482  
G01 X22.3519 Y7.4095  
G01 X22.4236 Y7.2852  
G01 X24.9637 Y4.7452  
G01 X25.0652 Y4.6437  
G01 X25.1895 Y4.5719  
G01 X25.3282 Y4.5347  
G01 X34.5721 Y4.5347  
G01 X34.7172 Y4.3896  
G01 X34.8415 Y4.3179  
G01 X34.9802 Y4.2807  
G01 X46.7217 Y4.2807  
G01 X46.7790 Y4.2777  
G01 X46.7932 Y4.2807  
G01 X46.8078 Y4.2807  
G01 X46.8633 Y4.2956  
G01 X46.9195 Y4.3075  
G01 X46.9324 Y4.3141  
G01 X46.9465 Y4.3179  
G01 X46.9962 Y4.3466  
G01 X47.0474 Y4.3727  
G01 X47.0582 Y4.3824  
G01 X47.0708 Y4.3896  
G01 X47.1114 Y4.4303  
G01 X49.5982 Y6.6684  
G01 X49.6108 Y6.6757  
G01 X49.6515 Y6.7163  
G01 X49.6941 Y6.7547  
G01 X49.7021 Y6.7669  
G01 X49.7123 Y6.7772  
G01 X49.7411 Y6.8269  
G01 X49.7724 Y6.8751  
G01 X49.7769 Y6.8889  
G01 X49.7841 Y6.9015  
G01 X49.7990 Y6.9570  
G01 X49.8168 Y7.0116  
G01 X49.8175 Y7.0262  
G01 X49.8213 Y7.0402  
G01 X49.8213 Y7.0977  
G01 X49.8243 Y7.1550  
G01 X49.8213 Y7.1692  
G01 X49.8213 Y23.9478 
G01 X49.7841 Y24.0865 
G01 X49.7123 Y24.2108 
G01 X49.6108 Y24.3123 
G01 X48.3408 Y25.5823 
G01 X48.2165 Y25.6541 
G01 X48.0778 Y25.6913 
G01 X44.6322 Y25.6913 
G01 X44.4935 Y25.6541 
G01 X44.3692 Y25.5823 
G01 X44.2677 Y25.4808 
G01 X42.2356 Y23.4488 
G01 X42.1639 Y23.3245 
G01 X42.1267 Y23.1858 
G01 X42.1267 Y21.6073 
G01 X42.1196 Y21.6044 
G01 X41.9576 Y21.4961 
G01 X41.8199 Y21.3584 
G01 X41.7116 Y21.1964 
G01 X41.6371 Y21.0164 
G01 X41.5991 Y20.8254 
G01 X41.5991 Y20.6306 
G01 X41.6371 Y20.4395 
G01 X41.7116 Y20.2596 
G01 X41.8199 Y20.0976 
G01 X41.9576 Y19.9599 
G01 X42.1196 Y19.8516 
G01 X42.1267 Y19.8487 
G01 X42.1267 Y18.1730 
G01 X41.8215 Y18.0713 
G01 X32.6333 Y18.0713 
G01 X32.6333 Y19.9030 
G01 X32.7184 Y19.9599 
G01 X32.8561 Y20.0976 
G01 X32.9644 Y20.2596 
G01 X33.0389 Y20.4395 
G01 X33.0769 Y20.6306 
G01 X33.0769 Y20.8254 
G01 X33.0389 Y21.0164 
G01 X32.9644 Y21.1964 
G01 X32.8561 Y21.3584 
G01 X32.7184 Y21.4961 
G01 X32.5564 Y21.6044 
G01 X32.3764 Y21.6789 
G01 X32.2953 Y21.6950 
G01 X32.2953 Y36.3938 
G01 X32.2581 Y36.5325 
G01 X32.1863 Y36.6568 
G01 X32.0848 Y36.7583 
G01 X31.0688 Y37.7743 
G01 X30.9445 Y37.8461 
G01 X30.8058 Y37.8833 
G01 X29.7925 Y37.8833 
G01 X29.3607 Y38.3151 
G01 X28.5513 Y38.3151 
G01 X27.9789 Y37.7427 
G01 X27.9789 Y36.9333 
G01 X28.5513 Y36.3609 
G01 X29.3607 Y36.3609 
G01 X29.7925 Y36.7927 
G01 X30.5081 Y36.7927 
G01 X31.2047 Y36.0961 
G01 X31.2047 Y21.1796 
G01 X31.1371 Y21.0164 
G01 X31.0991 Y20.8254 
G01 X31.0991 Y20.6306 
G01 X31.1371 Y20.4395 
G01 X31.2116 Y20.2596 
G01 X31.3199 Y20.0976 
G01 X31.4576 Y19.9599 
G01 X31.5427 Y19.9030 
G01 X31.5427 Y17.4601 
G01 X31.5391 Y17.4064 
G01 X31.5427 Y17.3885 
G01 X31.5427 Y17.3702 
G01 X31.5566 Y17.3183 
G01 X31.5670 Y17.2656 
G01 X31.5751 Y17.2492 
G01 X31.5799 Y17.2315 
G01 X31.6067 Y17.1850 
G01 X31.6305 Y17.1368 
G01 X31.6425 Y17.1230 
G01 X31.6517 Y17.1072 
G01 X31.6896 Y17.0692 
G01 X31.7250 Y17.0288 
G01 X31.7402 Y17.0186 
G01 X31.7532 Y17.0056 
G01 X31.7997 Y16.9788 
G01 X31.8444 Y16.9489 
G01 X31.8617 Y16.9430 
G01 X31.8775 Y16.9339 
G01 X31.9294 Y16.9200 
G01 X31.9803 Y16.9026 
G01 X31.9985 Y16.9014 
G01 X32.0162 Y16.8967 
G01 X32.0699 Y16.8967 
G01 X32.1236 Y16.8931 
G01 X32.1415 Y16.8967 
G01 X32.1598 Y16.8967 
G01 X32.2117 Y16.9106 
G01 X32.5655 Y16.9807 
G01 X41.8548 Y16.9807 
G01 X41.8710 Y16.9774 
G01 X41.9263 Y16.9807 
G01 X41.9818 Y16.9807 
G01 X41.9978 Y16.9850 
G01 X42.0143 Y16.9860 
G01 X42.0669 Y17.0035 
G01 X42.1205 Y17.0179 
G01 X42.1348 Y17.0261 
G01 X42.8289 Y17.2575 
G01 X42.8825 Y17.2719 
G01 X42.8968 Y17.2801 
G01 X42.9125 Y17.2854 
G01 X42.9588 Y17.3159 
G01 X43.0068 Y17.3437 
G01 X43.0185 Y17.3554 
G01 X43.0324 Y17.3645 
G01 X43.0691 Y17.4060 
G01 X43.1083 Y17.4452 
G01 X43.1166 Y17.4595 
G01 X43.1276 Y17.4719 
G01 X43.1524 Y17.5215 
G01 X43.1801 Y17.5695 
G01 X43.1844 Y17.5855 
G01 X43.1918 Y17.6003 
G01 X43.2030 Y17.6547 
G01 X43.2173 Y17.7082 
G01 X43.2173 Y17.7248 
G01 X43.2206 Y17.7410 
G01 X43.2173 Y17.7963 
G01 X43.2173 Y19.9591 
G01 X43.3561 Y20.0976 
G01 X43.4644 Y20.2596 
G01 X43.5389 Y20.4395 
G01 X43.5769 Y20.6306 
G01 X43.5769 Y20.8254 
G01 X43.5389 Y21.0164 
G01 X43.4644 Y21.1964 
G01 X43.3561 Y21.3584 
G01 X43.2184 Y21.4961 
G01 X43.2173 Y22.8881 
G01 X44.9299 Y24.6007 
G01 X47.7801 Y24.6007 
G01 X48.7307 Y23.6501 
G01 X48.7307 Y7.3549  
G01 X46.5267 Y5.3713  
G01 X42.9725 Y5.3713  
G01 X43.0068 Y5.4056  
G01 X43.1083 Y5.5072  
G01 X43.1801 Y5.6315  
G01 X43.2173 Y5.7702  
G01 X43.2173 Y8.2751  
G01 X43.3561 Y8.4136  
G01 X43.4644 Y8.5756  
G01 X43.5389 Y8.7555  
G01 X43.5769 Y8.9466  
G01 X43.5769 Y9.1414  
G01 X43.5389 Y9.3324  
G01 X43.4644 Y9.5124  
G01 X43.3561 Y9.6744  
G01 X43.2184 Y9.8121  
G01 X43.0564 Y9.9203  
G01 X42.8764 Y9.9949  
G01 X42.6854 Y10.0329 
G01 X42.4906 Y10.0329 
G01 X42.2995 Y9.9949  
G01 X42.1196 Y9.9203  
G01 X41.9576 Y9.8121  
G01 X41.8199 Y9.6744  
G01 X41.7116 Y9.5124  
G01 X41.6371 Y9.3324  
G01 X41.5991 Y9.1414  
G01 X41.5991 Y8.9466  
G01 X41.6371 Y8.7555  
G01 X41.7116 Y8.5756  
G01 X41.8199 Y8.4136  
G01 X41.9576 Y8.2759  
G01 X42.1196 Y8.1676  
G01 X42.1267 Y8.1647  
G01 X42.1267 Y6.0679  
G01 X41.4301 Y5.3713  
G01 X35.2779 Y5.3713  
G01 X35.1328 Y5.5163  
G01 X32.6333 Y8.0159  
G01 X32.6333 Y8.2190  
G01 X32.7184 Y8.2759  
G01 X32.8561 Y8.4136  
G01 X32.9644 Y8.5756  
G01 X33.0389 Y8.7555  
G01 X33.0769 Y8.9466  
G01 X33.0769 Y9.1414  
G01 X33.0389 Y9.3324  
G01 X32.9644 Y9.5124  
G01 X32.8561 Y9.6744  
G01 X32.7184 Y9.8121  
G01 X32.5564 Y9.9203  
G01 X32.3764 Y9.9949  
G01 X32.1854 Y10.0329 
G01 X31.9906 Y10.0329 
G01 X31.7995 Y9.9949  
G01 X31.6196 Y9.9203  
G01 X31.4576 Y9.8121  
G01 X31.3199 Y9.6744  
G01 X31.2116 Y9.5124  
G01 X31.1371 Y9.3324  
G01 X31.0991 Y9.1414  
G01 X31.0991 Y8.9466  
G01 X31.1371 Y8.7555  
G01 X31.2116 Y8.5756  
G01 X31.3199 Y8.4136  
G01 X31.4576 Y8.2759  
G01 X31.5427 Y8.2190  
G01 X31.5427 Y7.7182  
G01 X31.5799 Y7.5795  
G01 X31.6517 Y7.4552  
G01 X33.4815 Y5.6253  
G01 X25.6259 Y5.6253  
G01 X23.4053 Y7.8459  
G01 X23.4053 Y9.9392  
G01 X23.7609 Y10.2948 
G01 X23.7609 Y11.0412 
G01 X23.2332 Y11.5689 
G01 X22.4868 Y11.5689 
G01 X22.1312 Y11.2133 
G01 X21.0488 Y11.2133 
G01 X20.6932 Y11.5689 
G01 X19.9468 Y11.5689 
G01 X19.5912 Y11.2133 
G01 X6.9332  Y11.2133 
G01 X6.8804  Y11.2661 
G01 X6.7184  Y11.3743 
G01 X6.5385  Y11.4489 
G01 X6.3474  Y11.4869 
G01 X6.1526  Y11.4869 
G01 X5.9615  Y11.4489 
G01 X5.7816  Y11.3743 
G01 X5.6196  Y11.2661 
G01 X5.4819  Y11.1284 
G01 X5.4250  Y11.0433 
G01 X3.7204  Y11.0433 
G01 X2.3233  Y12.6499 
G01 X2.3233  Y24.3375 
G01 X2.6117  Y24.0492 
G01 X2.7132  Y23.9476 
G01 X2.8375  Y23.8759 
G01 X2.9762  Y23.8387 
G01 X5.5108  Y23.8387 
G01 X5.6196  Y23.7299 
G01 X5.7816  Y23.6216 
G01 X5.9615  Y23.5471 
G01 X6.1526  Y23.5091 
G01 X6.3474  Y23.5091 
G01 X6.5385  Y23.5471 
G01 X6.7184  Y23.6216 
G01 X6.8804  Y23.7299 
G01 X7.0181  Y23.8676 
G01 X7.1264  Y24.0296 
G01 X7.2009  Y24.2095 
G01 X7.2389  Y24.4006 
G01 X7.2389  Y24.5954 
G01 X7.2009  Y24.7864 
G01 X7.1264  Y24.9664 
G01 X7.0181  Y25.1284 
G01 X6.8804  Y25.2661 
G01 X6.7184  Y25.3743 
G01 X6.5385  Y25.4489 
G01 X6.3474  Y25.4869 
G01 X6.1526  Y25.4869 
G01 X5.9615  Y25.4489 
G01 X5.7816  Y25.3743 
G01 X5.6196  Y25.2661 
G01 X5.4819  Y25.1284 
G01 X5.3736  Y24.9664 
G01 X5.3583  Y24.9293 
G01 X3.2739  Y24.9293 
G01 X2.3233  Y25.8799 
G01 X2.3233  Y40.1601 
G01 X2.3419  Y40.1787 
G01 X5.4250  Y40.1787 
G01 X5.4819  Y40.0936 
G01 X5.6196  Y39.9559 
G01 X5.7816  Y39.8476 
G01 X5.9615  Y39.7731 
G01 X6.1526  Y39.7351 
G01 X6.3474  Y39.7351 
G01 X6.5385  Y39.7731 
G01 X6.7184  Y39.8476 
G01 X6.8804  Y39.9559 
G01 X7.0181  Y40.0936 
G01 X7.1264  Y40.2556 
G01 X7.2009  Y40.4355 
G01 X7.2389  Y40.6266 
G01 X7.2389  Y40.8214 
G01 X7.2009  Y41.0125 
G01 X7.1264  Y41.1924 
G01 X7.0181  Y41.3544 
G01 X6.8804  Y41.4921 
G01 X6.7184  Y41.6003 
G01 X6.5385  Y41.6749 
G01 X6.3474  Y41.7129 
G01 X6.1526  Y41.7129 
G01 X5.9615  Y41.6749 
G01 X5.7816  Y41.6003 
G01 X5.6196  Y41.4921 
G01 X5.4819  Y41.3544 
G01 X5.4250  Y41.2693 
G01 X2.3233  Y41.2693 
G01 X2.3233  Y52.8601 
G01 X3.6419  Y54.1787 
G01 X5.4250  Y54.1787 
G01 X5.4819  Y54.0936 
G01 X5.6196  Y53.9559 
G01 X5.7816  Y53.8476 
G01 X5.9615  Y53.7731 
G01 X6.1526  Y53.7351 
G01 X6.3474  Y53.7351 
G01 X6.5385  Y53.7731 
G01 X6.7184  Y53.8476 
G01 X6.8804  Y53.9559 
G01 X7.0181  Y54.0936 
G01 X7.1264  Y54.2556 
G01 X7.2009  Y54.4355 
G01 X7.2389  Y54.6266 
G01 X7.2389  Y54.8214 
G01 X7.2009  Y55.0125 
G01 X7.1264  Y55.1924 
G01 X7.0181  Y55.3544 
G01 X6.8804  Y55.4921 
G01 X6.7184  Y55.6003 
G01 X6.5385  Y55.6749 
G01 X6.3474  Y55.7129 
G01 X6.1526  Y55.7129 
G01 X5.9615  Y55.6749 
G01 X5.7816  Y55.6003 
G01 X5.6196  Y55.4921 
G01 X5.4819  Y55.3544 
G01 X5.4250  Y55.2693 
G01 X3.3442  Y55.2693 
G01 X3.2055  Y55.2321 
G01 X3.0812  Y55.1603 
G01 X1.4432  Y53.5223 
G01 X1.3417  Y53.4208 
G01 X1.2699  Y53.2965 
G01 X1.2327  Y53.1578 
G01 X1.2327  Y12.4650 
G01 X1.2290  Y12.4123 
G01 X1.2327  Y12.3934 
G01 X1.2327  Y12.3742 
G01 X1.2464  Y12.3232 
G01 X1.2565  Y12.2714 
G01 X1.2649  Y12.2541 
G01 X1.2699  Y12.2355 
G01 X1.2963  Y12.1898 
G01 X1.3194  Y12.1423 
G01 X1.3320  Y12.1278 
G01 X1.3417  Y12.1112 
G01 X1.3790  Y12.0739 
G01 X3.0260  Y10.1798 
G01 X3.0356  Y10.1632 
G01 X3.0730  Y10.1258 
G01 X3.1076  Y10.0860 
G01 X3.1236  Y10.0753 
G01 X3.1372  Y10.0617 
G01 X3.1829  Y10.0353 
G01 X3.2267  Y10.0057 
G01 X3.2449  Y9.9995  
G01 X3.2615  Y9.9899  
G01 X3.3125  Y9.9762  
G01 X3.3624  Y9.9590  
G01 X3.3816  Y9.9577  
G01 X3.4002  Y9.9527  
G01 X3.4530  Y9.9527  
G01 X3.5057  Y9.9490  
G01 X3.5246  Y9.9527  
G01 X5.4250  Y9.9527  
G01 X5.4819  Y9.8676  
G00 Z2.5400  
G00 X5.4819  Y13.3676 
G01 Z-0.1778 F254   
G01 X5.6196  Y13.2299 F508   
G01 X5.7816  Y13.1216 
G01 X5.9615  Y13.0471 
G01 X6.1526  Y13.0091 
G01 X6.3474  Y13.0091 
G01 X6.5385  Y13.0471 
G01 X6.7184  Y13.1216 
G01 X6.8804  Y13.2299 
G01 X7.0181  Y13.3676 
G01 X7.1264  Y13.5296 
G01 X7.2009  Y13.7095 
G01 X7.2389  Y13.9006 
G01 X7.2389  Y14.0954 
G01 X7.2009  Y14.2865 
G01 X7.1264  Y14.4664 
G01 X7.0181  Y14.6284 
G01 X6.8804  Y14.7661 
G01 X6.7184  Y14.8743 
G01 X6.5385  Y14.9489 
G01 X6.3474  Y14.9869 
G01 X6.1526  Y14.9869 
G01 X5.9615  Y14.9489 
G01 X5.7816  Y14.8743 
G01 X5.6196  Y14.7661 
G01 X5.4819  Y14.6284 
G01 X5.3736  Y14.4664 
G01 X5.2991  Y14.2865 
G01 X5.2611  Y14.0954 
G01 X5.2611  Y13.9006 
G01 X5.2991  Y13.7095 
G01 X5.3736  Y13.5296 
G01 X5.4819  Y13.3676 
G00 Z2.5400  
G00 X5.4819  Y16.8676 
G01 Z-0.1778 F254   
G01 X5.6196  Y16.7299 F508   
G01 X5.7816  Y16.6216 
G01 X5.9615  Y16.5471 
G01 X6.1526  Y16.5091 
G01 X6.3474  Y16.5091 
G01 X6.5385  Y16.5471 
G01 X6.7184  Y16.6216 
G01 X6.8804  Y16.7299 
G01 X7.0181  Y16.8676 
G01 X7.1264  Y17.0296 
G01 X7.2009  Y17.2095 
G01 X7.2389  Y17.4006 
G01 X7.2389  Y17.5954 
G01 X7.2009  Y17.7864 
G01 X7.1264  Y17.9664 
G01 X7.0181  Y18.1284 
G01 X6.8804  Y18.2661 
G01 X6.7184  Y18.3743 
G01 X6.5385  Y18.4489 
G01 X6.3474  Y18.4869 
G01 X6.1526  Y18.4869 
G01 X5.9615  Y18.4489 
G01 X5.7816  Y18.3743 
G01 X5.6196  Y18.2661 
G01 X5.4819  Y18.1284 
G01 X5.3736  Y17.9664 
G01 X5.2991  Y17.7864 
G01 X5.2611  Y17.5954 
G01 X5.2611  Y17.4006 
G01 X5.2991  Y17.2095 
G01 X5.3736  Y17.0296 
G01 X5.4819  Y16.8676 
G00 Z2.5400  
G00 X5.4819  Y20.3676 
G01 Z-0.1778 F254   
G01 X5.6196  Y20.2299 F508   
G01 X5.7816  Y20.1216 
G01 X5.9615  Y20.0471 
G01 X6.1526  Y20.0091 
G01 X6.3474  Y20.0091 
G01 X6.5385  Y20.0471 
G01 X6.7184  Y20.1216 
G01 X6.8804  Y20.2299 
G01 X7.0181  Y20.3676 
G01 X7.1264  Y20.5296 
G01 X7.2009  Y20.7095 
G01 X7.2389  Y20.9006 
G01 X7.2389  Y21.0954 
G01 X7.2009  Y21.2864 
G01 X7.1264  Y21.4664 
G01 X7.0181  Y21.6284 
G01 X6.8804  Y21.7661 
G01 X6.7184  Y21.8743 
G01 X6.5385  Y21.9489 
G01 X6.3474  Y21.9869 
G01 X6.1526  Y21.9869 
G01 X5.9615  Y21.9489 
G01 X5.7816  Y21.8743 
G01 X5.6196  Y21.7661 
G01 X5.4819  Y21.6284 
G01 X5.3736  Y21.4664 
G01 X5.2991  Y21.2864 
G01 X5.2611  Y21.0954 
G01 X5.2611  Y20.9006 
G01 X5.2991  Y20.7095 
G01 X5.3736  Y20.5296 
G01 X5.4819  Y20.3676 
G00 Z2.5400  
G00 X5.4819  Y27.3676 
G01 Z-0.1778 F254   
G01 X5.6196  Y27.2299 F508   
G01 X5.7816  Y27.1216 
G01 X5.9615  Y27.0471 
G01 X6.1526  Y27.0091 
G01 X6.3474  Y27.0091 
G01 X6.5385  Y27.0471 
G01 X6.7184  Y27.1216 
G01 X6.8804  Y27.2299 
G01 X7.0181  Y27.3676 
G01 X7.1264  Y27.5296 
G01 X7.2009  Y27.7095 
G01 X7.2389  Y27.9006 
G01 X7.2389  Y28.0954 
G01 X7.2009  Y28.2864 
G01 X7.1264  Y28.4664 
G01 X7.0181  Y28.6284 
G01 X6.8804  Y28.7661 
G01 X6.7184  Y28.8743 
G01 X6.5385  Y28.9489 
G01 X6.3474  Y28.9869 
G01 X6.1526  Y28.9869 
G01 X5.9615  Y28.9489 
G01 X5.7816  Y28.8743 
G01 X5.6196  Y28.7661 
G01 X5.4819  Y28.6284 
G01 X5.3736  Y28.4664 
G01 X5.2991  Y28.2864 
G01 X5.2611  Y28.0954 
G01 X5.2611  Y27.9006 
G01 X5.2991  Y27.7095 
G01 X5.3736  Y27.5296 
G01 X5.4819  Y27.3676 
G00 Z2.5400  
G00 X5.4819  Y33.0936 
G01 Z-0.1778 F254   
G01 X5.6196  Y32.9559 F508   
G01 X5.7816  Y32.8476 
G01 X5.9615  Y32.7731 
G01 X6.1526  Y32.7351 
G01 X6.3474  Y32.7351 
G01 X6.5385  Y32.7731 
G01 X6.7184  Y32.8476 
G01 X6.8804  Y32.9559 
G01 X7.0181  Y33.0936 
G01 X7.1264  Y33.2556 
G01 X7.2009  Y33.4355 
G01 X7.2389  Y33.6266 
G01 X7.2389  Y33.8214 
G01 X7.2009  Y34.0125 
G01 X7.1264  Y34.1924 
G01 X7.0181  Y34.3544 
G01 X6.8804  Y34.4921 
G01 X6.7184  Y34.6003 
G01 X6.5385  Y34.6749 
G01 X6.3474  Y34.7129 
G01 X6.1526  Y34.7129 
G01 X5.9615  Y34.6749 
G01 X5.7816  Y34.6003 
G01 X5.6196  Y34.4921 
G01 X5.4819  Y34.3544 
G01 X5.3736  Y34.1924 
G01 X5.2991  Y34.0125 
G01 X5.2611  Y33.8214 
G01 X5.2611  Y33.6266 
G01 X5.2991  Y33.4355 
G01 X5.3736  Y33.2556 
G01 X5.4819  Y33.0936 
G00 Z2.5400  
G00 X5.4819  Y36.5936 
G01 Z-0.1778 F254   
G01 X5.6196  Y36.4559 F508   
G01 X5.7816  Y36.3476 
G01 X5.9615  Y36.2731 
G01 X6.1526  Y36.2351 
G01 X6.3474  Y36.2351 
G01 X6.5385  Y36.2731 
G01 X6.7184  Y36.3476 
G01 X6.8804  Y36.4559 
G01 X7.0181  Y36.5936 
G01 X7.1264  Y36.7556 
G01 X7.2009  Y36.9355 
G01 X7.2389  Y37.1266 
G01 X7.2389  Y37.3214 
G01 X7.2009  Y37.5125 
G01 X7.1264  Y37.6924 
G01 X7.0181  Y37.8544 
G01 X6.8804  Y37.9921 
G01 X6.7184  Y38.1003 
G01 X6.5385  Y38.1749 
G01 X6.3474  Y38.2129 
G01 X6.1526  Y38.2129 
G01 X5.9615  Y38.1749 
G01 X5.7816  Y38.1003 
G01 X5.6196  Y37.9921 
G01 X5.4819  Y37.8544 
G01 X5.3736  Y37.6924 
G01 X5.2991  Y37.5125 
G01 X5.2611  Y37.3214 
G01 X5.2611  Y37.1266 
G01 X5.2991  Y36.9355 
G01 X5.3736  Y36.7556 
G01 X5.4819  Y36.5936 
G00 Z2.5400  
G00 X5.4819  Y43.5936 
G01 Z-0.1778 F254   
G01 X5.6196  Y43.4559 F508   
G01 X5.7816  Y43.3476 
G01 X5.9615  Y43.2731 
G01 X6.1526  Y43.2351 
G01 X6.3474  Y43.2351 
G01 X6.5385  Y43.2731 
G01 X6.7184  Y43.3476 
G01 X6.8804  Y43.4559 
G01 X7.0181  Y43.5936 
G01 X7.0750  Y43.6787 
G01 X20.1658 Y43.6787 
G01 X20.2275 Y43.6531 
G01 X20.4186 Y43.6151 
G01 X20.6134 Y43.6151 
G01 X20.8044 Y43.6531 
G01 X20.9844 Y43.7276 
G01 X21.1464 Y43.8359 
G01 X21.2841 Y43.9736 
G01 X21.3924 Y44.1356 
G01 X21.4669 Y44.3155 
G01 X21.5049 Y44.5066 
G01 X21.5049 Y44.7014 
G01 X21.4669 Y44.8924 
G01 X21.3924 Y45.0724 
G01 X21.2841 Y45.2344 
G01 X21.1464 Y45.3721 
G01 X20.9844 Y45.4804 
G01 X20.8044 Y45.5549 
G01 X20.6134 Y45.5929 
G01 X20.4186 Y45.5929 
G01 X20.2275 Y45.5549 
G01 X20.0476 Y45.4804 
G01 X19.8856 Y45.3721 
G01 X19.7479 Y45.2344 
G01 X19.6396 Y45.0724 
G01 X19.5651 Y44.8924 
G01 X19.5406 Y44.7693 
G01 X7.0750  Y44.7693 
G01 X7.0181  Y44.8544 
G01 X6.8804  Y44.9921 
G01 X6.7184  Y45.1003 
G01 X6.5385  Y45.1749 
G01 X6.3474  Y45.2129 
G01 X6.1526  Y45.2129 
G01 X5.9615  Y45.1749 
G01 X5.7816  Y45.1003 
G01 X5.6196  Y44.9921 
G01 X5.4819  Y44.8544 
G01 X5.3736  Y44.6924 
G01 X5.2991  Y44.5125 
G01 X5.2611  Y44.3214 
G01 X5.2611  Y44.1266 
G01 X5.2991  Y43.9355 
G01 X5.3736  Y43.7556 
G01 X5.4819  Y43.5936 
G00 Z2.5400  
G00 X5.4819  Y47.0936 
G01 Z-0.1778 F254   
G01 X5.6196  Y46.9559 F508   
G01 X5.7816  Y46.8476 
G01 X5.9615  Y46.7731 
G01 X6.1526  Y46.7351 
G01 X6.3474  Y46.7351 
G01 X6.5385  Y46.7731 
G01 X6.7184  Y46.8476 
G01 X6.8804  Y46.9559 
G01 X7.0181  Y47.0936 
G01 X7.1264  Y47.2556 
G01 X7.2009  Y47.4355 
G01 X7.2389  Y47.6266 
G01 X7.2389  Y47.8214 
G01 X7.2009  Y48.0125 
G01 X7.1264  Y48.1924 
G01 X7.0181  Y48.3544 
G01 X6.8804  Y48.4921 
G01 X6.7184  Y48.6003 
G01 X6.5385  Y48.6749 
G01 X6.3474  Y48.7129 
G01 X6.1526  Y48.7129 
G01 X5.9615  Y48.6749 
G01 X5.7816  Y48.6003 
G01 X5.6196  Y48.4921 
G01 X5.4819  Y48.3544 
G01 X5.3736  Y48.1924 
G01 X5.2991  Y48.0125 
G01 X5.2611  Y47.8214 
G01 X5.2611  Y47.6266 
G01 X5.2991  Y47.4355 
G01 X5.3736  Y47.2556 
G01 X5.4819  Y47.0936 
G00 Z2.5400  
G00 X5.4819  Y50.5936 
G01 Z-0.1778 F254   
G01 X5.6196  Y50.4559 F508   
G01 X5.7816  Y50.3476 
G01 X5.9615  Y50.2731 
G01 X6.1526  Y50.2351 
G01 X6.3474  Y50.2351 
G01 X6.5385  Y50.2731 
G01 X6.7184  Y50.3476 
G01 X6.8804  Y50.4559 
G01 X7.0181  Y50.5936 
G01 X7.1264  Y50.7556 
G01 X7.2009  Y50.9355 
G01 X7.2389  Y51.1266 
G01 X7.2389  Y51.3214 
G01 X7.2009  Y51.5125 
G01 X7.1264  Y51.6924 
G01 X7.0181  Y51.8544 
G01 X6.8804  Y51.9921 
G01 X6.7184  Y52.1003 
G01 X6.5385  Y52.1749 
G01 X6.3474  Y52.2129 
G01 X6.1526  Y52.2129 
G01 X5.9615  Y52.1749 
G01 X5.7816  Y52.1003 
G01 X5.6196  Y51.9921 
G01 X5.4819  Y51.8544 
G01 X5.3736  Y51.6924 
G01 X5.2991  Y51.5125 
G01 X5.2611  Y51.3214 
G01 X5.2611  Y51.1266 
G01 X5.2991  Y50.9355 
G01 X5.3736  Y50.7556 
G01 X5.4819  Y50.5936 
G00 Z2.5400  
G00 X5.4819  Y57.5936 
G01 Z-0.1778 F254   
G01 X5.6196  Y57.4559 F508   
G01 X5.7816  Y57.3476 
G01 X5.9615  Y57.2731 
G01 X6.1526  Y57.2351 
G01 X6.3474  Y57.2351 
G01 X6.5385  Y57.2731 
G01 X6.7184  Y57.3476 
G01 X6.8804  Y57.4559 
G01 X7.0181  Y57.5936 
G01 X7.1264  Y57.7556 
G01 X7.2009  Y57.9355 
G01 X7.2389  Y58.1266 
G01 X7.2389  Y58.3214 
G01 X7.2009  Y58.5125 
G01 X7.1264  Y58.6924 
G01 X7.0181  Y58.8544 
G01 X6.8804  Y58.9921 
G01 X6.7184  Y59.1003 
G01 X6.5385  Y59.1749 
G01 X6.3474  Y59.2129 
G01 X6.1526  Y59.2129 
G01 X5.9615  Y59.1749 
G01 X5.7816  Y59.1003 
G01 X5.6196  Y58.9921 
G01 X5.4819  Y58.8544 
G01 X5.3736  Y58.6924 
G01 X5.2991  Y58.5125 
G01 X5.2611  Y58.3214 
G01 X5.2611  Y58.1266 
G01 X5.2991  Y57.9355 
G01 X5.3736  Y57.7556 
G01 X5.4819  Y57.5936 
G00 Z2.5400  
G00 X19.8856 Y56.5481 
G01 Z-0.1778 F254   
G01 X19.7479 Y56.4104 F508   
G01 X19.6396 Y56.2484 
G01 X19.5651 Y56.0684 
G01 X19.5271 Y55.8774 
G01 X19.5271 Y55.6826 
G01 X19.5651 Y55.4915 
G01 X19.6396 Y55.3116 
G01 X19.7479 Y55.1496 
G01 X19.8856 Y55.0119 
G01 X20.0476 Y54.9036 
G01 X20.2275 Y54.8291 
G01 X20.4186 Y54.7911 
G01 X20.6134 Y54.7911 
G01 X20.8044 Y54.8291 
G01 X20.9844 Y54.9036 
G01 X21.1464 Y55.0119 
G01 X21.2841 Y55.1496 
G01 X21.3924 Y55.3116 
G01 X21.4669 Y55.4915 
G01 X21.5049 Y55.6826 
G01 X21.5049 Y55.8774 
G01 X21.4669 Y56.0684 
G01 X21.3924 Y56.2484 
G01 X21.2841 Y56.4104 
G01 X21.1464 Y56.5481 
G01 X20.9844 Y56.6564 
G01 X20.8044 Y56.7309 
G01 X20.6134 Y56.7689 
G01 X20.4186 Y56.7689 
G01 X20.2275 Y56.7309 
G01 X20.0476 Y56.6564 
G01 X19.8856 Y56.5481 
G00 Z2.5400  
G00 X23.3856 Y56.5481 
G01 Z-0.1778 F254   
G01 X23.2479 Y56.4104 F508   
G01 X23.1396 Y56.2484 
G01 X23.0651 Y56.0684 
G01 X23.0271 Y55.8774 
G01 X23.0271 Y55.6826 
G01 X23.0651 Y55.4915 
G01 X23.1396 Y55.3116 
G01 X23.2479 Y55.1496 
G01 X23.3856 Y55.0119 
G01 X23.5476 Y54.9036 
G01 X23.7275 Y54.8291 
G01 X23.9186 Y54.7911 
G01 X24.1134 Y54.7911 
G01 X24.3044 Y54.8291 
G01 X24.4844 Y54.9036 
G01 X24.6464 Y55.0119 
G01 X24.7841 Y55.1496 
G01 X24.8924 Y55.3116 
G01 X24.9669 Y55.4915 
G01 X25.0049 Y55.6826 
G01 X25.0049 Y55.8774 
G01 X24.9669 Y56.0684 
G01 X24.8924 Y56.2484 
G01 X24.7841 Y56.4104 
G01 X24.6464 Y56.5481 
G01 X24.5613 Y56.6050 
G01 X24.5613 Y58.8421 
G01 X25.8799 Y60.1607 
G01 X36.6041 Y60.1607 
G01 X37.5547 Y59.2101 
G01 X37.5547 Y56.6593 
G01 X37.5476 Y56.6564 
G01 X37.3856 Y56.5481 
G01 X37.2479 Y56.4104 
G01 X37.1396 Y56.2484 
G01 X37.0651 Y56.0684 
G01 X37.0271 Y55.8774 
G01 X37.0271 Y55.6826 
G01 X37.0651 Y55.4915 
G01 X37.1396 Y55.3116 
G01 X37.2479 Y55.1496 
G01 X37.3856 Y55.0119 
G01 X37.5476 Y54.9036 
G01 X37.7275 Y54.8291 
G01 X37.9186 Y54.7911 
G01 X38.1134 Y54.7911 
G01 X38.3045 Y54.8291 
G01 X38.4844 Y54.9036 
G01 X38.6464 Y55.0119 
G01 X38.7841 Y55.1496 
G01 X38.8924 Y55.3116 
G01 X38.9669 Y55.4915 
G01 X39.0049 Y55.6826 
G01 X39.0049 Y55.8774 
G01 X38.9669 Y56.0684 
G01 X38.8924 Y56.2484 
G01 X38.7841 Y56.4104 
G01 X38.6464 Y56.5481 
G01 X38.6453 Y59.5078 
G01 X38.6081 Y59.6465 
G01 X38.5363 Y59.7708 
G01 X38.4348 Y59.8723 
G01 X37.1648 Y61.1423 
G01 X37.0405 Y61.2141 
G01 X36.9018 Y61.2513 
G01 X25.5822 Y61.2513 
G01 X25.4435 Y61.2141 
G01 X25.3192 Y61.1423 
G01 X25.2176 Y61.0408 
G01 X23.5797 Y59.4028 
G01 X23.5079 Y59.2785 
G01 X23.4707 Y59.1398 
G01 X23.4707 Y56.6050 
G01 X23.3856 Y56.5481 
G00 Z2.5400  
G00 X26.8856 Y56.5481 
G01 Z-0.1778 F254   
G01 X26.7479 Y56.4104 F508   
G01 X26.6396 Y56.2484 
G01 X26.5651 Y56.0684 
G01 X26.5271 Y55.8774 
G01 X26.5271 Y55.6826 
G01 X26.5651 Y55.4915 
G01 X26.6396 Y55.3116 
G01 X26.7479 Y55.1496 
G01 X26.8856 Y55.0119 
G01 X26.9707 Y54.9550 
G01 X26.9707 Y52.4222 
G01 X27.0079 Y52.2835 
G01 X27.0797 Y52.1592 
G01 X29.5357 Y49.7032 
G01 X29.6372 Y49.6016 
G01 X29.7615 Y49.5299 
G01 X29.9002 Y49.4927 
G01 X39.7661 Y49.4927 
G01 X40.9707 Y48.2881 
G01 X40.9707 Y45.4290 
G01 X40.8856 Y45.3721 
G01 X40.7479 Y45.2344 
G01 X40.6396 Y45.0724 
G01 X40.5651 Y44.8924 
G01 X40.5271 Y44.7014 
G01 X40.5271 Y44.5066 
G01 X40.5651 Y44.3155 
G01 X40.6396 Y44.1356 
G01 X40.7479 Y43.9736 
G01 X40.8856 Y43.8359 
G01 X41.0476 Y43.7276 
G01 X41.2275 Y43.6531 
G01 X41.4186 Y43.6151 
G01 X41.6134 Y43.6151 
G01 X41.8045 Y43.6531 
G01 X41.9844 Y43.7276 
G01 X42.1464 Y43.8359 
G01 X42.2841 Y43.9736 
G01 X42.3924 Y44.1356 
G01 X42.4669 Y44.3155 
G01 X42.5049 Y44.5066 
G01 X42.5049 Y44.7014 
G01 X42.4669 Y44.8924 
G01 X42.3924 Y45.0724 
G01 X42.2841 Y45.2344 
G01 X42.1464 Y45.3721 
G01 X42.0613 Y45.4290 
G01 X42.0613 Y48.5858 
G01 X42.0241 Y48.7245 
G01 X41.9523 Y48.8488 
G01 X41.8508 Y48.9503 
G01 X40.3268 Y50.4743 
G01 X40.2025 Y50.5461 
G01 X40.0638 Y50.5833 
G01 X30.1979 Y50.5833 
G01 X28.0613 Y52.7199 
G01 X28.0613 Y54.9550 
G01 X28.1464 Y55.0119 
G01 X28.2841 Y55.1496 
G01 X28.3924 Y55.3116 
G01 X28.4669 Y55.4915 
G01 X28.5049 Y55.6826 
G01 X28.5049 Y55.8774 
G01 X28.4669 Y56.0684 
G01 X28.3924 Y56.2484 
G01 X28.2841 Y56.4104 
G01 X28.1464 Y56.5481 
G01 X27.9844 Y56.6564 
G01 X27.8044 Y56.7309 
G01 X27.6134 Y56.7689 
G01 X27.4186 Y56.7689 
G01 X27.2275 Y56.7309 
G01 X27.0476 Y56.6564 
G01 X26.8856 Y56.5481 
G00 Z2.5400  
G00 X30.3856 Y56.5481 
G01 Z-0.1778 F254   
G01 X30.2479 Y56.4104 F508   
G01 X30.1396 Y56.2484 
G01 X30.0651 Y56.0684 
G01 X30.0271 Y55.8774 
G01 X30.0271 Y55.6826 
G01 X30.0651 Y55.4915 
G01 X30.1396 Y55.3116 
G01 X30.2479 Y55.1496 
G01 X30.3856 Y55.0119 
G01 X30.4913 Y54.9412 
G01 X30.5079 Y54.8795 
G01 X30.5797 Y54.7552 
G01 X33.3456 Y51.9892 
G01 X33.4472 Y51.8877 
G01 X33.5715 Y51.8159 
G01 X33.7102 Y51.7787 
G01 X43.5638 Y51.7787 
G01 X43.7025 Y51.8159 
G01 X43.8268 Y51.8877 
G01 X45.3508 Y53.4117 
G01 X45.4523 Y53.5132 
G01 X45.5241 Y53.6375 
G01 X45.5613 Y53.7762 
G01 X45.5613 Y54.9550 
G01 X45.6464 Y55.0119 
G01 X45.7841 Y55.1496 
G01 X45.8924 Y55.3116 
G01 X45.9669 Y55.4915 
G01 X46.0049 Y55.6826 
G01 X46.0049 Y55.8774 
G01 X45.9669 Y56.0684 
G01 X45.8924 Y56.2484 
G01 X45.7841 Y56.4104 
G01 X45.6464 Y56.5481 
G01 X45.4844 Y56.6564 
G01 X45.3045 Y56.7309 
G01 X45.1134 Y56.7689 
G01 X44.9186 Y56.7689 
G01 X44.7275 Y56.7309 
G01 X44.5476 Y56.6564 
G01 X44.3856 Y56.5481 
G01 X44.2479 Y56.4104 
G01 X44.1396 Y56.2484 
G01 X44.0651 Y56.0684 
G01 X44.0271 Y55.8774 
G01 X44.0271 Y55.6826 
G01 X44.0651 Y55.4915 
G01 X44.1396 Y55.3116 
G01 X44.2479 Y55.1496 
G01 X44.3856 Y55.0119 
G01 X44.4707 Y54.9550 
G01 X44.4707 Y54.0739 
G01 X43.2661 Y52.8693 
G01 X34.0079 Y52.8693 
G01 X31.7558 Y55.1213 
G01 X31.7841 Y55.1496 
G01 X31.8924 Y55.3116 
G01 X31.9669 Y55.4915 
G01 X32.0049 Y55.6826 
G01 X32.0049 Y55.8774 
G01 X31.9669 Y56.0684 
G01 X31.8924 Y56.2484 
G01 X31.7841 Y56.4104 
G01 X31.6464 Y56.5481 
G01 X31.4844 Y56.6564 
G01 X31.3044 Y56.7309 
G01 X31.1134 Y56.7689 
G01 X30.9186 Y56.7689 
G01 X30.7275 Y56.7309 
G01 X30.5476 Y56.6564 
G01 X30.3856 Y56.5481 
G00 Z2.5400  
G00 X33.8856 Y56.5481 
G01 Z-0.1778 F254   
G01 X33.7479 Y56.4104 F508   
G01 X33.6396 Y56.2484 
G01 X33.5651 Y56.0684 
G01 X33.5271 Y55.8774 
G01 X33.5271 Y55.6826 
G01 X33.5651 Y55.4915 
G01 X33.6396 Y55.3116 
G01 X33.7479 Y55.1496 
G01 X33.8856 Y55.0119 
G01 X34.0476 Y54.9036 
G01 X34.2275 Y54.8291 
G01 X34.4186 Y54.7911 
G01 X34.6134 Y54.7911 
G01 X34.8045 Y54.8291 
G01 X34.9844 Y54.9036 
G01 X35.1464 Y55.0119 
G01 X35.2841 Y55.1496 
G01 X35.3924 Y55.3116 
G01 X35.4669 Y55.4915 
G01 X35.5049 Y55.6826 
G01 X35.5049 Y55.8774 
G01 X35.4669 Y56.0684 
G01 X35.3924 Y56.2484 
G01 X35.2841 Y56.4104 
G01 X35.1464 Y56.5481 
G01 X34.9844 Y56.6564 
G01 X34.8045 Y56.7309 
G01 X34.6134 Y56.7689 
G01 X34.4186 Y56.7689 
G01 X34.2275 Y56.7309 
G01 X34.0476 Y56.6564 
G01 X33.8856 Y56.5481 
G00 Z2.5400  
G00 X40.8856 Y56.5481 
G01 Z-0.1778 F254   
G01 X40.7479 Y56.4104 F508   
G01 X40.6396 Y56.2484 
G01 X40.5651 Y56.0684 
G01 X40.5271 Y55.8774 
G01 X40.5271 Y55.6826 
G01 X40.5651 Y55.4915 
G01 X40.6396 Y55.3116 
G01 X40.7479 Y55.1496 
G01 X40.8856 Y55.0119 
G01 X41.0476 Y54.9036 
G01 X41.2275 Y54.8291 
G01 X41.4186 Y54.7911 
G01 X41.6134 Y54.7911 
G01 X41.8045 Y54.8291 
G01 X41.9844 Y54.9036 
G01 X42.1464 Y55.0119 
G01 X42.2841 Y55.1496 
G01 X42.3924 Y55.3116 
G01 X42.4669 Y55.4915 
G01 X42.5049 Y55.6826 
G01 X42.5049 Y55.8774 
G01 X42.4669 Y56.0684 
G01 X42.3924 Y56.2484 
G01 X42.2841 Y56.4104 
G01 X42.1464 Y56.5481 
G01 X41.9844 Y56.6564 
G01 X41.8045 Y56.7309 
G01 X41.6134 Y56.7689 
G01 X41.4186 Y56.7689 
G01 X41.2275 Y56.7309 
G01 X41.0476 Y56.6564 
G01 X40.8856 Y56.5481 
G00 Z2.5400  
G00 X38.7841 Y45.2344 
G01 Z-0.1778 F254   
G01 X38.6464 Y45.3721 F508   
G01 X38.4844 Y45.4804 
G01 X38.3045 Y45.5549 
G01 X38.1134 Y45.5929 
G01 X37.9186 Y45.5929 
G01 X37.7275 Y45.5549 
G01 X37.5476 Y45.4804 
G01 X37.3856 Y45.3721 
G01 X37.2479 Y45.2344 
G01 X37.1396 Y45.0724 
G01 X37.0651 Y44.8924 
G01 X37.0271 Y44.7014 
G01 X37.0271 Y44.5066 
G01 X37.0651 Y44.3155 
G01 X37.1396 Y44.1356 
G01 X37.2479 Y43.9736 
G01 X37.3856 Y43.8359 
G01 X37.5476 Y43.7276 
G01 X37.7275 Y43.6531 
G01 X37.9186 Y43.6151 
G01 X38.1134 Y43.6151 
G01 X38.3045 Y43.6531 
G01 X38.4844 Y43.7276 
G01 X38.6464 Y43.8359 
G01 X38.7841 Y43.9736 
G01 X38.8924 Y44.1356 
G01 X38.9669 Y44.3155 
G01 X39.0049 Y44.5066 
G01 X39.0049 Y44.7014 
G01 X38.9669 Y44.8924 
G01 X38.8924 Y45.0724 
G01 X38.7841 Y45.2344 
G00 Z2.5400  
G00 X35.2841 Y45.2344 
G01 Z-0.1778 F254   
G01 X35.1464 Y45.3721 F508   
G01 X34.9844 Y45.4804 
G01 X34.8045 Y45.5549 
G01 X34.6134 Y45.5929 
G01 X34.4186 Y45.5929 
G01 X34.2275 Y45.5549 
G01 X34.0476 Y45.4804 
G01 X33.8856 Y45.3721 
G01 X33.7479 Y45.2344 
G01 X33.6396 Y45.0724 
G01 X33.5651 Y44.8924 
G01 X33.5271 Y44.7014 
G01 X33.5271 Y44.5066 
G01 X33.5651 Y44.3155 
G01 X33.6396 Y44.1356 
G01 X33.7479 Y43.9736 
G01 X33.8856 Y43.8359 
G01 X34.0476 Y43.7276 
G01 X34.2275 Y43.6531 
G01 X34.4186 Y43.6151 
G01 X34.6134 Y43.6151 
G01 X34.8045 Y43.6531 
G01 X34.9844 Y43.7276 
G01 X35.1464 Y43.8359 
G01 X35.2841 Y43.9736 
G01 X35.3924 Y44.1356 
G01 X35.4669 Y44.3155 
G01 X35.5049 Y44.5066 
G01 X35.5049 Y44.7014 
G01 X35.4669 Y44.8924 
G01 X35.3924 Y45.0724 
G01 X35.2841 Y45.2344 
G00 Z2.5400  
G00 X31.7841 Y45.2344 
G01 Z-0.1778 F254   
G01 X31.6464 Y45.3721 F508   
G01 X31.4844 Y45.4804 
G01 X31.3044 Y45.5549 
G01 X31.1134 Y45.5929 
G01 X30.9186 Y45.5929 
G01 X30.7275 Y45.5549 
G01 X30.5476 Y45.4804 
G01 X30.3856 Y45.3721 
G01 X30.2479 Y45.2344 
G01 X30.1396 Y45.0724 
G01 X30.0651 Y44.8924 
G01 X30.0271 Y44.7014 
G01 X30.0271 Y44.5066 
G01 X30.0651 Y44.3155 
G01 X30.1396 Y44.1356 
G01 X30.2479 Y43.9736 
G01 X30.3856 Y43.8359 
G01 X30.4707 Y43.7790 
G01 X30.4707 Y42.9259 
G01 X25.3192 Y37.7743 
G01 X25.2176 Y37.6728 
G01 X25.1459 Y37.5485 
G01 X25.1087 Y37.4098 
G01 X25.1087 Y29.1819 
G01 X24.9201 Y28.9933 
G01 X23.5888 Y28.9933 
G01 X23.2332 Y29.3489 
G01 X22.4868 Y29.3489 
G01 X22.1312 Y28.9933 
G01 X21.0488 Y28.9933 
G01 X20.6932 Y29.3489 
G01 X19.9468 Y29.3489 
G01 X19.4191 Y28.8212 
G01 X19.4191 Y28.0748 
G01 X19.9468 Y27.5471 
G01 X20.6932 Y27.5471 
G01 X21.0488 Y27.9027 
G01 X22.1312 Y27.9027 
G01 X22.4868 Y27.5471 
G01 X23.2332 Y27.5471 
G01 X23.5888 Y27.9027 
G01 X25.2178 Y27.9027 
G01 X25.3565 Y27.9399 
G01 X25.4808 Y28.0116 
G01 X25.5823 Y28.1132 
G01 X26.0903 Y28.6212 
G01 X26.1621 Y28.7455 
G01 X26.1993 Y28.8842 
G01 X26.1993 Y37.1121 
G01 X31.4523 Y42.3652 
G01 X31.5241 Y42.4895 
G01 X31.5613 Y42.6282 
G01 X31.5613 Y43.7790 
G01 X31.6464 Y43.8359 
G01 X31.7841 Y43.9736 
G01 X31.8924 Y44.1356 
G01 X31.9669 Y44.3155 
G01 X32.0049 Y44.5066 
G01 X32.0049 Y44.7014 
G01 X31.9669 Y44.8924 
G01 X31.8924 Y45.0724 
G01 X31.7841 Y45.2344 
G00 Z2.5400  
G00 X28.2841 Y45.2344 
G01 Z-0.1778 F254   
G01 X28.1464 Y45.3721 F508   
G01 X27.9844 Y45.4804 
G01 X27.8044 Y45.5549 
G01 X27.6134 Y45.5929 
G01 X27.4186 Y45.5929 
G01 X27.2275 Y45.5549 
G01 X27.0476 Y45.4804 
G01 X26.8856 Y45.3721 
G01 X26.7479 Y45.2344 
G01 X26.6396 Y45.0724 
G01 X26.5651 Y44.8924 
G01 X26.5271 Y44.7014 
G01 X26.5271 Y44.5066 
G01 X26.5651 Y44.3155 
G01 X26.6396 Y44.1356 
G01 X26.7479 Y43.9736 
G01 X26.8856 Y43.8359 
G01 X26.9707 Y43.7790 
G01 X26.9707 Y42.3126 
G01 X22.7169 Y39.9153 
G01 X17.4542 Y39.9153 
G01 X17.3155 Y39.8781 
G01 X17.1912 Y39.8063 
G01 X17.0896 Y39.7048 
G01 X17.0179 Y39.5805 
G01 X16.9807 Y39.4418 
G01 X16.9807 Y30.9162 
G01 X17.0179 Y30.7775 
G01 X17.0896 Y30.6532 
G01 X17.1912 Y30.5516 
G01 X17.3155 Y30.4799 
G01 X17.4542 Y30.4427 
G01 X19.5912 Y30.4427 
G01 X19.9468 Y30.0871 
G01 X20.6932 Y30.0871 
G01 X21.0488 Y30.4427 
G01 X22.1312 Y30.4427 
G01 X22.4868 Y30.0871 
G01 X23.2332 Y30.0871 
G01 X23.7609 Y30.6148 
G01 X23.7609 Y31.3612 
G01 X23.2332 Y31.8889 
G01 X22.4868 Y31.8889 
G01 X22.1312 Y31.5333 
G01 X21.0488 Y31.5333 
G01 X20.6932 Y31.8889 
G01 X19.9468 Y31.8889 
G01 X19.5912 Y31.5333 
G01 X18.0713 Y31.5333 
G01 X18.0713 Y38.8247 
G01 X22.8572 Y38.8247 
G01 X22.9261 Y38.8240 
G01 X22.9289 Y38.8247 
G01 X22.9318 Y38.8247 
G01 X22.9984 Y38.8425 
G01 X23.0652 Y38.8597 
G01 X23.0705 Y38.8619 
G01 X23.1301 Y38.8963 
G01 X27.7237 Y41.4851 
G01 X27.7265 Y41.4859 
G01 X27.7862 Y41.5203 
G01 X27.8463 Y41.5542 
G01 X27.8508 Y41.5577 
G01 X27.8995 Y41.6064 
G01 X27.9488 Y41.6547 
G01 X27.9523 Y41.6592 
G01 X27.9868 Y41.7188 
G01 X28.0219 Y41.7782 
G01 X28.0227 Y41.7810 
G01 X28.0419 Y41.8500 
G01 X28.0605 Y41.9165 
G01 X28.0605 Y41.9194 
G01 X28.0613 Y41.9222 
G01 X28.0613 Y41.9912 
G01 X28.0620 Y42.0601 
G01 X28.0613 Y42.0629 
G01 X28.0613 Y43.7790 
G01 X28.1464 Y43.8359 
G01 X28.2841 Y43.9736 
G01 X28.3924 Y44.1356 
G01 X28.4669 Y44.3155 
G01 X28.5049 Y44.5066 
G01 X28.5049 Y44.7014 
G01 X28.4669 Y44.8924 
G01 X28.3924 Y45.0724 
G01 X28.2841 Y45.2344 
G00 Z2.5400  
G00 X24.7841 Y45.2344 
G01 Z-0.1778 F254   
G01 X24.6464 Y45.3721 F508   
G01 X24.4844 Y45.4804 
G01 X24.3044 Y45.5549 
G01 X24.1134 Y45.5929 
G01 X23.9186 Y45.5929 
G01 X23.7275 Y45.5549 
G01 X23.5476 Y45.4804 
G01 X23.3856 Y45.3721 
G01 X23.2479 Y45.2344 
G01 X23.1396 Y45.0724 
G01 X23.0651 Y44.8924 
G01 X23.0271 Y44.7014 
G01 X23.0271 Y44.5066 
G01 X23.0651 Y44.3155 
G01 X23.1396 Y44.1356 
G01 X23.2479 Y43.9736 
G01 X23.3856 Y43.8359 
G01 X23.5476 Y43.7276 
G01 X23.7275 Y43.6531 
G01 X23.9186 Y43.6151 
G01 X24.1134 Y43.6151 
G01 X24.3044 Y43.6531 
G01 X24.4844 Y43.7276 
G01 X24.6464 Y43.8359 
G01 X24.7841 Y43.9736 
G01 X24.8924 Y44.1356 
G01 X24.9669 Y44.3155 
G01 X25.0049 Y44.5066 
G01 X25.0049 Y44.7014 
G01 X24.9669 Y44.8924 
G01 X24.8924 Y45.0724 
G01 X24.7841 Y45.2344 
G00 Z2.5400  
G00 X23.7609 Y33.9012 
G01 Z-0.1778 F254   
G01 X23.2332 Y34.4289 F508   
G01 X22.4868 Y34.4289 
G01 X21.9591 Y33.9012 
G01 X21.9591 Y33.1548 
G01 X22.4868 Y32.6271 
G01 X23.2332 Y32.6271 
G01 X23.7609 Y33.1548 
G01 X23.7609 Y33.9012 
G00 Z2.5400  
G00 X21.2209 Y33.9012 
G01 Z-0.1778 F254   
G01 X20.6932 Y34.4289 F508   
G01 X19.9468 Y34.4289 
G01 X19.4191 Y33.9012 
G01 X19.4191 Y33.1548 
G01 X19.9468 Y32.6271 
G01 X20.6932 Y32.6271 
G01 X21.2209 Y33.1548 
G01 X21.2209 Y33.9012 
G00 Z2.5400  
G00 X21.2209 Y26.2812 
G01 Z-0.1778 F254   
G01 X20.6932 Y26.8089 F508   
G01 X19.9468 Y26.8089 
G01 X19.4191 Y26.2812 
G01 X19.4191 Y25.5348 
G01 X19.9468 Y25.0071 
G01 X20.6932 Y25.0071 
G01 X21.2209 Y25.5348 
G01 X21.2209 Y26.2812 
G00 Z2.5400  
G00 X21.9591 Y26.2812 
G01 Z-0.1778 F254   
G01 X21.9591 Y25.5348 F508   
G01 X22.4868 Y25.0071 
G01 X23.2332 Y25.0071 
G01 X23.7609 Y25.5348 
G01 X23.7609 Y26.2812 
G01 X23.2332 Y26.8089 
G01 X22.4868 Y26.8089 
G01 X21.9591 Y26.2812 
G00 Z2.5400  
G00 X22.4868 Y24.2689 
G01 Z-0.1778 F254   
G01 X21.9591 Y23.7412 F508   
G01 X21.9591 Y22.9948 
G01 X22.4868 Y22.4671 
G01 X23.2332 Y22.4671 
G01 X23.7609 Y22.9948 
G01 X23.7609 Y23.7412 
G01 X23.2332 Y24.2689 
G01 X22.4868 Y24.2689 
G00 Z2.5400  
G00 X21.2209 Y23.7412 
G01 Z-0.1778 F254   
G01 X20.6932 Y24.2689 F508   
G01 X19.9468 Y24.2689 
G01 X19.4191 Y23.7412 
G01 X19.4191 Y22.9948 
G01 X19.9468 Y22.4671 
G01 X20.6932 Y22.4671 
G01 X21.2209 Y22.9948 
G01 X21.2209 Y23.7412 
G00 Z2.5400  
G00 X21.2209 Y21.2012 
G01 Z-0.1778 F254   
G01 X20.6932 Y21.7289 F508   
G01 X19.9468 Y21.7289 
G01 X19.4191 Y21.2012 
G01 X19.4191 Y20.4548 
G01 X19.9468 Y19.9271 
G01 X20.6932 Y19.9271 
G01 X21.2209 Y20.4548 
G01 X21.2209 Y21.2012 
G00 Z2.5400  
G00 X21.9591 Y21.2012 
G01 Z-0.1778 F254   
G01 X21.9591 Y20.4548 F508   
G01 X22.4868 Y19.9271 
G01 X23.2332 Y19.9271 
G01 X23.7609 Y20.4548 
G01 X23.7609 Y21.2012 
G01 X23.2332 Y21.7289 
G01 X22.4868 Y21.7289 
G01 X21.9591 Y21.2012 
G00 Z2.5400  
G00 X22.4868 Y19.1889 
G01 Z-0.1778 F254   
G01 X21.9591 Y18.6612 F508   
G01 X21.9591 Y17.9148 
G01 X22.4868 Y17.3871 
G01 X23.2332 Y17.3871 
G01 X23.7609 Y17.9148 
G01 X23.7609 Y18.6612 
G01 X23.2332 Y19.1889 
G01 X22.4868 Y19.1889 
G00 Z2.5400  
G00 X21.2209 Y18.6612 
G01 Z-0.1778 F254   
G01 X20.6932 Y19.1889 F508   
G01 X19.9468 Y19.1889 
G01 X19.4191 Y18.6612 
G01 X19.4191 Y17.9148 
G01 X19.9468 Y17.3871 
G01 X20.6932 Y17.3871 
G01 X21.2209 Y17.9148 
G01 X21.2209 Y18.6612 
G00 Z2.5400  
G00 X21.2209 Y16.1212 
G01 Z-0.1778 F254   
G01 X20.6932 Y16.6489 F508   
G01 X19.9468 Y16.6489 
G01 X19.4191 Y16.1212 
G01 X19.4191 Y15.3748 
G01 X19.9468 Y14.8471 
G01 X20.6932 Y14.8471 
G01 X21.2209 Y15.3748 
G01 X21.2209 Y16.1212 
G00 Z2.5400  
G00 X21.9591 Y16.1212 
G01 Z-0.1778 F254   
G01 X21.9591 Y15.3748 F508   
G01 X22.4868 Y14.8471 
G01 X23.2332 Y14.8471 
G01 X23.5888 Y15.2027 
G01 X26.0735 Y15.2027 
G01 X26.6992 Y14.9941 
G01 X26.7135 Y14.9859 
G01 X26.7671 Y14.9715 
G01 X26.8197 Y14.9540 
G01 X26.8362 Y14.9530 
G01 X26.8522 Y14.9487 
G01 X26.9076 Y14.9487 
G01 X26.9630 Y14.9454 
G01 X26.9792 Y14.9487 
G01 X45.4440 Y14.9487 
G01 X45.4937 Y14.9447 
G01 X45.5156 Y14.9487 
G01 X45.5378 Y14.9487 
G01 X45.5859 Y14.9616 
G01 X46.1376 Y15.0627 
G01 X46.1598 Y15.0627 
G01 X46.2079 Y15.0756 
G01 X46.2569 Y15.0846 
G01 X46.2770 Y15.0941 
G01 X46.2985 Y15.0999 
G01 X46.3416 Y15.1248 
G01 X46.3866 Y15.1461 
G01 X46.4036 Y15.1605 
G01 X46.4228 Y15.1716 
G01 X46.4580 Y15.2069 
G01 X46.4960 Y15.2392 
G01 X46.5086 Y15.2575 
G01 X46.5243 Y15.2732 
G01 X46.5493 Y15.3163 
G01 X46.5776 Y15.3573 
G01 X46.5850 Y15.3783 
G01 X46.5961 Y15.3975 
G01 X46.6090 Y15.4457 
G01 X46.6258 Y15.4926 
G01 X46.6275 Y15.5147 
G01 X46.6333 Y15.5362 
G01 X46.6333 Y15.5860 
G01 X46.6373 Y15.6357 
G01 X46.6333 Y15.6576 
G01 X46.6333 Y19.9030 
G01 X46.7184 Y19.9599 
G01 X46.8561 Y20.0976 
G01 X46.9644 Y20.2596 
G01 X47.0389 Y20.4395 
G01 X47.0769 Y20.6306 
G01 X47.0769 Y20.8254 
G01 X47.0389 Y21.0164 
G01 X46.9644 Y21.1964 
G01 X46.8561 Y21.3584 
G01 X46.7184 Y21.4961 
G01 X46.5564 Y21.6044 
G01 X46.3764 Y21.6789 
G01 X46.1854 Y21.7169 
G01 X45.9906 Y21.7169 
G01 X45.7995 Y21.6789 
G01 X45.6196 Y21.6044 
G01 X45.4576 Y21.4961 
G01 X45.3199 Y21.3584 
G01 X45.2116 Y21.1964 
G01 X45.1371 Y21.0164 
G01 X45.0991 Y20.8254 
G01 X45.0991 Y20.6306 
G01 X45.1371 Y20.4395 
G01 X45.2116 Y20.2596 
G01 X45.3199 Y20.0976 
G01 X45.4576 Y19.9599 
G01 X45.5427 Y19.9030 
G01 X45.5427 Y16.0624 
G01 X45.4164 Y16.0393 
G01 X27.0125 Y16.0393 
G01 X26.3868 Y16.2478 
G01 X26.3725 Y16.2561 
G01 X26.3189 Y16.2705 
G01 X26.2663 Y16.2880 
G01 X26.2498 Y16.2890 
G01 X26.2338 Y16.2933 
G01 X26.1783 Y16.2933 
G01 X26.1230 Y16.2966 
G01 X26.1068 Y16.2933 
G01 X23.5888 Y16.2933 
G01 X23.2332 Y16.6489 
G01 X22.4868 Y16.6489 
G01 X21.9591 Y16.1212 
G00 Z2.5400  
G00 X22.4868 Y14.1089 
G01 Z-0.1778 F254   
G01 X21.9591 Y13.5812 F508   
G01 X21.9591 Y12.8348 
G01 X22.4868 Y12.3071 
G01 X23.2332 Y12.3071 
G01 X23.5888 Y12.6627 
G01 X25.6505 Y12.6627 
G01 X45.1819 Y12.4123 
G01 X45.5427 Y11.9041 
G01 X45.5427 Y9.8690  
G01 X45.4576 Y9.8121  
G01 X45.3199 Y9.6744  
G01 X45.2116 Y9.5124  
G01 X45.1371 Y9.3324  
G01 X45.0991 Y9.1414  
G01 X45.0991 Y8.9466  
G01 X45.1371 Y8.7555  
G01 X45.2116 Y8.5756  
G01 X45.3199 Y8.4136  
G01 X45.4576 Y8.2759  
G01 X45.6196 Y8.1676  
G01 X45.7995 Y8.0931  
G01 X45.9906 Y8.0551  
G01 X46.1854 Y8.0551  
G01 X46.3764 Y8.0931  
G01 X46.5564 Y8.1676  
G01 X46.7184 Y8.2759  
G01 X46.8561 Y8.4136  
G01 X46.9644 Y8.5756  
G01 X47.0389 Y8.7555  
G01 X47.0769 Y8.9466  
G01 X47.0769 Y9.1414  
G01 X47.0389 Y9.3324  
G01 X46.9644 Y9.5124  
G01 X46.8561 Y9.6744  
G01 X46.7184 Y9.8121  
G01 X46.6333 Y9.8690  
G01 X46.6333 Y12.0321 
G01 X46.6376 Y12.0576 
G01 X46.6333 Y12.1036 
G01 X46.6333 Y12.1498 
G01 X46.6266 Y12.1748 
G01 X46.6242 Y12.2006 
G01 X46.6081 Y12.2439 
G01 X46.5961 Y12.2885 
G01 X46.5832 Y12.3109 
G01 X46.5742 Y12.3352 
G01 X46.5474 Y12.3728 
G01 X46.5243 Y12.4128 
G01 X46.5060 Y12.4311 
G01 X45.9275 Y13.2459 
G01 X45.9066 Y13.2832 
G01 X45.8861 Y13.3043 
G01 X45.8691 Y13.3282 
G01 X45.8362 Y13.3554 
G01 X45.8064 Y13.3860 
G01 X45.7811 Y13.4010 
G01 X45.7585 Y13.4198 
G01 X45.7197 Y13.4376 
G01 X45.6830 Y13.4594 
G01 X45.6547 Y13.4674 
G01 X45.6279 Y13.4796 
G01 X45.5859 Y13.4868 
G01 X45.5448 Y13.4983 
G01 X45.5154 Y13.4987 
G01 X45.4864 Y13.5036 
G01 X45.4439 Y13.4996 
G01 X25.7292 Y13.7524 
G01 X25.7258 Y13.7533 
G01 X25.6575 Y13.7533 
G01 X25.5892 Y13.7542 
G01 X25.5858 Y13.7533 
G01 X23.5888 Y13.7533 
G01 X23.2332 Y14.1089 
G01 X22.4868 Y14.1089 
G00 Z2.5400  
G00 X21.2209 Y13.5812 
G01 Z-0.1778 F254   
G01 X20.6932 Y14.1089 F508   
G01 X19.9468 Y14.1089 
G01 X19.4191 Y13.5812 
G01 X19.4191 Y12.8348 
G01 X19.9468 Y12.3071 
G01 X20.6932 Y12.3071 
G01 X21.2209 Y12.8348 
G01 X21.2209 Y13.5812 
G00 Z2.5400  
G00 X24.4572 Y17.3843 
G01 Z-0.1778 F254   
G01 X24.4963 Y17.3452 F508   
G01 X24.5474 Y17.3241 
G01 X26.2526 Y17.3241 
G01 X26.3037 Y17.3452 
G01 X26.3427 Y17.3843 
G01 X26.3639 Y17.4354 
G01 X26.3639 Y19.1406 
G01 X26.3427 Y19.1917 
G01 X26.3037 Y19.2308 
G01 X26.2526 Y19.2519 
G01 X24.5474 Y19.2519 
G01 X24.4963 Y19.2308 
G01 X24.4572 Y19.1917 
G01 X24.4361 Y19.1406 
G01 X24.4361 Y17.4354 
G01 X24.4572 Y17.3843 
G00 Z2.5400  
G00 X24.4572 Y19.9243 
G01 Z-0.1778 F254   
G01 X24.4963 Y19.8852 F508   
G01 X24.5474 Y19.8641 
G01 X26.2526 Y19.8641 
G01 X26.3037 Y19.8852 
G01 X26.3427 Y19.9243 
G01 X26.3639 Y19.9754 
G01 X26.3639 Y21.6806 
G01 X26.3427 Y21.7317 
G01 X26.3037 Y21.7707 
G01 X26.2526 Y21.7919 
G01 X24.5474 Y21.7919 
G01 X24.4963 Y21.7707 
G01 X24.4572 Y21.7317 
G01 X24.4361 Y21.6806 
G01 X24.4361 Y19.9754 
G01 X24.4572 Y19.9243 
G00 Z2.5400  
G00 X24.4572 Y22.4643 
G01 Z-0.1778 F254   
G01 X24.4963 Y22.4252 F508   
G01 X24.5474 Y22.4041 
G01 X26.2526 Y22.4041 
G01 X26.3037 Y22.4252 
G01 X26.3427 Y22.4643 
G01 X26.3639 Y22.5154 
G01 X26.3639 Y24.2206 
G01 X26.3427 Y24.2717 
G01 X26.3037 Y24.3107 
G01 X26.2526 Y24.3319 
G01 X24.5474 Y24.3319 
G01 X24.4963 Y24.3107 
G01 X24.4572 Y24.2717 
G01 X24.4361 Y24.2206 
G01 X24.4361 Y22.5154 
G01 X24.4572 Y22.4643 
G00 Z2.5400  
G00 X24.4572 Y25.0043 
G01 Z-0.1778 F254   
G01 X24.4963 Y24.9652 F508   
G01 X24.5474 Y24.9441 
G01 X26.2526 Y24.9441 
G01 X26.3037 Y24.9652 
G01 X26.3427 Y25.0043 
G01 X26.3639 Y25.0554 
G01 X26.3639 Y26.7606 
G01 X26.3427 Y26.8117 
G01 X26.3037 Y26.8508 
G01 X26.2526 Y26.8719 
G01 X24.5474 Y26.8719 
G01 X24.4963 Y26.8508 
G01 X24.4572 Y26.8117 
G01 X24.4361 Y26.7606 
G01 X24.4361 Y25.0554 
G01 X24.4572 Y25.0043 
G00 Z2.5400  
G00 X27.9789 Y27.7893 
G01 Z-0.1778 F254   
G01 X28.5513 Y27.2169 F508   
G01 X29.3607 Y27.2169 
G01 X29.9331 Y27.7893 
G01 X29.9331 Y28.5987 
G01 X29.3607 Y29.1711 
G01 X28.5513 Y29.1711 
G01 X27.9789 Y28.5987 
G01 X27.9789 Y27.7893 
G00 Z2.5400  
G00 X27.9576 Y21.4961 
G01 Z-0.1778 F254   
G01 X27.8199 Y21.3584 F508   
G01 X27.7116 Y21.1964 
G01 X27.6371 Y21.0164 
G01 X27.5991 Y20.8254 
G01 X27.5991 Y20.6306 
G01 X27.6371 Y20.4395 
G01 X27.7116 Y20.2596 
G01 X27.8199 Y20.0976 
G01 X27.9576 Y19.9599 
G01 X28.1196 Y19.8516 
G01 X28.2995 Y19.7771 
G01 X28.4906 Y19.7391 
G01 X28.6854 Y19.7391 
G01 X28.8764 Y19.7771 
G01 X29.0564 Y19.8516 
G01 X29.2184 Y19.9599 
G01 X29.3561 Y20.0976 
G01 X29.4643 Y20.2596 
G01 X29.5389 Y20.4395 
G01 X29.5769 Y20.6306 
G01 X29.5769 Y20.8254 
G01 X29.5389 Y21.0164 
G01 X29.4643 Y21.1964 
G01 X29.3561 Y21.3584 
G01 X29.2184 Y21.4961 
G01 X29.0564 Y21.6044 
G01 X28.8764 Y21.6789 
G01 X28.6854 Y21.7169 
G01 X28.4906 Y21.7169 
G01 X28.2995 Y21.6789 
G01 X28.1196 Y21.6044 
G01 X27.9576 Y21.4961 
G00 Z2.5400  
G00 X34.9576 Y21.4961 
G01 Z-0.1778 F254   
G01 X34.8199 Y21.3584 F508   
G01 X34.7116 Y21.1964 
G01 X34.6371 Y21.0164 
G01 X34.5991 Y20.8254 
G01 X34.5991 Y20.6306 
G01 X34.6371 Y20.4395 
G01 X34.7116 Y20.2596 
G01 X34.8199 Y20.0976 
G01 X34.9576 Y19.9599 
G01 X35.1196 Y19.8516 
G01 X35.2995 Y19.7771 
G01 X35.4906 Y19.7391 
G01 X35.6854 Y19.7391 
G01 X35.8764 Y19.7771 
G01 X36.0564 Y19.8516 
G01 X36.2184 Y19.9599 
G01 X36.3561 Y20.0976 
G01 X36.4644 Y20.2596 
G01 X36.5389 Y20.4395 
G01 X36.5769 Y20.6306 
G01 X36.5769 Y20.8254 
G01 X36.5389 Y21.0164 
G01 X36.4644 Y21.1964 
G01 X36.3561 Y21.3584 
G01 X36.2184 Y21.4961 
G01 X36.0564 Y21.6044 
G01 X35.8764 Y21.6789 
G01 X35.6854 Y21.7169 
G01 X35.4906 Y21.7169 
G01 X35.2995 Y21.6789 
G01 X35.1196 Y21.6044 
G01 X34.9576 Y21.4961 
G00 Z2.5400  
G00 X38.4576 Y21.4961 
G01 Z-0.1778 F254   
G01 X38.3199 Y21.3584 F508   
G01 X38.2116 Y21.1964 
G01 X38.1371 Y21.0164 
G01 X38.0991 Y20.8254 
G01 X38.0991 Y20.6306 
G01 X38.1371 Y20.4395 
G01 X38.2116 Y20.2596 
G01 X38.3199 Y20.0976 
G01 X38.4576 Y19.9599 
G01 X38.6196 Y19.8516 
G01 X38.7995 Y19.7771 
G01 X38.9906 Y19.7391 
G01 X39.1854 Y19.7391 
G01 X39.3764 Y19.7771 
G01 X39.5564 Y19.8516 
G01 X39.7184 Y19.9599 
G01 X39.8561 Y20.0976 
G01 X39.9644 Y20.2596 
G01 X40.0389 Y20.4395 
G01 X40.0769 Y20.6306 
G01 X40.0769 Y20.8254 
G01 X40.0389 Y21.0164 
G01 X39.9644 Y21.1964 
G01 X39.8561 Y21.3584 
G01 X39.7184 Y21.4961 
G01 X39.5564 Y21.6044 
G01 X39.3764 Y21.6789 
G01 X39.1854 Y21.7169 
G01 X38.9906 Y21.7169 
G01 X38.7995 Y21.6789 
G01 X38.6196 Y21.6044 
G01 X38.4576 Y21.4961 
G00 Z2.5400  
G00 X36.2219 Y29.0971 
G01 Z-0.1778 F254   
G01 X36.3333 Y29.2085 F508   
G01 X36.4207 Y29.3394 
G01 X36.4810 Y29.4849 
G01 X36.5117 Y29.6393 
G01 X36.5117 Y29.7967 
G01 X36.4810 Y29.9511 
G01 X36.4207 Y30.0966 
G01 X36.3333 Y30.2275 
G01 X36.2219 Y30.3389 
G01 X36.0910 Y30.4263 
G01 X35.9455 Y30.4866 
G01 X35.7911 Y30.5173 
G01 X34.3129 Y30.5173 
G01 X34.1585 Y30.4866 
G01 X34.0130 Y30.4263 
G01 X33.8821 Y30.3389 
G01 X33.7707 Y30.2275 
G01 X33.6833 Y30.0966 
G01 X33.6230 Y29.9511 
G01 X33.5923 Y29.7967 
G01 X33.5923 Y29.6393 
G01 X33.6230 Y29.4849 
G01 X33.6833 Y29.3394 
G01 X33.7707 Y29.2085 
G01 X33.8821 Y29.0971 
G01 X34.0130 Y29.0097 
G01 X34.1585 Y28.9494 
G01 X34.3129 Y28.9187 
G01 X35.7911 Y28.9187 
G01 X35.9455 Y28.9494 
G01 X36.0910 Y29.0097 
G01 X36.2219 Y29.0971 
G00 Z2.5400  
G00 X36.2219 Y31.6371 
G01 Z-0.1778 F254   
G01 X36.3333 Y31.7485 F508   
G01 X36.4207 Y31.8794 
G01 X36.4810 Y32.0249 
G01 X36.5117 Y32.1793 
G01 X36.5117 Y32.3367 
G01 X36.4810 Y32.4911 
G01 X36.4207 Y32.6366 
G01 X36.3333 Y32.7675 
G01 X36.2219 Y32.8789 
G01 X36.0910 Y32.9663 
G01 X35.9455 Y33.0266 
G01 X35.7911 Y33.0573 
G01 X34.3129 Y33.0573 
G01 X34.1585 Y33.0266 
G01 X34.0130 Y32.9663 
G01 X33.8821 Y32.8789 
G01 X33.7707 Y32.7675 
G01 X33.6833 Y32.6366 
G01 X33.6230 Y32.4911 
G01 X33.5923 Y32.3367 
G01 X33.5923 Y32.1793 
G01 X33.6230 Y32.0249 
G01 X33.6833 Y31.8794 
G01 X33.7707 Y31.7485 
G01 X33.8821 Y31.6371 
G01 X34.0130 Y31.5497 
G01 X34.1585 Y31.4894 
G01 X34.3129 Y31.4587 
G01 X35.7911 Y31.4587 
G01 X35.9455 Y31.4894 
G01 X36.0910 Y31.5497 
G01 X36.2219 Y31.6371 
G00 Z2.5400  
G00 X36.2219 Y34.1771 
G01 Z-0.1778 F254   
G01 X36.3333 Y34.2885 F508   
G01 X36.4207 Y34.4194 
G01 X36.4810 Y34.5648 
G01 X36.5117 Y34.7193 
G01 X36.5117 Y34.8767 
G01 X36.4810 Y35.0311 
G01 X36.4207 Y35.1766 
G01 X36.3333 Y35.3075 
G01 X36.2219 Y35.4189 
G01 X36.0910 Y35.5063 
G01 X35.9455 Y35.5666 
G01 X35.7911 Y35.5973 
G01 X34.3129 Y35.5973 
G01 X34.1585 Y35.5666 
G01 X34.0130 Y35.5063 
G01 X33.8821 Y35.4189 
G01 X33.7707 Y35.3075 
G01 X33.6833 Y35.1766 
G01 X33.6230 Y35.0311 
G01 X33.5923 Y34.8767 
G01 X33.5923 Y34.7193 
G01 X33.6230 Y34.5648 
G01 X33.6833 Y34.4194 
G01 X33.7707 Y34.2885 
G01 X33.8821 Y34.1771 
G01 X34.0130 Y34.0897 
G01 X34.1585 Y34.0294 
G01 X34.3129 Y33.9987 
G01 X35.7911 Y33.9987 
G01 X35.9455 Y34.0294 
G01 X36.0910 Y34.0897 
G01 X36.2219 Y34.1771 
G00 Z2.5400  
G00 X44.1816 Y34.2224 
G01 Z-0.1778 F254   
G01 X44.1071 Y34.0425 F508   
G01 X44.0691 Y33.8514 
G01 X44.0691 Y33.6566 
G01 X44.1071 Y33.4655 
G01 X44.1816 Y33.2856 
G01 X44.2899 Y33.1236 
G01 X44.4276 Y32.9859 
G01 X44.5896 Y32.8776 
G01 X44.7695 Y32.8031 
G01 X44.9606 Y32.7651 
G01 X45.1554 Y32.7651 
G01 X45.3464 Y32.8031 
G01 X45.5264 Y32.8776 
G01 X45.6884 Y32.9859 
G01 X45.8261 Y33.1236 
G01 X45.9344 Y33.2856 
G01 X46.0089 Y33.4655 
G01 X46.0469 Y33.6566 
G01 X46.0469 Y33.8514 
G01 X46.0089 Y34.0425 
G01 X45.9344 Y34.2224 
G01 X45.8261 Y34.3844 
G01 X45.6884 Y34.5221 
G01 X45.5264 Y34.6303 
G01 X45.3464 Y34.7049 
G01 X45.1554 Y34.7429 
G01 X44.9606 Y34.7429 
G01 X44.7695 Y34.7049 
G01 X44.5896 Y34.6303 
G01 X44.4276 Y34.5221 
G01 X44.2899 Y34.3844 
G01 X44.1816 Y34.2224 
G00 Z2.5400  
G00 X44.4276 Y31.0221 
G01 Z-0.1778 F254   
G01 X44.2899 Y30.8844 F508   
G01 X44.1816 Y30.7224 
G01 X44.1071 Y30.5424 
G01 X44.0691 Y30.3514 
G01 X44.0691 Y30.1566 
G01 X44.1071 Y29.9655 
G01 X44.1816 Y29.7856 
G01 X44.2899 Y29.6236 
G01 X44.4276 Y29.4859 
G01 X44.5896 Y29.3776 
G01 X44.7695 Y29.3031 
G01 X44.9606 Y29.2651 
G01 X45.1554 Y29.2651 
G01 X45.3464 Y29.3031 
G01 X45.5264 Y29.3776 
G01 X45.6884 Y29.4859 
G01 X45.8261 Y29.6236 
G01 X45.9344 Y29.7856 
G01 X46.0089 Y29.9655 
G01 X46.0469 Y30.1566 
G01 X46.0469 Y30.3514 
G01 X46.0089 Y30.5424 
G01 X45.9344 Y30.7224 
G01 X45.8261 Y30.8844 
G01 X45.6884 Y31.0221 
G01 X45.5264 Y31.1303 
G01 X45.3464 Y31.2049 
G01 X45.1554 Y31.2429 
G01 X44.9606 Y31.2429 
G01 X44.7695 Y31.2049 
G01 X44.5896 Y31.1303 
G01 X44.4276 Y31.0221 
G00 Z2.5400  
G00 X44.5476 Y43.7276 
G01 Z-0.1778 F254   
G01 X44.7275 Y43.6531 F508   
G01 X44.9186 Y43.6151 
G01 X45.1134 Y43.6151 
G01 X45.3045 Y43.6531 
G01 X45.4844 Y43.7276 
G01 X45.6464 Y43.8359 
G01 X45.7841 Y43.9736 
G01 X45.8924 Y44.1356 
G01 X45.9669 Y44.3155 
G01 X46.0049 Y44.5066 
G01 X46.0049 Y44.7014 
G01 X45.9669 Y44.8924 
G01 X45.8924 Y45.0724 
G01 X45.7841 Y45.2344 
G01 X45.6464 Y45.3721 
G01 X45.4844 Y45.4804 
G01 X45.3045 Y45.5549 
G01 X45.1134 Y45.5929 
G01 X44.9186 Y45.5929 
G01 X44.7275 Y45.5549 
G01 X44.5476 Y45.4804 
G01 X44.3856 Y45.3721 
G01 X44.2479 Y45.2344 
G01 X44.1396 Y45.0724 
G01 X44.0651 Y44.8924 
G01 X44.0271 Y44.7014 
G01 X44.0271 Y44.5066 
G01 X44.0651 Y44.3155 
G01 X44.1396 Y44.1356 
G01 X44.2479 Y43.9736 
G01 X44.3856 Y43.8359 
G01 X44.5476 Y43.7276 
G00 Z2.5400  
G00 X52.1726 Y64.8638 
G01 Z-0.1778 F254   
G01 X52.1638 Y64.8726 F508   
G01 X52.1726 Y64.8726 
G01 X52.1726 Y64.8638 
G00 Z2.5400  
G00 X39.8561 Y9.6744  
G01 Z-0.1778 F254   
G01 X39.7184 Y9.8121  F508   
G01 X39.5564 Y9.9203  
G01 X39.3764 Y9.9949  
G01 X39.1854 Y10.0329 
G01 X38.9906 Y10.0329 
G01 X38.7995 Y9.9949  
G01 X38.6196 Y9.9203  
G01 X38.4576 Y9.8121  
G01 X38.3199 Y9.6744  
G01 X38.2116 Y9.5124  
G01 X38.1371 Y9.3324  
G01 X38.0991 Y9.1414  
G01 X38.0991 Y8.9466  
G01 X38.1371 Y8.7555  
G01 X38.2116 Y8.5756  
G01 X38.3199 Y8.4136  
G01 X38.4576 Y8.2759  
G01 X38.6196 Y8.1676  
G01 X38.7995 Y8.0931  
G01 X38.9906 Y8.0551  
G01 X39.1854 Y8.0551  
G01 X39.3764 Y8.0931  
G01 X39.5564 Y8.1676  
G01 X39.7184 Y8.2759  
G01 X39.8561 Y8.4136  
G01 X39.9644 Y8.5756  
G01 X40.0389 Y8.7555  
G01 X40.0769 Y8.9466  
G01 X40.0769 Y9.1414  
G01 X40.0389 Y9.3324  
G01 X39.9644 Y9.5124  
G01 X39.8561 Y9.6744  
G00 Z2.5400  
G00 X36.3561 Y9.6744  
G01 Z-0.1778 F254   
G01 X36.2184 Y9.8121  F508   
G01 X36.0564 Y9.9203  
G01 X35.8764 Y9.9949  
G01 X35.6854 Y10.0329 
G01 X35.4906 Y10.0329 
G01 X35.2995 Y9.9949  
G01 X35.1196 Y9.9203  
G01 X34.9576 Y9.8121  
G01 X34.8199 Y9.6744  
G01 X34.7116 Y9.5124  
G01 X34.6371 Y9.3324  
G01 X34.5991 Y9.1414  
G01 X34.5991 Y8.9466  
G01 X34.6371 Y8.7555  
G01 X34.7116 Y8.5756  
G01 X34.8199 Y8.4136  
G01 X34.9576 Y8.2759  
G01 X35.1196 Y8.1676  
G01 X35.2995 Y8.0931  
G01 X35.4906 Y8.0551  
G01 X35.6854 Y8.0551  
G01 X35.8764 Y8.0931  
G01 X36.0564 Y8.1676  
G01 X36.2184 Y8.2759  
G01 X36.3561 Y8.4136  
G01 X36.4644 Y8.5756  
G01 X36.5389 Y8.7555  
G01 X36.5769 Y8.9466  
G01 X36.5769 Y9.1414  
G01 X36.5389 Y9.3324  
G01 X36.4644 Y9.5124  
G01 X36.3561 Y9.6744  
G00 Z2.5400  
G00 X29.3561 Y9.6744  
G01 Z-0.1778 F254   
G01 X29.2184 Y9.8121  F508   
G01 X29.0564 Y9.9203  
G01 X28.8764 Y9.9949  
G01 X28.6854 Y10.0329 
G01 X28.4906 Y10.0329 
G01 X28.2995 Y9.9949  
G01 X28.1196 Y9.9203  
G01 X27.9576 Y9.8121  
G01 X27.8199 Y9.6744  
G01 X27.7116 Y9.5124  
G01 X27.6371 Y9.3324  
G01 X27.5991 Y9.1414  
G01 X27.5991 Y8.9466  
G01 X27.6371 Y8.7555  
G01 X27.7116 Y8.5756  
G01 X27.8199 Y8.4136  
G01 X27.9576 Y8.2759  
G01 X28.1196 Y8.1676  
G01 X28.2995 Y8.0931  
G01 X28.4906 Y8.0551  
G01 X28.6854 Y8.0551  
G01 X28.8764 Y8.0931  
G01 X29.0564 Y8.1676  
G01 X29.2184 Y8.2759  
G01 X29.3561 Y8.4136  
G01 X29.4643 Y8.5756  
G01 X29.5389 Y8.7555  
G01 X29.5769 Y8.9466  
G01 X29.5769 Y9.1414  
G01 X29.5389 Y9.3324  
G01 X29.4643 Y9.5124  
G01 X29.3561 Y9.6744  
G00 Z2.5400  
G00 X12.3727 Y8.0157  
G01 Z-0.1778 F254   
G01 X12.3337 Y8.0548  F508   
G01 X12.2826 Y8.0759  
G01 X10.5774 Y8.0759  
G01 X10.5263 Y8.0548  
G01 X10.4872 Y8.0157  
G01 X10.4661 Y7.9646  
G01 X10.4661 Y6.2594  
G01 X10.4872 Y6.2083  
G01 X10.5263 Y6.1692  
G01 X10.5774 Y6.1481  
G01 X12.2826 Y6.1481  
G01 X12.3337 Y6.1692  
G01 X12.3727 Y6.2083  
G01 X12.3939 Y6.2594  
G01 X12.3939 Y7.9646  
G01 X12.3727 Y8.0157  
G00 Z2.5400  
G00 X12.3727 Y4.4597  
G01 Z-0.1778 F254   
G01 X12.3337 Y4.4988  F508   
G01 X12.2826 Y4.5199  
G01 X10.5774 Y4.5199  
G01 X10.5263 Y4.4988  
G01 X10.4872 Y4.4597  
G01 X10.4661 Y4.4086  
G01 X10.4661 Y2.7034  
G01 X10.4872 Y2.6523  
G01 X10.5263 Y2.6132  
G01 X10.5774 Y2.5921  
G01 X12.2826 Y2.5921  
G01 X12.3337 Y2.6132  
G01 X12.3727 Y2.6523  
G01 X12.3939 Y2.7034  
G01 X12.3939 Y4.4086  
G01 X12.3727 Y4.4597  
G00 Z2.5400  
G00 X12.3337 Y12.5192 
G01 Z-0.1778 F254   
G01 X12.3727 Y12.5583 F508   
G01 X12.3939 Y12.6094 
G01 X12.3939 Y14.3146 
G01 X12.3727 Y14.3657 
G01 X12.3337 Y14.4047 
G01 X12.2826 Y14.4259 
G01 X10.5774 Y14.4259 
G01 X10.5263 Y14.4047 
G01 X10.4872 Y14.3657 
G01 X10.4661 Y14.3146 
G01 X10.4661 Y12.6094 
G01 X10.4872 Y12.5583 
G01 X10.5263 Y12.5192 
G01 X10.5774 Y12.4981 
G01 X12.2826 Y12.4981 
G01 X12.3337 Y12.5192 
G00 Z2.5400  
G00 X12.3337 Y15.5672 
G01 Z-0.1778 F254   
G01 X12.3727 Y15.6063 F508   
G01 X12.3939 Y15.6574 
G01 X12.3939 Y17.3626 
G01 X12.3727 Y17.4137 
G01 X12.3337 Y17.4528 
G01 X12.2826 Y17.4739 
G01 X10.5774 Y17.4739 
G01 X10.5263 Y17.4528 
G01 X10.4872 Y17.4137 
G01 X10.4661 Y17.3626 
G01 X10.4661 Y15.6574 
G01 X10.4872 Y15.6063 
G01 X10.5263 Y15.5672 
G01 X10.5774 Y15.5461 
G01 X12.2826 Y15.5461 
G01 X12.3337 Y15.5672 
G00 Z2.5400  
G00 X1.5359  Y-1.3050 
G01 Z-0.1778 F254   
G01 X1.5359  Y1.3050  F508   
G01 X1.5178  Y1.3726  
G01 X1.4828  Y1.4333  
G01 X1.4333  Y1.4828  
G01 X1.3726  Y1.5178  
G01 X1.3050  Y1.5359  
G01 X-1.3050 Y1.5359  
G01 X-1.3726 Y1.5178  
G01 X-1.4333 Y1.4828  
G01 X-1.4828 Y1.4333  
G01 X-1.5178 Y1.3726  
G01 X-1.5359 Y1.3050  
G01 X-1.5359 Y-1.3050 
G01 X-1.5178 Y-1.3726 
G01 X-1.4828 Y-1.4333 
G01 X-1.4333 Y-1.4828 
G01 X-1.3726 Y-1.5178 
G01 X-1.3050 Y-1.5359 
G01 X1.3050  Y-1.5359 
G01 X1.3726  Y-1.5178 
G01 X1.4333  Y-1.4828 
G01 X1.4828  Y-1.4333 
G01 X1.5178  Y-1.3726 
G01 X1.5359  Y-1.3050 
G00 Z2.5400  
G00 X5.3988  Y2.7710  
G01 Z-0.1778 F254   
G01 X5.5230  Y2.6468  F508   
G01 X5.6651  Y2.5436  
G01 X5.8216  Y2.4639  
G01 X5.9887  Y2.4096  
G01 X6.1622  Y2.3821  
G01 X6.3378  Y2.3821  
G01 X6.5113  Y2.4096  
G01 X6.6784  Y2.4639  
G01 X6.8349  Y2.5436  
G01 X6.9770  Y2.6468  
G01 X7.1012  Y2.7710  
G01 X7.2044  Y2.9131  
G01 X7.2841  Y3.0696  
G01 X7.3384  Y3.2367  
G01 X7.3659  Y3.4102  
G01 X7.3659  Y3.5858  
G01 X7.3384  Y3.7593  
G01 X7.2841  Y3.9264  
G01 X7.2044  Y4.0829  
G01 X7.1012  Y4.2250  
G01 X6.9770  Y4.3492  
G01 X6.8349  Y4.4524  
G01 X6.6784  Y4.5321  
G01 X6.5113  Y4.5864  
G01 X6.3378  Y4.6139  
G01 X6.1622  Y4.6139  
G01 X5.9887  Y4.5864  
G01 X5.8216  Y4.5321  
G01 X5.6651  Y4.4524  
G01 X5.5230  Y4.3492  
G01 X5.3988  Y4.2250  
G01 X5.2956  Y4.0829  
G01 X5.2159  Y3.9264  
G01 X5.1616  Y3.7593  
G01 X5.1341  Y3.5858  
G01 X5.1341  Y3.4102  
G01 X5.1616  Y3.2367  
G01 X5.2159  Y3.0696  
G01 X5.2956  Y2.9131  
G01 X5.3988  Y2.7710  
G00 Z2.5400  
G00 X5.3988  Y6.2710  
G01 Z-0.1778 F254   
G01 X5.5230  Y6.1468  F508   
G01 X5.6651  Y6.0436  
G01 X5.8216  Y5.9639  
G01 X5.9887  Y5.9096  
G01 X6.1622  Y5.8821  
G01 X6.3378  Y5.8821  
G01 X6.5113  Y5.9096  
G01 X6.6784  Y5.9639  
G01 X6.8349  Y6.0436  
G01 X6.9770  Y6.1468  
G01 X7.1012  Y6.2710  
G01 X7.2044  Y6.4131  
G01 X7.2841  Y6.5696  
G01 X7.3384  Y6.7367  
G01 X7.3659  Y6.9102  
G01 X7.3659  Y7.0858  
G01 X7.3384  Y7.2593  
G01 X7.2841  Y7.4264  
G01 X7.2044  Y7.5829  
G01 X7.1012  Y7.7250  
G01 X6.9770  Y7.8492  
G01 X6.8349  Y7.9524  
G01 X6.6784  Y8.0321  
G01 X6.5113  Y8.0864  
G01 X6.3378  Y8.1139  
G01 X6.1622  Y8.1139  
G01 X5.9887  Y8.0864  
G01 X5.8216  Y8.0321  
G01 X5.6651  Y7.9524  
G01 X5.5230  Y7.8492  
G01 X5.3988  Y7.7250  
G01 X5.2956  Y7.5829  
G01 X5.2159  Y7.4264  
G01 X5.1616  Y7.2593  
G01 X5.1341  Y7.0858  
G01 X5.1341  Y6.9102  
G01 X5.1616  Y6.7367  
G01 X5.2159  Y6.5696  
G01 X5.2956  Y6.4131  
G01 X5.3988  Y6.2710  
G00 Z2.5400  
G00 X5.3988  Y9.7710  
G01 Z-0.1778 F254   
G01 X5.5230  Y9.6468  F508   
G01 X5.6651  Y9.5436  
G01 X5.8216  Y9.4639  
G01 X5.9887  Y9.4096  
G01 X6.1622  Y9.3821  
G01 X6.3378  Y9.3821  
G01 X6.5113  Y9.4096  
G01 X6.6784  Y9.4639  
G01 X6.8349  Y9.5436  
G01 X6.9770  Y9.6468  
G01 X7.1012  Y9.7710  
G01 X7.2044  Y9.9131  
G01 X7.2465  Y9.9957  
G01 X19.5386 Y9.9957  
G01 X19.8942 Y9.6401  
G01 X20.7458 Y9.6401  
G01 X21.1014 Y9.9957  
G01 X22.0786 Y9.9957  
G01 X22.1877 Y9.8866  
G01 X22.1877 Y7.5538  
G01 X22.2135 Y7.4239  
G01 X22.2642 Y7.3015  
G01 X22.3378 Y7.1914  
G01 X24.8778 Y4.6514  
G01 X24.9714 Y4.5578  
G01 X25.0815 Y4.4842  
G01 X25.2039 Y4.4335  
G01 X25.3338 Y4.4077  
G01 X34.5195 Y4.4077  
G01 X34.6234 Y4.3038  
G01 X34.7335 Y4.2302  
G01 X34.8559 Y4.1795  
G01 X34.9858 Y4.1537  
G01 X46.7183 Y4.1537  
G01 X46.7668 Y4.1512  
G01 X46.7844 Y4.1537  
G01 X46.8022 Y4.1537  
G01 X46.8498 Y4.1632  
G01 X46.8979 Y4.1701  
G01 X46.9146 Y4.1761  
G01 X46.9321 Y4.1795  
G01 X46.9769 Y4.1981  
G01 X47.0227 Y4.2143  
G01 X47.0380 Y4.2234  
G01 X47.0545 Y4.2302  
G01 X47.0948 Y4.2572  
G01 X47.1365 Y4.2820  
G01 X47.1498 Y4.2939  
G01 X47.1646 Y4.3038  
G01 X47.1989 Y4.3381  
G01 X49.6898 Y6.5799  
G01 X49.7046 Y6.5898  
G01 X49.7389 Y6.6241  
G01 X49.7750 Y6.6566  
G01 X49.7856 Y6.6708  
G01 X49.7982 Y6.6834  
G01 X49.8252 Y6.7238  
G01 X49.8542 Y6.7627  
G01 X49.8619 Y6.7787  
G01 X49.8718 Y6.7935  
G01 X49.8903 Y6.8384  
G01 X49.9113 Y6.8822  
G01 X49.9156 Y6.8994  
G01 X49.9225 Y6.9159  
G01 X49.9319 Y6.9635  
G01 X49.9439 Y7.0105  
G01 X49.9448 Y7.0283  
G01 X49.9483 Y7.0458  
G01 X49.9483 Y7.0943  
G01 X49.9508 Y7.1428  
G01 X49.9483 Y7.1604  
G01 X49.9483 Y23.9422 
G01 X49.9225 Y24.0721 
G01 X49.8718 Y24.1945 
G01 X49.7982 Y24.3046 
G01 X49.7046 Y24.3982 
G01 X48.4346 Y25.6682 
G01 X48.3245 Y25.7418 
G01 X48.2021 Y25.7925 
G01 X48.0722 Y25.8183 
G01 X44.6378 Y25.8183 
G01 X44.5079 Y25.7925 
G01 X44.3855 Y25.7418 
G01 X44.2754 Y25.6682 
G01 X44.1818 Y25.5746 
G01 X42.1498 Y23.5426 
G01 X42.0762 Y23.4325 
G01 X42.0255 Y23.3101 
G01 X41.9997 Y23.1802 
G01 X41.9997 Y21.6799 
G01 X41.8610 Y21.5792 
G01 X41.7368 Y21.4550 
G01 X41.6336 Y21.3129 
G01 X41.5539 Y21.1564 
G01 X41.4996 Y20.9893 
G01 X41.4721 Y20.8158 
G01 X41.4721 Y20.6402 
G01 X41.4996 Y20.4667 
G01 X41.5539 Y20.2996 
G01 X41.6336 Y20.1431 
G01 X41.7368 Y20.0010 
G01 X41.8610 Y19.8768 
G01 X41.9997 Y19.7761 
G01 X41.9997 Y18.2646 
G01 X41.8009 Y18.1983 
G01 X32.7603 Y18.1983 
G01 X32.7603 Y19.8371 
G01 X32.8150 Y19.8768 
G01 X32.9392 Y20.0010 
G01 X33.0424 Y20.1431 
G01 X33.1221 Y20.2996 
G01 X33.1764 Y20.4667 
G01 X33.2039 Y20.6402 
G01 X33.2039 Y20.8158 
G01 X33.1764 Y20.9893 
G01 X33.1221 Y21.1564 
G01 X33.0424 Y21.3129 
G01 X32.9392 Y21.4550 
G01 X32.8150 Y21.5792 
G01 X32.6729 Y21.6824 
G01 X32.5164 Y21.7621 
G01 X32.4223 Y21.7927 
G01 X32.4223 Y36.3882 
G01 X32.3965 Y36.5181 
G01 X32.3458 Y36.6405 
G01 X32.2722 Y36.7506 
G01 X32.1786 Y36.8442 
G01 X31.1626 Y37.8602 
G01 X31.0525 Y37.9338 
G01 X30.9301 Y37.9845 
G01 X30.8002 Y38.0103 
G01 X29.8451 Y38.0103 
G01 X29.4133 Y38.4421 
G01 X28.4987 Y38.4421 
G01 X27.8519 Y37.7953 
G01 X27.8519 Y36.8807 
G01 X28.4987 Y36.2339 
G01 X29.4133 Y36.2339 
G01 X29.8451 Y36.6657 
G01 X30.4555 Y36.6657 
G01 X31.0777 Y36.0435 
G01 X31.0777 Y21.2032 
G01 X31.0539 Y21.1564 
G01 X30.9996 Y20.9893 
G01 X30.9721 Y20.8158 
G01 X30.9721 Y20.6402 
G01 X30.9996 Y20.4667 
G01 X31.0539 Y20.2996 
G01 X31.1336 Y20.1431 
G01 X31.2368 Y20.0010 
G01 X31.3610 Y19.8768 
G01 X31.4157 Y19.8371 
G01 X31.4157 Y17.4426 
G01 X31.4156 Y17.3763 
G01 X31.4284 Y17.3121 
G01 X31.4414 Y17.2464 
G01 X31.4668 Y17.1850 
G01 X31.4920 Y17.1240 
G01 X31.5291 Y17.0684 
G01 X31.5655 Y17.0138 
G01 X31.6122 Y16.9670 
G01 X31.6590 Y16.9201 
G01 X31.7139 Y16.8834 
G01 X31.7691 Y16.8465 
G01 X31.8296 Y16.8213 
G01 X31.8914 Y16.7957 
G01 X31.9554 Y16.7829 
G01 X32.0213 Y16.7697 
G01 X32.0874 Y16.7697 
G01 X32.1537 Y16.7696 
G01 X32.2185 Y16.7825 
G01 X32.5780 Y16.8537 
G01 X41.8861 Y16.8537 
G01 X41.9284 Y16.8507 
G01 X41.9522 Y16.8537 
G01 X41.9762 Y16.8537 
G01 X42.0177 Y16.8620 
G01 X42.0598 Y16.8673 
G01 X42.0826 Y16.8749 
G01 X42.1061 Y16.8795 
G01 X42.1452 Y16.8957 
G01 X42.8446 Y17.1289 
G01 X42.8681 Y17.1335 
G01 X42.9072 Y17.1498 
G01 X42.9474 Y17.1631 
G01 X42.9683 Y17.1750 
G01 X42.9905 Y17.1842 
G01 X43.0257 Y17.2077 
G01 X43.0625 Y17.2287 
G01 X43.0806 Y17.2445 
G01 X43.1006 Y17.2578 
G01 X43.1305 Y17.2877 
G01 X43.1625 Y17.3155 
G01 X43.1772 Y17.3345 
G01 X43.1942 Y17.3514 
G01 X43.2177 Y17.3866 
G01 X43.2437 Y17.4201 
G01 X43.2544 Y17.4416 
G01 X43.2678 Y17.4615 
G01 X43.2840 Y17.5007 
G01 X43.3029 Y17.5386 
G01 X43.3093 Y17.5617 
G01 X43.3185 Y17.5839 
G01 X43.3267 Y17.6254 
G01 X43.3379 Y17.6663 
G01 X43.3396 Y17.6902 
G01 X43.3443 Y17.7138 
G01 X43.3443 Y17.7561 
G01 X43.3473 Y17.7984 
G01 X43.3443 Y17.8222 
G01 X43.3443 Y19.9062 
G01 X43.4392 Y20.0010 
G01 X43.5424 Y20.1431 
G01 X43.6221 Y20.2996 
G01 X43.6764 Y20.4667 
G01 X43.7039 Y20.6402 
G01 X43.7039 Y20.8158 
G01 X43.6764 Y20.9893 
G01 X43.6221 Y21.1564 
G01 X43.5424 Y21.3129 
G01 X43.4392 Y21.4550 
G01 X43.3443 Y21.5498 
G01 X43.3443 Y22.8355 
G01 X44.9825 Y24.4737 
G01 X47.7275 Y24.4737 
G01 X48.6037 Y23.5975 
G01 X48.6037 Y7.4114  
G01 X46.4780 Y5.4983  
G01 X43.2509 Y5.4983  
G01 X43.2678 Y5.5235  
G01 X43.3185 Y5.6459  
G01 X43.3443 Y5.7758  
G01 X43.3443 Y8.2222  
G01 X43.4392 Y8.3170  
G01 X43.5424 Y8.4591  
G01 X43.6221 Y8.6156  
G01 X43.6764 Y8.7827  
G01 X43.7039 Y8.9562  
G01 X43.7039 Y9.1318  
G01 X43.6764 Y9.3053  
G01 X43.6221 Y9.4724  
G01 X43.5424 Y9.6289  
G01 X43.4392 Y9.7710  
G01 X43.3150 Y9.8952  
G01 X43.1729 Y9.9984  
G01 X43.0164 Y10.0781 
G01 X42.8493 Y10.1324 
G01 X42.6758 Y10.1599 
G01 X42.5002 Y10.1599 
G01 X42.3267 Y10.1324 
G01 X42.1596 Y10.0781 
G01 X42.0031 Y9.9984  
G01 X41.8610 Y9.8952  
G01 X41.7368 Y9.7710  
G01 X41.6336 Y9.6289  
G01 X41.5539 Y9.4724  
G01 X41.4996 Y9.3053  
G01 X41.4721 Y9.1318  
G01 X41.4721 Y8.9562  
G01 X41.4996 Y8.7827  
G01 X41.5539 Y8.6156  
G01 X41.6336 Y8.4591  
G01 X41.7368 Y8.3170  
G01 X41.8610 Y8.1928  
G01 X41.9997 Y8.0921  
G01 X41.9997 Y6.1205  
G01 X41.3775 Y5.4983  
G01 X35.3305 Y5.4983  
G01 X35.2266 Y5.6022  
G01 X32.7603 Y8.0685  
G01 X32.7603 Y8.1531  
G01 X32.8150 Y8.1928  
G01 X32.9392 Y8.3170  
G01 X33.0424 Y8.4591  
G01 X33.1221 Y8.6156  
G01 X33.1764 Y8.7827  
G01 X33.2039 Y8.9562  
G01 X33.2039 Y9.1318  
G01 X33.1764 Y9.3053  
G01 X33.1221 Y9.4724  
G01 X33.0424 Y9.6289  
G01 X32.9392 Y9.7710  
G01 X32.8150 Y9.8952  
G01 X32.6729 Y9.9984  
G01 X32.5164 Y10.0781 
G01 X32.3493 Y10.1324 
G01 X32.1758 Y10.1599 
G01 X32.0002 Y10.1599 
G01 X31.8267 Y10.1324 
G01 X31.6596 Y10.0781 
G01 X31.5031 Y9.9984  
G01 X31.3610 Y9.8952  
G01 X31.2368 Y9.7710  
G01 X31.1336 Y9.6289  
G01 X31.0539 Y9.4724  
G01 X30.9996 Y9.3053  
G01 X30.9721 Y9.1318  
G01 X30.9721 Y8.9562  
G01 X30.9996 Y8.7827  
G01 X31.0539 Y8.6156  
G01 X31.1336 Y8.4591  
G01 X31.2368 Y8.3170  
G01 X31.3610 Y8.1928  
G01 X31.4157 Y8.1531  
G01 X31.4157 Y7.7238  
G01 X31.4415 Y7.5939  
G01 X31.4922 Y7.4715  
G01 X31.5658 Y7.3614  
G01 X33.1749 Y5.7523  
G01 X25.6785 Y5.7523  
G01 X23.5323 Y7.8985  
G01 X23.5323 Y9.8866  
G01 X23.8879 Y10.2422 
G01 X23.8879 Y11.0938 
G01 X23.2858 Y11.6959 
G01 X22.4342 Y11.6959 
G01 X22.0786 Y11.3403 
G01 X21.1014 Y11.3403 
G01 X20.7458 Y11.6959 
G01 X19.8942 Y11.6959 
G01 X19.5386 Y11.3403 
G01 X6.9858  Y11.3403 
G01 X6.9770  Y11.3492 
G01 X6.8349  Y11.4524 
G01 X6.6784  Y11.5321 
G01 X6.5113  Y11.5864 
G01 X6.3378  Y11.6139 
G01 X6.1622  Y11.6139 
G01 X5.9887  Y11.5864 
G01 X5.8216  Y11.5321 
G01 X5.6651  Y11.4524 
G01 X5.5230  Y11.3492 
G01 X5.3988  Y11.2250 
G01 X5.3591  Y11.1703 
G01 X3.7783  Y11.1703 
G01 X2.4503  Y12.6974 
G01 X2.4503  Y24.0309 
G01 X2.5258  Y23.9554 
G01 X2.6194  Y23.8618 
G01 X2.7295  Y23.7882 
G01 X2.8519  Y23.7375 
G01 X2.9818  Y23.7117 
G01 X5.4582  Y23.7117 
G01 X5.5230  Y23.6468 
G01 X5.6651  Y23.5436 
G01 X5.8216  Y23.4639 
G01 X5.9887  Y23.4096 
G01 X6.1622  Y23.3821 
G01 X6.3378  Y23.3821 
G01 X6.5113  Y23.4096 
G01 X6.6784  Y23.4639 
G01 X6.8349  Y23.5436 
G01 X6.9770  Y23.6468 
G01 X7.1012  Y23.7710 
G01 X7.2044  Y23.9131 
G01 X7.2841  Y24.0696 
G01 X7.3384  Y24.2367 
G01 X7.3659  Y24.4102 
G01 X7.3659  Y24.5858 
G01 X7.3384  Y24.7593 
G01 X7.2841  Y24.9264 
G01 X7.2044  Y25.0829 
G01 X7.1012  Y25.2250 
G01 X6.9770  Y25.3492 
G01 X6.8349  Y25.4524 
G01 X6.6784  Y25.5321 
G01 X6.5113  Y25.5864 
G01 X6.3378  Y25.6139 
G01 X6.1622  Y25.6139 
G01 X5.9887  Y25.5864 
G01 X5.8216  Y25.5321 
G01 X5.6651  Y25.4524 
G01 X5.5230  Y25.3492 
G01 X5.3988  Y25.2250 
G01 X5.2956  Y25.0829 
G01 X5.2821  Y25.0563 
G01 X3.3265  Y25.0563 
G01 X2.4503  Y25.9325 
G01 X2.4503  Y40.0517 
G01 X5.3591  Y40.0517 
G01 X5.3988  Y39.9970 
G01 X5.5230  Y39.8728 
G01 X5.6651  Y39.7696 
G01 X5.8216  Y39.6899 
G01 X5.9887  Y39.6356 
G01 X6.1622  Y39.6081 
G01 X6.3378  Y39.6081 
G01 X6.5113  Y39.6356 
G01 X6.6784  Y39.6899 
G01 X6.8349  Y39.7696 
G01 X6.9770  Y39.8728 
G01 X7.1012  Y39.9970 
G01 X7.2044  Y40.1391 
G01 X7.2841  Y40.2956 
G01 X7.3384  Y40.4627 
G01 X7.3659  Y40.6362 
G01 X7.3659  Y40.8118 
G01 X7.3384  Y40.9853 
G01 X7.2841  Y41.1524 
G01 X7.2044  Y41.3089 
G01 X7.1012  Y41.4510 
G01 X6.9770  Y41.5752 
G01 X6.8349  Y41.6784 
G01 X6.6784  Y41.7581 
G01 X6.5113  Y41.8124 
G01 X6.3378  Y41.8399 
G01 X6.1622  Y41.8399 
G01 X5.9887  Y41.8124 
G01 X5.8216  Y41.7581 
G01 X5.6651  Y41.6784 
G01 X5.5230  Y41.5752 
G01 X5.3988  Y41.4510 
G01 X5.3591  Y41.3963 
G01 X2.4503  Y41.3963 
G01 X2.4503  Y52.8075 
G01 X3.6945  Y54.0517 
G01 X5.3591  Y54.0517 
G01 X5.3988  Y53.9970 
G01 X5.5230  Y53.8728 
G01 X5.6651  Y53.7696 
G01 X5.8216  Y53.6899 
G01 X5.9887  Y53.6356 
G01 X6.1622  Y53.6081 
G01 X6.3378  Y53.6081 
G01 X6.5113  Y53.6356 
G01 X6.6784  Y53.6899 
G01 X6.8349  Y53.7696 
G01 X6.9770  Y53.8728 
G01 X7.1012  Y53.9970 
G01 X7.2044  Y54.1391 
G01 X7.2841  Y54.2956 
G01 X7.3384  Y54.4627 
G01 X7.3659  Y54.6362 
G01 X7.3659  Y54.8118 
G01 X7.3384  Y54.9853 
G01 X7.2841  Y55.1524 
G01 X7.2044  Y55.3089 
G01 X7.1012  Y55.4510 
G01 X6.9770  Y55.5752 
G01 X6.8349  Y55.6784 
G01 X6.6784  Y55.7581 
G01 X6.5113  Y55.8124 
G01 X6.3378  Y55.8399 
G01 X6.1622  Y55.8399 
G01 X5.9887  Y55.8124 
G01 X5.8216  Y55.7581 
G01 X5.6651  Y55.6784 
G01 X5.5230  Y55.5752 
G01 X5.3988  Y55.4510 
G01 X5.3591  Y55.3963 
G01 X3.3498  Y55.3963 
G01 X3.2199  Y55.3705 
G01 X3.0975  Y55.3198 
G01 X2.9874  Y55.2462 
G01 X1.3494  Y53.6082 
G01 X1.2558  Y53.5146 
G01 X1.1822  Y53.4045 
G01 X1.1315  Y53.2821 
G01 X1.1057  Y53.1522 
G01 X1.1057  Y12.4694 
G01 X1.1027  Y12.4267 
G01 X1.1057  Y12.4033 
G01 X1.1057  Y12.3798 
G01 X1.1140  Y12.3378 
G01 X1.1195  Y12.2953 
G01 X1.1269  Y12.2730 
G01 X1.1315  Y12.2499 
G01 X1.1479  Y12.2104 
G01 X1.1615  Y12.1698 
G01 X1.1732  Y12.1493 
G01 X1.1822  Y12.1275 
G01 X1.2060  Y12.0920 
G01 X1.2272  Y12.0548 
G01 X1.2427  Y12.0370 
G01 X1.2558  Y12.0174 
G01 X1.2861  Y11.9872 
G01 X2.9367  Y10.0890 
G01 X2.9498  Y10.0694 
G01 X2.9801  Y10.0392 
G01 X3.0081  Y10.0069 
G01 X3.0268  Y9.9925  
G01 X3.0434  Y9.9758  
G01 X3.0790  Y9.9520  
G01 X3.1129  Y9.9258  
G01 X3.1340  Y9.9153  
G01 X3.1535  Y9.9022  
G01 X3.1931  Y9.8858  
G01 X3.2314  Y9.8667  
G01 X3.2541  Y9.8606  
G01 X3.2759  Y9.8515  
G01 X3.3179  Y9.8432  
G01 X3.3592  Y9.8319  
G01 X3.3827  Y9.8303  
G01 X3.4058  Y9.8257  
G01 X3.4486  Y9.8257  
G01 X3.4913  Y9.8227  
G01 X3.5147  Y9.8257  
G01 X5.3591  Y9.8257  
G01 X5.3988  Y9.7710  
G00 Z2.5400  
G00 X5.3988  Y13.2710 
G01 Z-0.1778 F254   
G01 X5.5230  Y13.1468 F508   
G01 X5.6651  Y13.0436 
G01 X5.8216  Y12.9639 
G01 X5.9887  Y12.9096 
G01 X6.1622  Y12.8821 
G01 X6.3378  Y12.8821 
G01 X6.5113  Y12.9096 
G01 X6.6784  Y12.9639 
G01 X6.8349  Y13.0436 
G01 X6.9770  Y13.1468 
G01 X7.1012  Y13.2710 
G01 X7.2044  Y13.4131 
G01 X7.2841  Y13.5696 
G01 X7.3384  Y13.7367 
G01 X7.3659  Y13.9102 
G01 X7.3659  Y14.0858 
G01 X7.3384  Y14.2593 
G01 X7.2841  Y14.4264 
G01 X7.2044  Y14.5829 
G01 X7.1012  Y14.7250 
G01 X6.9770  Y14.8492 
G01 X6.8349  Y14.9524 
G01 X6.6784  Y15.0321 
G01 X6.5113  Y15.0864 
G01 X6.3378  Y15.1139 
G01 X6.1622  Y15.1139 
G01 X5.9887  Y15.0864 
G01 X5.8216  Y15.0321 
G01 X5.6651  Y14.9524 
G01 X5.5230  Y14.8492 
G01 X5.3988  Y14.7250 
G01 X5.2956  Y14.5829 
G01 X5.2159  Y14.4264 
G01 X5.1616  Y14.2593 
G01 X5.1341  Y14.0858 
G01 X5.1341  Y13.9102 
G01 X5.1616  Y13.7367 
G01 X5.2159  Y13.5696 
G01 X5.2956  Y13.4131 
G01 X5.3988  Y13.2710 
G00 Z2.5400  
G00 X5.3988  Y16.7710 
G01 Z-0.1778 F254   
G01 X5.5230  Y16.6468 F508   
G01 X5.6651  Y16.5436 
G01 X5.8216  Y16.4639 
G01 X5.9887  Y16.4096 
G01 X6.1622  Y16.3821 
G01 X6.3378  Y16.3821 
G01 X6.5113  Y16.4096 
G01 X6.6784  Y16.4639 
G01 X6.8349  Y16.5436 
G01 X6.9770  Y16.6468 
G01 X7.1012  Y16.7710 
G01 X7.2044  Y16.9131 
G01 X7.2841  Y17.0696 
G01 X7.3384  Y17.2367 
G01 X7.3659  Y17.4102 
G01 X7.3659  Y17.5858 
G01 X7.3384  Y17.7593 
G01 X7.2841  Y17.9264 
G01 X7.2044  Y18.0829 
G01 X7.1012  Y18.2250 
G01 X6.9770  Y18.3492 
G01 X6.8349  Y18.4524 
G01 X6.6784  Y18.5321 
G01 X6.5113  Y18.5864 
G01 X6.3378  Y18.6139 
G01 X6.1622  Y18.6139 
G01 X5.9887  Y18.5864 
G01 X5.8216  Y18.5321 
G01 X5.6651  Y18.4524 
G01 X5.5230  Y18.3492 
G01 X5.3988  Y18.2250 
G01 X5.2956  Y18.0829 
G01 X5.2159  Y17.9264 
G01 X5.1616  Y17.7593 
G01 X5.1341  Y17.5858 
G01 X5.1341  Y17.4102 
G01 X5.1616  Y17.2367 
G01 X5.2159  Y17.0696 
G01 X5.2956  Y16.9131 
G01 X5.3988  Y16.7710 
G00 Z2.5400  
G00 X5.3988  Y20.2710 
G01 Z-0.1778 F254   
G01 X5.5230  Y20.1468 F508   
G01 X5.6651  Y20.0436 
G01 X5.8216  Y19.9639 
G01 X5.9887  Y19.9096 
G01 X6.1622  Y19.8821 
G01 X6.3378  Y19.8821 
G01 X6.5113  Y19.9096 
G01 X6.6784  Y19.9639 
G01 X6.8349  Y20.0436 
G01 X6.9770  Y20.1468 
G01 X7.1012  Y20.2710 
G01 X7.2044  Y20.4131 
G01 X7.2841  Y20.5696 
G01 X7.3384  Y20.7367 
G01 X7.3659  Y20.9102 
G01 X7.3659  Y21.0858 
G01 X7.3384  Y21.2593 
G01 X7.2841  Y21.4264 
G01 X7.2044  Y21.5829 
G01 X7.1012  Y21.7250 
G01 X6.9770  Y21.8492 
G01 X6.8349  Y21.9524 
G01 X6.6784  Y22.0321 
G01 X6.5113  Y22.0864 
G01 X6.3378  Y22.1139 
G01 X6.1622  Y22.1139 
G01 X5.9887  Y22.0864 
G01 X5.8216  Y22.0321 
G01 X5.6651  Y21.9524 
G01 X5.5230  Y21.8492 
G01 X5.3988  Y21.7250 
G01 X5.2956  Y21.5829 
G01 X5.2159  Y21.4264 
G01 X5.1616  Y21.2593 
G01 X5.1341  Y21.0858 
G01 X5.1341  Y20.9102 
G01 X5.1616  Y20.7367 
G01 X5.2159  Y20.5696 
G01 X5.2956  Y20.4131 
G01 X5.3988  Y20.2710 
G00 Z2.5400  
G00 X5.3988  Y27.2710 
G01 Z-0.1778 F254   
G01 X5.5230  Y27.1468 F508   
G01 X5.6651  Y27.0436 
G01 X5.8216  Y26.9639 
G01 X5.9887  Y26.9096 
G01 X6.1622  Y26.8821 
G01 X6.3378  Y26.8821 
G01 X6.5113  Y26.9096 
G01 X6.6784  Y26.9639 
G01 X6.8349  Y27.0436 
G01 X6.9770  Y27.1468 
G01 X7.1012  Y27.2710 
G01 X7.2044  Y27.4131 
G01 X7.2841  Y27.5696 
G01 X7.3384  Y27.7367 
G01 X7.3659  Y27.9102 
G01 X7.3659  Y28.0858 
G01 X7.3384  Y28.2593 
G01 X7.2841  Y28.4264 
G01 X7.2044  Y28.5829 
G01 X7.1012  Y28.7250 
G01 X6.9770  Y28.8492 
G01 X6.8349  Y28.9524 
G01 X6.6784  Y29.0321 
G01 X6.5113  Y29.0864 
G01 X6.3378  Y29.1139 
G01 X6.1622  Y29.1139 
G01 X5.9887  Y29.0864 
G01 X5.8216  Y29.0321 
G01 X5.6651  Y28.9524 
G01 X5.5230  Y28.8492 
G01 X5.3988  Y28.7250 
G01 X5.2956  Y28.5829 
G01 X5.2159  Y28.4264 
G01 X5.1616  Y28.2593 
G01 X5.1341  Y28.0858 
G01 X5.1341  Y27.9102 
G01 X5.1616  Y27.7367 
G01 X5.2159  Y27.5696 
G01 X5.2956  Y27.4131 
G01 X5.3988  Y27.2710 
G00 Z2.5400  
G00 X5.3988  Y32.9970 
G01 Z-0.1778 F254   
G01 X5.5230  Y32.8728 F508   
G01 X5.6651  Y32.7696 
G01 X5.8216  Y32.6899 
G01 X5.9887  Y32.6356 
G01 X6.1622  Y32.6081 
G01 X6.3378  Y32.6081 
G01 X6.5113  Y32.6356 
G01 X6.6784  Y32.6899 
G01 X6.8349  Y32.7696 
G01 X6.9770  Y32.8728 
G01 X7.1012  Y32.9970 
G01 X7.2044  Y33.1391 
G01 X7.2841  Y33.2956 
G01 X7.3384  Y33.4627 
G01 X7.3659  Y33.6362 
G01 X7.3659  Y33.8118 
G01 X7.3384  Y33.9853 
G01 X7.2841  Y34.1524 
G01 X7.2044  Y34.3089 
G01 X7.1012  Y34.4510 
G01 X6.9770  Y34.5752 
G01 X6.8349  Y34.6784 
G01 X6.6784  Y34.7581 
G01 X6.5113  Y34.8124 
G01 X6.3378  Y34.8399 
G01 X6.1622  Y34.8399 
G01 X5.9887  Y34.8124 
G01 X5.8216  Y34.7581 
G01 X5.6651  Y34.6784 
G01 X5.5230  Y34.5752 
G01 X5.3988  Y34.4510 
G01 X5.2956  Y34.3089 
G01 X5.2159  Y34.1524 
G01 X5.1616  Y33.9853 
G01 X5.1341  Y33.8118 
G01 X5.1341  Y33.6362 
G01 X5.1616  Y33.4627 
G01 X5.2159  Y33.2956 
G01 X5.2956  Y33.1391 
G01 X5.3988  Y32.9970 
G00 Z2.5400  
G00 X5.3988  Y36.4970 
G01 Z-0.1778 F254   
G01 X5.5230  Y36.3728 F508   
G01 X5.6651  Y36.2696 
G01 X5.8216  Y36.1899 
G01 X5.9887  Y36.1356 
G01 X6.1622  Y36.1081 
G01 X6.3378  Y36.1081 
G01 X6.5113  Y36.1356 
G01 X6.6784  Y36.1899 
G01 X6.8349  Y36.2696 
G01 X6.9770  Y36.3728 
G01 X7.1012  Y36.4970 
G01 X7.2044  Y36.6391 
G01 X7.2841  Y36.7956 
G01 X7.3384  Y36.9627 
G01 X7.3659  Y37.1362 
G01 X7.3659  Y37.3118 
G01 X7.3384  Y37.4853 
G01 X7.2841  Y37.6524 
G01 X7.2044  Y37.8089 
G01 X7.1012  Y37.9510 
G01 X6.9770  Y38.0752 
G01 X6.8349  Y38.1784 
G01 X6.6784  Y38.2581 
G01 X6.5113  Y38.3124 
G01 X6.3378  Y38.3399 
G01 X6.1622  Y38.3399 
G01 X5.9887  Y38.3124 
G01 X5.8216  Y38.2581 
G01 X5.6651  Y38.1784 
G01 X5.5230  Y38.0752 
G01 X5.3988  Y37.9510 
G01 X5.2956  Y37.8089 
G01 X5.2159  Y37.6524 
G01 X5.1616  Y37.4853 
G01 X5.1341  Y37.3118 
G01 X5.1341  Y37.1362 
G01 X5.1616  Y36.9627 
G01 X5.2159  Y36.7956 
G01 X5.2956  Y36.6391 
G01 X5.3988  Y36.4970 
G00 Z2.5400  
G00 X5.3988  Y43.4970 
G01 Z-0.1778 F254   
G01 X5.5230  Y43.3728 F508   
G01 X5.6651  Y43.2696 
G01 X5.8216  Y43.1899 
G01 X5.9887  Y43.1356 
G01 X6.1622  Y43.1081 
G01 X6.3378  Y43.1081 
G01 X6.5113  Y43.1356 
G01 X6.6784  Y43.1899 
G01 X6.8349  Y43.2696 
G01 X6.9770  Y43.3728 
G01 X7.1012  Y43.4970 
G01 X7.1409  Y43.5517 
G01 X20.1435 Y43.5517 
G01 X20.2547 Y43.5156 
G01 X20.4282 Y43.4881 
G01 X20.6038 Y43.4881 
G01 X20.7773 Y43.5156 
G01 X20.9444 Y43.5699 
G01 X21.1009 Y43.6496 
G01 X21.2430 Y43.7528 
G01 X21.3672 Y43.8770 
G01 X21.4704 Y44.0191 
G01 X21.5501 Y44.1756 
G01 X21.6044 Y44.3427 
G01 X21.6319 Y44.5162 
G01 X21.6319 Y44.6918 
G01 X21.6044 Y44.8653 
G01 X21.5501 Y45.0324 
G01 X21.4704 Y45.1889 
G01 X21.3672 Y45.3310 
G01 X21.2430 Y45.4552 
G01 X21.1009 Y45.5584 
G01 X20.9444 Y45.6381 
G01 X20.7773 Y45.6924 
G01 X20.6038 Y45.7199 
G01 X20.4282 Y45.7199 
G01 X20.2547 Y45.6924 
G01 X20.0876 Y45.6381 
G01 X19.9311 Y45.5584 
G01 X19.7890 Y45.4552 
G01 X19.6648 Y45.3310 
G01 X19.5616 Y45.1889 
G01 X19.4819 Y45.0324 
G01 X19.4377 Y44.8963 
G01 X7.1409  Y44.8963 
G01 X7.1012  Y44.9510 
G01 X6.9770  Y45.0752 
G01 X6.8349  Y45.1784 
G01 X6.6784  Y45.2581 
G01 X6.5113  Y45.3124 
G01 X6.3378  Y45.3399 
G01 X6.1622  Y45.3399 
G01 X5.9887  Y45.3124 
G01 X5.8216  Y45.2581 
G01 X5.6651  Y45.1784 
G01 X5.5230  Y45.0752 
G01 X5.3988  Y44.9510 
G01 X5.2956  Y44.8089 
G01 X5.2159  Y44.6524 
G01 X5.1616  Y44.4853 
G01 X5.1341  Y44.3118 
G01 X5.1341  Y44.1362 
G01 X5.1616  Y43.9627 
G01 X5.2159  Y43.7956 
G01 X5.2956  Y43.6391 
G01 X5.3988  Y43.4970 
G00 Z2.5400  
G00 X5.3988  Y46.9970 
G01 Z-0.1778 F254   
G01 X5.5230  Y46.8728 F508   
G01 X5.6651  Y46.7696 
G01 X5.8216  Y46.6899 
G01 X5.9887  Y46.6356 
G01 X6.1622  Y46.6081 
G01 X6.3378  Y46.6081 
G01 X6.5113  Y46.6356 
G01 X6.6784  Y46.6899 
G01 X6.8349  Y46.7696 
G01 X6.9770  Y46.8728 
G01 X7.1012  Y46.9970 
G01 X7.2044  Y47.1391 
G01 X7.2841  Y47.2956 
G01 X7.3384  Y47.4627 
G01 X7.3659  Y47.6362 
G01 X7.3659  Y47.8118 
G01 X7.3384  Y47.9853 
G01 X7.2841  Y48.1524 
G01 X7.2044  Y48.3089 
G01 X7.1012  Y48.4510 
G01 X6.9770  Y48.5752 
G01 X6.8349  Y48.6784 
G01 X6.6784  Y48.7581 
G01 X6.5113  Y48.8124 
G01 X6.3378  Y48.8399 
G01 X6.1622  Y48.8399 
G01 X5.9887  Y48.8124 
G01 X5.8216  Y48.7581 
G01 X5.6651  Y48.6784 
G01 X5.5230  Y48.5752 
G01 X5.3988  Y48.4510 
G01 X5.2956  Y48.3089 
G01 X5.2159  Y48.1524 
G01 X5.1616  Y47.9853 
G01 X5.1341  Y47.8118 
G01 X5.1341  Y47.6362 
G01 X5.1616  Y47.4627 
G01 X5.2159  Y47.2956 
G01 X5.2956  Y47.1391 
G01 X5.3988  Y46.9970 
G00 Z2.5400  
G00 X5.3988  Y50.4970 
G01 Z-0.1778 F254   
G01 X5.5230  Y50.3728 F508   
G01 X5.6651  Y50.2696 
G01 X5.8216  Y50.1899 
G01 X5.9887  Y50.1356 
G01 X6.1622  Y50.1081 
G01 X6.3378  Y50.1081 
G01 X6.5113  Y50.1356 
G01 X6.6784  Y50.1899 
G01 X6.8349  Y50.2696 
G01 X6.9770  Y50.3728 
G01 X7.1012  Y50.4970 
G01 X7.2044  Y50.6391 
G01 X7.2841  Y50.7956 
G01 X7.3384  Y50.9627 
G01 X7.3659  Y51.1362 
G01 X7.3659  Y51.3118 
G01 X7.3384  Y51.4853 
G01 X7.2841  Y51.6524 
G01 X7.2044  Y51.8089 
G01 X7.1012  Y51.9510 
G01 X6.9770  Y52.0752 
G01 X6.8349  Y52.1784 
G01 X6.6784  Y52.2581 
G01 X6.5113  Y52.3124 
G01 X6.3378  Y52.3399 
G01 X6.1622  Y52.3399 
G01 X5.9887  Y52.3124 
G01 X5.8216  Y52.2581 
G01 X5.6651  Y52.1784 
G01 X5.5230  Y52.0752 
G01 X5.3988  Y51.9510 
G01 X5.2956  Y51.8089 
G01 X5.2159  Y51.6524 
G01 X5.1616  Y51.4853 
G01 X5.1341  Y51.3118 
G01 X5.1341  Y51.1362 
G01 X5.1616  Y50.9627 
G01 X5.2159  Y50.7956 
G01 X5.2956  Y50.6391 
G01 X5.3988  Y50.4970 
G00 Z2.5400  
G00 X5.3988  Y57.4970 
G01 Z-0.1778 F254   
G01 X5.5230  Y57.3728 F508   
G01 X5.6651  Y57.2696 
G01 X5.8216  Y57.1899 
G01 X5.9887  Y57.1356 
G01 X6.1622  Y57.1081 
G01 X6.3378  Y57.1081 
G01 X6.5113  Y57.1356 
G01 X6.6784  Y57.1899 
G01 X6.8349  Y57.2696 
G01 X6.9770  Y57.3728 
G01 X7.1012  Y57.4970 
G01 X7.2044  Y57.6391 
G01 X7.2841  Y57.7956 
G01 X7.3384  Y57.9627 
G01 X7.3659  Y58.1362 
G01 X7.3659  Y58.3118 
G01 X7.3384  Y58.4853 
G01 X7.2841  Y58.6524 
G01 X7.2044  Y58.8089 
G01 X7.1012  Y58.9510 
G01 X6.9770  Y59.0752 
G01 X6.8349  Y59.1784 
G01 X6.6784  Y59.2581 
G01 X6.5113  Y59.3124 
G01 X6.3378  Y59.3399 
G01 X6.1622  Y59.3399 
G01 X5.9887  Y59.3124 
G01 X5.8216  Y59.2581 
G01 X5.6651  Y59.1784 
G01 X5.5230  Y59.0752 
G01 X5.3988  Y58.9510 
G01 X5.2956  Y58.8089 
G01 X5.2159  Y58.6524 
G01 X5.1616  Y58.4853 
G01 X5.1341  Y58.3118 
G01 X5.1341  Y58.1362 
G01 X5.1616  Y57.9627 
G01 X5.2159  Y57.7956 
G01 X5.2956  Y57.6391 
G01 X5.3988  Y57.4970 
G00 Z2.5400  
G00 X19.7890 Y56.6312 
G01 Z-0.1778 F254   
G01 X19.6648 Y56.5070 F508   
G01 X19.5616 Y56.3649 
G01 X19.4819 Y56.2084 
G01 X19.4276 Y56.0413 
G01 X19.4001 Y55.8678 
G01 X19.4001 Y55.6922 
G01 X19.4276 Y55.5187 
G01 X19.4819 Y55.3516 
G01 X19.5616 Y55.1951 
G01 X19.6648 Y55.0530 
G01 X19.7890 Y54.9288 
G01 X19.9311 Y54.8256 
G01 X20.0876 Y54.7459 
G01 X20.2547 Y54.6916 
G01 X20.4282 Y54.6641 
G01 X20.6038 Y54.6641 
G01 X20.7773 Y54.6916 
G01 X20.9444 Y54.7459 
G01 X21.1009 Y54.8256 
G01 X21.2430 Y54.9288 
G01 X21.3672 Y55.0530 
G01 X21.4704 Y55.1951 
G01 X21.5501 Y55.3516 
G01 X21.6044 Y55.5187 
G01 X21.6319 Y55.6922 
G01 X21.6319 Y55.8678 
G01 X21.6044 Y56.0413 
G01 X21.5501 Y56.2084 
G01 X21.4704 Y56.3649 
G01 X21.3672 Y56.5070 
G01 X21.2430 Y56.6312 
G01 X21.1009 Y56.7344 
G01 X20.9444 Y56.8141 
G01 X20.7773 Y56.8684 
G01 X20.6038 Y56.8959 
G01 X20.4282 Y56.8959 
G01 X20.2547 Y56.8684 
G01 X20.0876 Y56.8141 
G01 X19.9311 Y56.7344 
G01 X19.7890 Y56.6312 
G00 Z2.5400  
G00 X23.2890 Y56.6312 
G01 Z-0.1778 F254   
G01 X23.1648 Y56.5070 F508   
G01 X23.0616 Y56.3649 
G01 X22.9819 Y56.2084 
G01 X22.9276 Y56.0413 
G01 X22.9001 Y55.8678 
G01 X22.9001 Y55.6922 
G01 X22.9276 Y55.5187 
G01 X22.9819 Y55.3516 
G01 X23.0616 Y55.1951 
G01 X23.1648 Y55.0530 
G01 X23.2890 Y54.9288 
G01 X23.4311 Y54.8256 
G01 X23.5876 Y54.7459 
G01 X23.7547 Y54.6916 
G01 X23.9282 Y54.6641 
G01 X24.1038 Y54.6641 
G01 X24.2773 Y54.6916 
G01 X24.4444 Y54.7459 
G01 X24.6009 Y54.8256 
G01 X24.7430 Y54.9288 
G01 X24.8672 Y55.0530 
G01 X24.9704 Y55.1951 
G01 X25.0501 Y55.3516 
G01 X25.1044 Y55.5187 
G01 X25.1319 Y55.6922 
G01 X25.1319 Y55.8678 
G01 X25.1044 Y56.0413 
G01 X25.0501 Y56.2084 
G01 X24.9704 Y56.3649 
G01 X24.8672 Y56.5070 
G01 X24.7430 Y56.6312 
G01 X24.6883 Y56.6709 
G01 X24.6883 Y58.7895 
G01 X25.9325 Y60.0337 
G01 X36.5515 Y60.0337 
G01 X37.4277 Y59.1575 
G01 X37.4277 Y56.7319 
G01 X37.2890 Y56.6312 
G01 X37.1648 Y56.5070 
G01 X37.0616 Y56.3649 
G01 X36.9819 Y56.2084 
G01 X36.9276 Y56.0413 
G01 X36.9001 Y55.8678 
G01 X36.9001 Y55.6922 
G01 X36.9276 Y55.5187 
G01 X36.9819 Y55.3516 
G01 X37.0616 Y55.1951 
G01 X37.1648 Y55.0530 
G01 X37.2890 Y54.9288 
G01 X37.4311 Y54.8256 
G01 X37.5876 Y54.7459 
G01 X37.7547 Y54.6916 
G01 X37.9282 Y54.6641 
G01 X38.1038 Y54.6641 
G01 X38.2773 Y54.6916 
G01 X38.4444 Y54.7459 
G01 X38.6009 Y54.8256 
G01 X38.7430 Y54.9288 
G01 X38.8672 Y55.0530 
G01 X38.9704 Y55.1951 
G01 X39.0501 Y55.3516 
G01 X39.1044 Y55.5187 
G01 X39.1319 Y55.6922 
G01 X39.1319 Y55.8678 
G01 X39.1044 Y56.0413 
G01 X39.0501 Y56.2084 
G01 X38.9704 Y56.3649 
G01 X38.8672 Y56.5070 
G01 X38.7723 Y56.6018 
G01 X38.7723 Y59.5022 
G01 X38.7465 Y59.6321 
G01 X38.6958 Y59.7545 
G01 X38.6222 Y59.8646 
G01 X38.5286 Y59.9582 
G01 X37.2586 Y61.2282 
G01 X37.1485 Y61.3018 
G01 X37.0261 Y61.3525 
G01 X36.8962 Y61.3783 
G01 X25.5878 Y61.3783 
G01 X25.4579 Y61.3525 
G01 X25.3355 Y61.3018 
G01 X25.2254 Y61.2282 
G01 X25.1318 Y61.1346 
G01 X23.4938 Y59.4966 
G01 X23.4202 Y59.3865 
G01 X23.3695 Y59.2641 
G01 X23.3437 Y59.1342 
G01 X23.3437 Y56.6709 
G01 X23.2890 Y56.6312 
G00 Z2.5400  
G00 X26.7890 Y56.6312 
G01 Z-0.1778 F254   
G01 X26.6648 Y56.5070 F508   
G01 X26.5616 Y56.3649 
G01 X26.4819 Y56.2084 
G01 X26.4276 Y56.0413 
G01 X26.4001 Y55.8678 
G01 X26.4001 Y55.6922 
G01 X26.4276 Y55.5187 
G01 X26.4819 Y55.3516 
G01 X26.5616 Y55.1951 
G01 X26.6648 Y55.0530 
G01 X26.7890 Y54.9288 
G01 X26.8437 Y54.8891 
G01 X26.8437 Y52.4278 
G01 X26.8695 Y52.2979 
G01 X26.9202 Y52.1755 
G01 X26.9938 Y52.0654 
G01 X29.4498 Y49.6094 
G01 X29.5434 Y49.5158 
G01 X29.6535 Y49.4422 
G01 X29.7759 Y49.3915 
G01 X29.9058 Y49.3657 
G01 X39.7135 Y49.3657 
G01 X40.8437 Y48.2355 
G01 X40.8437 Y45.4949 
G01 X40.7890 Y45.4552 
G01 X40.6648 Y45.3310 
G01 X40.5616 Y45.1889 
G01 X40.4819 Y45.0324 
G01 X40.4276 Y44.8653 
G01 X40.4001 Y44.6918 
G01 X40.4001 Y44.5162 
G01 X40.4276 Y44.3427 
G01 X40.4819 Y44.1756 
G01 X40.5616 Y44.0191 
G01 X40.6648 Y43.8770 
G01 X40.7890 Y43.7528 
G01 X40.9311 Y43.6496 
G01 X41.0876 Y43.5699 
G01 X41.2547 Y43.5156 
G01 X41.4282 Y43.4881 
G01 X41.6038 Y43.4881 
G01 X41.7773 Y43.5156 
G01 X41.9444 Y43.5699 
G01 X42.1009 Y43.6496 
G01 X42.2430 Y43.7528 
G01 X42.3672 Y43.8770 
G01 X42.4704 Y44.0191 
G01 X42.5501 Y44.1756 
G01 X42.6044 Y44.3427 
G01 X42.6319 Y44.5162 
G01 X42.6319 Y44.6918 
G01 X42.6044 Y44.8653 
G01 X42.5501 Y45.0324 
G01 X42.4704 Y45.1889 
G01 X42.3672 Y45.3310 
G01 X42.2430 Y45.4552 
G01 X42.1883 Y45.4949 
G01 X42.1883 Y48.5802 
G01 X42.1625 Y48.7101 
G01 X42.1118 Y48.8325 
G01 X42.0382 Y48.9426 
G01 X41.9446 Y49.0362 
G01 X40.4206 Y50.5602 
G01 X40.3105 Y50.6338 
G01 X40.1881 Y50.6845 
G01 X40.0582 Y50.7103 
G01 X30.2505 Y50.7103 
G01 X28.1883 Y52.7725 
G01 X28.1883 Y54.8891 
G01 X28.2430 Y54.9288 
G01 X28.3672 Y55.0530 
G01 X28.4704 Y55.1951 
G01 X28.5501 Y55.3516 
G01 X28.6044 Y55.5187 
G01 X28.6319 Y55.6922 
G01 X28.6319 Y55.8678 
G01 X28.6044 Y56.0413 
G01 X28.5501 Y56.2084 
G01 X28.4704 Y56.3649 
G01 X28.3672 Y56.5070 
G01 X28.2430 Y56.6312 
G01 X28.1009 Y56.7344 
G01 X27.9444 Y56.8141 
G01 X27.7773 Y56.8684 
G01 X27.6038 Y56.8959 
G01 X27.4282 Y56.8959 
G01 X27.2547 Y56.8684 
G01 X27.0876 Y56.8141 
G01 X26.9311 Y56.7344 
G01 X26.7890 Y56.6312 
G00 Z2.5400  
G00 X30.2890 Y56.6312 
G01 Z-0.1778 F254   
G01 X30.1648 Y56.5070 F508   
G01 X30.0616 Y56.3649 
G01 X29.9819 Y56.2084 
G01 X29.9276 Y56.0413 
G01 X29.9001 Y55.8678 
G01 X29.9001 Y55.6922 
G01 X29.9276 Y55.5187 
G01 X29.9819 Y55.3516 
G01 X30.0616 Y55.1951 
G01 X30.1648 Y55.0530 
G01 X30.2890 Y54.9288 
G01 X30.3835 Y54.8602 
G01 X30.4202 Y54.7715 
G01 X30.4938 Y54.6614 
G01 X33.2598 Y51.8954 
G01 X33.3534 Y51.8018 
G01 X33.4635 Y51.7282 
G01 X33.5859 Y51.6775 
G01 X33.7158 Y51.6517 
G01 X43.5582 Y51.6517 
G01 X43.6881 Y51.6775 
G01 X43.8105 Y51.7282 
G01 X43.9206 Y51.8018 
G01 X45.4446 Y53.3258 
G01 X45.5382 Y53.4194 
G01 X45.6118 Y53.5295 
G01 X45.6625 Y53.6519 
G01 X45.6883 Y53.7818 
G01 X45.6883 Y54.8891 
G01 X45.7430 Y54.9288 
G01 X45.8672 Y55.0530 
G01 X45.9704 Y55.1951 
G01 X46.0501 Y55.3516 
G01 X46.1044 Y55.5187 
G01 X46.1319 Y55.6922 
G01 X46.1319 Y55.8678 
G01 X46.1044 Y56.0413 
G01 X46.0501 Y56.2084 
G01 X45.9704 Y56.3649 
G01 X45.8672 Y56.5070 
G01 X45.7430 Y56.6312 
G01 X45.6009 Y56.7344 
G01 X45.4444 Y56.8141 
G01 X45.2773 Y56.8684 
G01 X45.1038 Y56.8959 
G01 X44.9282 Y56.8959 
G01 X44.7547 Y56.8684 
G01 X44.5876 Y56.8141 
G01 X44.4311 Y56.7344 
G01 X44.2890 Y56.6312 
G01 X44.1648 Y56.5070 
G01 X44.0616 Y56.3649 
G01 X43.9819 Y56.2084 
G01 X43.9276 Y56.0413 
G01 X43.9001 Y55.8678 
G01 X43.9001 Y55.6922 
G01 X43.9276 Y55.5187 
G01 X43.9819 Y55.3516 
G01 X44.0616 Y55.1951 
G01 X44.1648 Y55.0530 
G01 X44.2890 Y54.9288 
G01 X44.3437 Y54.8891 
G01 X44.3437 Y54.1265 
G01 X43.2135 Y52.9963 
G01 X34.0605 Y52.9963 
G01 X31.9246 Y55.1321 
G01 X31.9704 Y55.1951 
G01 X32.0501 Y55.3516 
G01 X32.1044 Y55.5187 
G01 X32.1319 Y55.6922 
G01 X32.1319 Y55.8678 
G01 X32.1044 Y56.0413 
G01 X32.0501 Y56.2084 
G01 X31.9704 Y56.3649 
G01 X31.8672 Y56.5070 
G01 X31.7430 Y56.6312 
G01 X31.6009 Y56.7344 
G01 X31.4444 Y56.8141 
G01 X31.2773 Y56.8684 
G01 X31.1038 Y56.8959 
G01 X30.9282 Y56.8959 
G01 X30.7547 Y56.8684 
G01 X30.5876 Y56.8141 
G01 X30.4311 Y56.7344 
G01 X30.2890 Y56.6312 
G00 Z2.5400  
G00 X33.7890 Y56.6312 
G01 Z-0.1778 F254   
G01 X33.6648 Y56.5070 F508   
G01 X33.5616 Y56.3649 
G01 X33.4819 Y56.2084 
G01 X33.4276 Y56.0413 
G01 X33.4001 Y55.8678 
G01 X33.4001 Y55.6922 
G01 X33.4276 Y55.5187 
G01 X33.4819 Y55.3516 
G01 X33.5616 Y55.1951 
G01 X33.6648 Y55.0530 
G01 X33.7890 Y54.9288 
G01 X33.9311 Y54.8256 
G01 X34.0876 Y54.7459 
G01 X34.2547 Y54.6916 
G01 X34.4282 Y54.6641 
G01 X34.6038 Y54.6641 
G01 X34.7773 Y54.6916 
G01 X34.9444 Y54.7459 
G01 X35.1009 Y54.8256 
G01 X35.2430 Y54.9288 
G01 X35.3672 Y55.0530 
G01 X35.4704 Y55.1951 
G01 X35.5501 Y55.3516 
G01 X35.6044 Y55.5187 
G01 X35.6319 Y55.6922 
G01 X35.6319 Y55.8678 
G01 X35.6044 Y56.0413 
G01 X35.5501 Y56.2084 
G01 X35.4704 Y56.3649 
G01 X35.3672 Y56.5070 
G01 X35.2430 Y56.6312 
G01 X35.1009 Y56.7344 
G01 X34.9444 Y56.8141 
G01 X34.7773 Y56.8684 
G01 X34.6038 Y56.8959 
G01 X34.4282 Y56.8959 
G01 X34.2547 Y56.8684 
G01 X34.0876 Y56.8141 
G01 X33.9311 Y56.7344 
G01 X33.7890 Y56.6312 
G00 Z2.5400  
G00 X40.7890 Y56.6312 
G01 Z-0.1778 F254   
G01 X40.6648 Y56.5070 F508   
G01 X40.5616 Y56.3649 
G01 X40.4819 Y56.2084 
G01 X40.4276 Y56.0413 
G01 X40.4001 Y55.8678 
G01 X40.4001 Y55.6922 
G01 X40.4276 Y55.5187 
G01 X40.4819 Y55.3516 
G01 X40.5616 Y55.1951 
G01 X40.6648 Y55.0530 
G01 X40.7890 Y54.9288 
G01 X40.9311 Y54.8256 
G01 X41.0876 Y54.7459 
G01 X41.2547 Y54.6916 
G01 X41.4282 Y54.6641 
G01 X41.6038 Y54.6641 
G01 X41.7773 Y54.6916 
G01 X41.9444 Y54.7459 
G01 X42.1009 Y54.8256 
G01 X42.2430 Y54.9288 
G01 X42.3672 Y55.0530 
G01 X42.4704 Y55.1951 
G01 X42.5501 Y55.3516 
G01 X42.6044 Y55.5187 
G01 X42.6319 Y55.6922 
G01 X42.6319 Y55.8678 
G01 X42.6044 Y56.0413 
G01 X42.5501 Y56.2084 
G01 X42.4704 Y56.3649 
G01 X42.3672 Y56.5070 
G01 X42.2430 Y56.6312 
G01 X42.1009 Y56.7344 
G01 X41.9444 Y56.8141 
G01 X41.7773 Y56.8684 
G01 X41.6038 Y56.8959 
G01 X41.4282 Y56.8959 
G01 X41.2547 Y56.8684 
G01 X41.0876 Y56.8141 
G01 X40.9311 Y56.7344 
G01 X40.7890 Y56.6312 
G00 Z2.5400  
G00 X38.8672 Y45.3310 
G01 Z-0.1778 F254   
G01 X38.7430 Y45.4552 F508   
G01 X38.6009 Y45.5584 
G01 X38.4444 Y45.6381 
G01 X38.2773 Y45.6924 
G01 X38.1038 Y45.7199 
G01 X37.9282 Y45.7199 
G01 X37.7547 Y45.6924 
G01 X37.5876 Y45.6381 
G01 X37.4311 Y45.5584 
G01 X37.2890 Y45.4552 
G01 X37.1648 Y45.3310 
G01 X37.0616 Y45.1889 
G01 X36.9819 Y45.0324 
G01 X36.9276 Y44.8653 
G01 X36.9001 Y44.6918 
G01 X36.9001 Y44.5162 
G01 X36.9276 Y44.3427 
G01 X36.9819 Y44.1756 
G01 X37.0616 Y44.0191 
G01 X37.1648 Y43.8770 
G01 X37.2890 Y43.7528 
G01 X37.4311 Y43.6496 
G01 X37.5876 Y43.5699 
G01 X37.7547 Y43.5156 
G01 X37.9282 Y43.4881 
G01 X38.1038 Y43.4881 
G01 X38.2773 Y43.5156 
G01 X38.4444 Y43.5699 
G01 X38.6009 Y43.6496 
G01 X38.7430 Y43.7528 
G01 X38.8672 Y43.8770 
G01 X38.9704 Y44.0191 
G01 X39.0501 Y44.1756 
G01 X39.1044 Y44.3427 
G01 X39.1319 Y44.5162 
G01 X39.1319 Y44.6918 
G01 X39.1044 Y44.8653 
G01 X39.0501 Y45.0324 
G01 X38.9704 Y45.1889 
G01 X38.8672 Y45.3310 
G00 Z2.5400  
G00 X35.3672 Y45.3310 
G01 Z-0.1778 F254   
G01 X35.2430 Y45.4552 F508   
G01 X35.1009 Y45.5584 
G01 X34.9444 Y45.6381 
G01 X34.7773 Y45.6924 
G01 X34.6038 Y45.7199 
G01 X34.4282 Y45.7199 
G01 X34.2547 Y45.6924 
G01 X34.0876 Y45.6381 
G01 X33.9311 Y45.5584 
G01 X33.7890 Y45.4552 
G01 X33.6648 Y45.3310 
G01 X33.5616 Y45.1889 
G01 X33.4819 Y45.0324 
G01 X33.4276 Y44.8653 
G01 X33.4001 Y44.6918 
G01 X33.4001 Y44.5162 
G01 X33.4276 Y44.3427 
G01 X33.4819 Y44.1756 
G01 X33.5616 Y44.0191 
G01 X33.6648 Y43.8770 
G01 X33.7890 Y43.7528 
G01 X33.9311 Y43.6496 
G01 X34.0876 Y43.5699 
G01 X34.2547 Y43.5156 
G01 X34.4282 Y43.4881 
G01 X34.6038 Y43.4881 
G01 X34.7773 Y43.5156 
G01 X34.9444 Y43.5699 
G01 X35.1009 Y43.6496 
G01 X35.2430 Y43.7528 
G01 X35.3672 Y43.8770 
G01 X35.4704 Y44.0191 
G01 X35.5501 Y44.1756 
G01 X35.6044 Y44.3427 
G01 X35.6319 Y44.5162 
G01 X35.6319 Y44.6918 
G01 X35.6044 Y44.8653 
G01 X35.5501 Y45.0324 
G01 X35.4704 Y45.1889 
G01 X35.3672 Y45.3310 
G00 Z2.5400  
G00 X31.8672 Y45.3310 
G01 Z-0.1778 F254   
G01 X31.7430 Y45.4552 F508   
G01 X31.6009 Y45.5584 
G01 X31.4444 Y45.6381 
G01 X31.2773 Y45.6924 
G01 X31.1038 Y45.7199 
G01 X30.9282 Y45.7199 
G01 X30.7547 Y45.6924 
G01 X30.5876 Y45.6381 
G01 X30.4311 Y45.5584 
G01 X30.2890 Y45.4552 
G01 X30.1648 Y45.3310 
G01 X30.0616 Y45.1889 
G01 X29.9819 Y45.0324 
G01 X29.9276 Y44.8653 
G01 X29.9001 Y44.6918 
G01 X29.9001 Y44.5162 
G01 X29.9276 Y44.3427 
G01 X29.9819 Y44.1756 
G01 X30.0616 Y44.0191 
G01 X30.1648 Y43.8770 
G01 X30.2890 Y43.7528 
G01 X30.3437 Y43.7131 
G01 X30.3437 Y42.9785 
G01 X25.2254 Y37.8602 
G01 X25.1318 Y37.7666 
G01 X25.0582 Y37.6565 
G01 X25.0075 Y37.5341 
G01 X24.9817 Y37.4042 
G01 X24.9817 Y29.2345 
G01 X24.8675 Y29.1203 
G01 X23.6414 Y29.1203 
G01 X23.2858 Y29.4759 
G01 X22.4342 Y29.4759 
G01 X22.0786 Y29.1203 
G01 X21.1014 Y29.1203 
G01 X20.7458 Y29.4759 
G01 X19.8942 Y29.4759 
G01 X19.2921 Y28.8738 
G01 X19.2921 Y28.0222 
G01 X19.8942 Y27.4201 
G01 X20.7458 Y27.4201 
G01 X21.1014 Y27.7757 
G01 X22.0786 Y27.7757 
G01 X22.4342 Y27.4201 
G01 X23.2858 Y27.4201 
G01 X23.6414 Y27.7757 
G01 X25.2122 Y27.7757 
G01 X25.3421 Y27.8015 
G01 X25.4645 Y27.8522 
G01 X25.5746 Y27.9258 
G01 X25.6682 Y28.0194 
G01 X26.1762 Y28.5274 
G01 X26.2498 Y28.6375 
G01 X26.3005 Y28.7599 
G01 X26.3263 Y28.8898 
G01 X26.3263 Y37.0595 
G01 X31.5382 Y42.2714 
G01 X31.6118 Y42.3815 
G01 X31.6625 Y42.5039 
G01 X31.6883 Y42.6338 
G01 X31.6883 Y43.7131 
G01 X31.7430 Y43.7528 
G01 X31.8672 Y43.8770 
G01 X31.9704 Y44.0191 
G01 X32.0501 Y44.1756 
G01 X32.1044 Y44.3427 
G01 X32.1319 Y44.5162 
G01 X32.1319 Y44.6918 
G01 X32.1044 Y44.8653 
G01 X32.0501 Y45.0324 
G01 X31.9704 Y45.1889 
G01 X31.8672 Y45.3310 
G00 Z2.5400  
G00 X28.3672 Y45.3310 
G01 Z-0.1778 F254   
G01 X28.2430 Y45.4552 F508   
G01 X28.1009 Y45.5584 
G01 X27.9444 Y45.6381 
G01 X27.7773 Y45.6924 
G01 X27.6038 Y45.7199 
G01 X27.4282 Y45.7199 
G01 X27.2547 Y45.6924 
G01 X27.0876 Y45.6381 
G01 X26.9311 Y45.5584 
G01 X26.7890 Y45.4552 
G01 X26.6648 Y45.3310 
G01 X26.5616 Y45.1889 
G01 X26.4819 Y45.0324 
G01 X26.4276 Y44.8653 
G01 X26.4001 Y44.6918 
G01 X26.4001 Y44.5162 
G01 X26.4276 Y44.3427 
G01 X26.4819 Y44.1756 
G01 X26.5616 Y44.0191 
G01 X26.6648 Y43.8770 
G01 X26.7890 Y43.7528 
G01 X26.8437 Y43.7131 
G01 X26.8437 Y42.3868 
G01 X22.6836 Y40.0423 
G01 X17.4598 Y40.0423 
G01 X17.3299 Y40.0165 
G01 X17.2075 Y39.9658 
G01 X17.0974 Y39.8922 
G01 X17.0038 Y39.7986 
G01 X16.9302 Y39.6885 
G01 X16.8795 Y39.5661 
G01 X16.8537 Y39.4362 
G01 X16.8537 Y30.9218 
G01 X16.8795 Y30.7919 
G01 X16.9302 Y30.6695 
G01 X17.0038 Y30.5594 
G01 X17.0974 Y30.4658 
G01 X17.2075 Y30.3922 
G01 X17.3299 Y30.3415 
G01 X17.4598 Y30.3157 
G01 X19.5386 Y30.3157 
G01 X19.8942 Y29.9601 
G01 X20.7458 Y29.9601 
G01 X21.1014 Y30.3157 
G01 X22.0786 Y30.3157 
G01 X22.4342 Y29.9601 
G01 X23.2858 Y29.9601 
G01 X23.8879 Y30.5622 
G01 X23.8879 Y31.4138 
G01 X23.2858 Y32.0159 
G01 X22.4342 Y32.0159 
G01 X22.0786 Y31.6603 
G01 X21.1014 Y31.6603 
G01 X20.7458 Y32.0159 
G01 X19.8942 Y32.0159 
G01 X19.5386 Y31.6603 
G01 X18.1983 Y31.6603 
G01 X18.1983 Y38.6977 
G01 X22.8345 Y38.6977 
G01 X22.8751 Y38.6946 
G01 X22.9006 Y38.6977 
G01 X22.9262 Y38.6977 
G01 X22.9661 Y38.7056 
G01 X23.0066 Y38.7105 
G01 X23.0310 Y38.7185 
G01 X23.0561 Y38.7235 
G01 X23.0937 Y38.7391 
G01 X23.1324 Y38.7518 
G01 X23.1548 Y38.7644 
G01 X23.1785 Y38.7742 
G01 X23.2123 Y38.7968 
G01 X27.8107 Y41.3884 
G01 X27.8345 Y41.3982 
G01 X27.8683 Y41.4208 
G01 X27.9038 Y41.4408 
G01 X27.9232 Y41.4575 
G01 X27.9446 Y41.4718 
G01 X27.9733 Y41.5006 
G01 X28.0042 Y41.5271 
G01 X28.0201 Y41.5473 
G01 X28.0382 Y41.5654 
G01 X28.0608 Y41.5993 
G01 X28.0859 Y41.6313 
G01 X28.0975 Y41.6542 
G01 X28.1118 Y41.6755 
G01 X28.1274 Y41.7131 
G01 X28.1457 Y41.7495 
G01 X28.1526 Y41.7742 
G01 X28.1625 Y41.7979 
G01 X28.1704 Y41.8378 
G01 X28.1813 Y41.8770 
G01 X28.1833 Y41.9026 
G01 X28.1883 Y41.9278 
G01 X28.1883 Y41.9685 
G01 X28.1914 Y42.0091 
G01 X28.1883 Y42.0346 
G01 X28.1883 Y43.7131 
G01 X28.2430 Y43.7528 
G01 X28.3672 Y43.8770 
G01 X28.4704 Y44.0191 
G01 X28.5501 Y44.1756 
G01 X28.6044 Y44.3427 
G01 X28.6319 Y44.5162 
G01 X28.6319 Y44.6918 
G01 X28.6044 Y44.8653 
G01 X28.5501 Y45.0324 
G01 X28.4704 Y45.1889 
G01 X28.3672 Y45.3310 
G00 Z2.5400  
G00 X24.8672 Y45.3310 
G01 Z-0.1778 F254   
G01 X24.7430 Y45.4552 F508   
G01 X24.6009 Y45.5584 
G01 X24.4444 Y45.6381 
G01 X24.2773 Y45.6924 
G01 X24.1038 Y45.7199 
G01 X23.9282 Y45.7199 
G01 X23.7547 Y45.6924 
G01 X23.5876 Y45.6381 
G01 X23.4311 Y45.5584 
G01 X23.2890 Y45.4552 
G01 X23.1648 Y45.3310 
G01 X23.0616 Y45.1889 
G01 X22.9819 Y45.0324 
G01 X22.9276 Y44.8653 
G01 X22.9001 Y44.6918 
G01 X22.9001 Y44.5162 
G01 X22.9276 Y44.3427 
G01 X22.9819 Y44.1756 
G01 X23.0616 Y44.0191 
G01 X23.1648 Y43.8770 
G01 X23.2890 Y43.7528 
G01 X23.4311 Y43.6496 
G01 X23.5876 Y43.5699 
G01 X23.7547 Y43.5156 
G01 X23.9282 Y43.4881 
G01 X24.1038 Y43.4881 
G01 X24.2773 Y43.5156 
G01 X24.4444 Y43.5699 
G01 X24.6009 Y43.6496 
G01 X24.7430 Y43.7528 
G01 X24.8672 Y43.8770 
G01 X24.9704 Y44.0191 
G01 X25.0501 Y44.1756 
G01 X25.1044 Y44.3427 
G01 X25.1319 Y44.5162 
G01 X25.1319 Y44.6918 
G01 X25.1044 Y44.8653 
G01 X25.0501 Y45.0324 
G01 X24.9704 Y45.1889 
G01 X24.8672 Y45.3310 
G00 Z2.5400  
G00 X23.8879 Y33.9538 
G01 Z-0.1778 F254   
G01 X23.2858 Y34.5559 F508   
G01 X22.4342 Y34.5559 
G01 X21.8321 Y33.9538 
G01 X21.8321 Y33.1022 
G01 X22.4342 Y32.5001 
G01 X23.2858 Y32.5001 
G01 X23.8879 Y33.1022 
G01 X23.8879 Y33.9538 
G00 Z2.5400  
G00 X21.3479 Y33.9538 
G01 Z-0.1778 F254   
G01 X20.7458 Y34.5559 F508   
G01 X19.8942 Y34.5559 
G01 X19.2921 Y33.9538 
G01 X19.2921 Y33.1022 
G01 X19.8942 Y32.5001 
G01 X20.7458 Y32.5001 
G01 X21.3479 Y33.1022 
G01 X21.3479 Y33.9538 
G00 Z2.5400  
G00 X21.3479 Y26.3338 
G01 Z-0.1778 F254   
G01 X20.7458 Y26.9359 F508   
G01 X19.8942 Y26.9359 
G01 X19.2921 Y26.3338 
G01 X19.2921 Y25.4822 
G01 X19.8942 Y24.8801 
G01 X20.7458 Y24.8801 
G01 X21.3479 Y25.4822 
G01 X21.3479 Y26.3338 
G00 Z2.5400  
G00 X21.8321 Y26.3338 
G01 Z-0.1778 F254   
G01 X21.8321 Y25.4822 F508   
G01 X22.4342 Y24.8801 
G01 X23.2858 Y24.8801 
G01 X23.8879 Y25.4822 
G01 X23.8879 Y26.3338 
G01 X23.2858 Y26.9359 
G01 X22.4342 Y26.9359 
G01 X21.8321 Y26.3338 
G00 Z2.5400  
G00 X22.4342 Y24.3959 
G01 Z-0.1778 F254   
G01 X21.8321 Y23.7938 F508   
G01 X21.8321 Y22.9422 
G01 X22.4342 Y22.3401 
G01 X23.2858 Y22.3401 
G01 X23.8879 Y22.9422 
G01 X23.8879 Y23.7938 
G01 X23.2858 Y24.3959 
G01 X22.4342 Y24.3959 
G00 Z2.5400  
G00 X21.3479 Y23.7938 
G01 Z-0.1778 F254   
G01 X20.7458 Y24.3959 F508   
G01 X19.8942 Y24.3959 
G01 X19.2921 Y23.7938 
G01 X19.2921 Y22.9422 
G01 X19.8942 Y22.3401 
G01 X20.7458 Y22.3401 
G01 X21.3479 Y22.9422 
G01 X21.3479 Y23.7938 
G00 Z2.5400  
G00 X21.3479 Y21.2538 
G01 Z-0.1778 F254   
G01 X20.7458 Y21.8559 F508   
G01 X19.8942 Y21.8559 
G01 X19.2921 Y21.2538 
G01 X19.2921 Y20.4022 
G01 X19.8942 Y19.8001 
G01 X20.7458 Y19.8001 
G01 X21.3479 Y20.4022 
G01 X21.3479 Y21.2538 
G00 Z2.5400  
G00 X21.8321 Y21.2538 
G01 Z-0.1778 F254   
G01 X21.8321 Y20.4022 F508   
G01 X22.4342 Y19.8001 
G01 X23.2858 Y19.8001 
G01 X23.8879 Y20.4022 
G01 X23.8879 Y21.2538 
G01 X23.2858 Y21.8559 
G01 X22.4342 Y21.8559 
G01 X21.8321 Y21.2538 
G00 Z2.5400  
G00 X22.4342 Y19.3159 
G01 Z-0.1778 F254   
G01 X21.8321 Y18.7138 F508   
G01 X21.8321 Y17.8622 
G01 X22.4342 Y17.2601 
G01 X23.2858 Y17.2601 
G01 X23.8879 Y17.8622 
G01 X23.8879 Y18.7138 
G01 X23.2858 Y19.3159 
G01 X22.4342 Y19.3159 
G00 Z2.5400  
G00 X21.3479 Y18.7138 
G01 Z-0.1778 F254   
G01 X20.7458 Y19.3159 F508   
G01 X19.8942 Y19.3159 
G01 X19.2921 Y18.7138 
G01 X19.2921 Y17.8622 
G01 X19.8942 Y17.2601 
G01 X20.7458 Y17.2601 
G01 X21.3479 Y17.8622 
G01 X21.3479 Y18.7138 
G00 Z2.5400  
G00 X21.3479 Y16.1738 
G01 Z-0.1778 F254   
G01 X20.7458 Y16.7759 F508   
G01 X19.8942 Y16.7759 
G01 X19.2921 Y16.1738 
G01 X19.2921 Y15.3222 
G01 X19.8942 Y14.7201 
G01 X20.7458 Y14.7201 
G01 X21.3479 Y15.3222 
G01 X21.3479 Y16.1738 
G00 Z2.5400  
G00 X21.8321 Y16.1738 
G01 Z-0.1778 F254   
G01 X21.8321 Y15.3222 F508   
G01 X22.4342 Y14.7201 
G01 X23.2858 Y14.7201 
G01 X23.6414 Y15.0757 
G01 X26.0529 Y15.0757 
G01 X26.6888 Y14.8637 
G01 X26.7279 Y14.8475 
G01 X26.7514 Y14.8429 
G01 X26.7742 Y14.8353 
G01 X26.8163 Y14.8300 
G01 X26.8578 Y14.8217 
G01 X26.8818 Y14.8217 
G01 X26.9056 Y14.8187 
G01 X26.9479 Y14.8217 
G01 X45.4609 Y14.8217 
G01 X45.5221 Y14.8208 
G01 X45.5271 Y14.8217 
G01 X45.5322 Y14.8217 
G01 X45.5922 Y14.8336 
G01 X46.1491 Y14.9357 
G01 X46.1542 Y14.9357 
G01 X46.2142 Y14.9476 
G01 X46.2743 Y14.9587 
G01 X46.2791 Y14.9605 
G01 X46.2841 Y14.9615 
G01 X46.3406 Y14.9849 
G01 X46.3974 Y15.0075 
G01 X46.4017 Y15.0103 
G01 X46.4065 Y15.0122 
G01 X46.4573 Y15.0462 
G01 X46.5086 Y15.0794 
G01 X46.5123 Y15.0829 
G01 X46.5166 Y15.0858 
