(.../workspace/GcodePhorum/pcb-gcode.ulp)
(Copyright 2005 - 2012 by John Johnson)
(See readme.txt for licensing terms.)
(This file generated from the board:)
(.../InterfaceEagle/interfaceBoard.brd)
(Current profile is .../GcodePhorum/profiles/mach.pp  )
(This file generated 7/4/2015 12:07:32 AM)
(Settings from pcb-machine.h)
(spindle on time = 3.0000)
(spindle speed = 10000.0000)
(tool change at 0.0000  0.0000  25.4000 )
(feed rate xy = F0     )
(feed rate z  = F508   )
(Z Axis Settings)
(  High     Up        Down     Drill)
(12.7000 	2.5400  	-0.1778 	-0.8128 )
(Settings from pcb-defaults.h)
(isolate min = 0.0500)
(isolate max = 0.5080)
(isolate step = 0.1270)
(Generated top outlines, top drill, bottom outlines, bottom drill, )
(Unit of measure: mm)
( Tool|       Size       |  Min Sub |  Max Sub |   Count )
( T01 | 0.800mm 0.0315in | 0.0000in | 0.0000in |       0 )
( T02 | 0.813mm 0.0320in | 0.0000in | 0.0000in |       0 )
( T03 | 1.016mm 0.0400in | 0.0000in | 0.0000in |       0 )
( T04 | 1.100mm 0.0433in | 0.0000in | 0.0000in |       0 )
(Metric Mode)
G21
(Absolute Coordinates)
G90
S10000
G00 Z12.7000 
G00 X0.0000  Y0.0000  
M03
G04 P3.000000
M05
G00 Z25.4000 
M06 T01  ; 0.8000  
G01 Z0.0000  F508   
M06 
G00 Z2.5400  
M03
G04 P3.000000
G82 X0.0000  Y0.0000  Z-0.8128 F508   R2.5400  P1.000000
G82 X50.8000 Y0.0000  
G82 X50.8000 Y63.5000 
G82 X0.0000  Y63.5000 
M05
G00 Z25.4000 
G00 X0.0000  Y0.0000  
M06 T02  ; 0.8128  
G01 Z0.0000  F508   
M06 
G00 Z2.5400  
M03
G04 P3.000000
G82 X28.9560 Y28.1940 Z-0.8128 F508   R2.5400  P1.000000
G82 X35.0520 Y29.7180 
G82 X35.0520 Y32.2580 
G82 X35.0520 Y34.7980 
G82 X28.9560 Y37.3380 
M05
G00 Z25.4000 
G00 X0.0000  Y0.0000  
M06 T03  ; 1.0160  
G01 Z0.0000  F508   
M06 
G00 Z2.5400  
M03
G04 P3.000000
G82 X20.3200 Y10.6680 Z-0.8128 F508   R2.5400  P1.000000
G82 X22.8600 Y10.6680 
G82 X22.8600 Y13.2080 
G82 X20.3200 Y13.2080 
G82 X20.3200 Y15.7480 
G82 X22.8600 Y15.7480 
G82 X22.8600 Y18.2880 
G82 X20.3200 Y18.2880 
G82 X20.3200 Y20.8280 
G82 X20.3200 Y23.3680 
G82 X22.8600 Y23.3680 
G82 X22.8600 Y20.8280 
G82 X22.8600 Y25.9080 
G82 X20.3200 Y25.9080 
G82 X20.3200 Y28.4480 
G82 X20.3200 Y30.9880 
G82 X20.3200 Y33.5280 
G82 X22.8600 Y33.5280 
G82 X22.8600 Y30.9880 
G82 X22.8600 Y28.4480 
M05
G00 Z25.4000 
G00 X0.0000  Y0.0000  
M06 T04  ; 1.1000  
G01 Z0.0000  F508   
M06 
G00 Z2.5400  
M03
G04 P3.000000
G82 X6.2500  Y3.4980  Z-0.8128 F508   R2.5400  P1.000000
G82 X6.2500  Y6.9980  
G82 X6.2500  Y10.4980 
G82 X6.2500  Y13.9980 
G82 X6.2500  Y17.4980 
G82 X6.2500  Y20.9980 
G82 X6.2500  Y24.4980 
G82 X6.2500  Y27.9980 
G82 X6.2500  Y33.7240 
G82 X6.2500  Y37.2240 
G82 X6.2500  Y40.7240 
G82 X6.2500  Y44.2240 
G82 X6.2500  Y47.7240 
G82 X6.2500  Y51.2240 
G82 X6.2500  Y54.7240 
G82 X6.2500  Y58.2240 
G82 X20.5160 Y55.7800 
G82 X24.0160 Y55.7800 
G82 X27.5160 Y55.7800 
G82 X31.0160 Y55.7800 
G82 X34.5160 Y55.7800 
G82 X38.0160 Y55.7800 
G82 X41.5160 Y55.7800 
G82 X45.0160 Y55.7800 
G82 X45.0160 Y44.6040 
G82 X41.5160 Y44.6040 
G82 X38.0160 Y44.6040 
G82 X34.5160 Y44.6040 
G82 X31.0160 Y44.6040 
G82 X27.5160 Y44.6040 
G82 X24.0160 Y44.6040 
G82 X20.5160 Y44.6040 
G82 X25.4000 Y25.9080 
G82 X25.4000 Y23.3680 
G82 X25.4000 Y20.8280 
G82 X25.4000 Y18.2880 
G82 X28.5880 Y20.7280 
G82 X32.0880 Y20.7280 
G82 X35.5880 Y20.7280 
G82 X39.0880 Y20.7280 
G82 X42.5880 Y20.7280 
G82 X46.0880 Y20.7280 
G82 X45.0580 Y30.2540 
G82 X45.0580 Y33.7540 
G82 X46.0880 Y9.0440  
G82 X42.5880 Y9.0440  
G82 X39.0880 Y9.0440  
G82 X35.5880 Y9.0440  
G82 X32.0880 Y9.0440  
G82 X28.5880 Y9.0440  
G82 X11.4300 Y7.1120  
G82 X11.4300 Y3.5560  
G82 X11.4300 Y13.4620 
G82 X11.4300 Y16.5100 
T01 
G00 Z12.7000 
M05
M02
